outputs/second_method/residual_lut_65.cube
TITLE "Residual LUT 65^3"
LUT_3D_SIZE 9
DOMAIN_MIN 0.0 0.0 0.0
DOMAIN_MAX 1.0 1.0 1.0
-0.000006 -0.000512 0.000959
0.085871 -0.021259 0.000418
0.135534 -0.038568 0.000000
0.103905 -0.058833 0.008864
0.087445 -0.086273 0.007843
0.159622 0.006605 0.101961
0.159622 0.006605 0.101961
0.136848 -0.057534 0.113200
0.172289 -0.035920 0.123728
0.009458 0.033667 0.008406
0.036055 0.006950 0.024008
0.078313 -0.014383 0.015690
0.111228 -0.021235 0.067785
0.131016 -0.033924 0.047059
0.159622 0.006605 0.101961
0.133078 -0.056213 0.102946
0.172289 -0.035920 0.123728
0.172289 -0.035920 0.123728
0.000171 0.061042 0.053642
0.053587 0.042495 0.058163
0.069211 0.012462 0.062590
0.098858 -0.004518 0.084507
0.127525 -0.017440 0.101312
0.130879 0.018172 0.141157
0.149008 -0.011210 0.165233
0.131492 -0.032381 0.156807
0.131492 -0.032381 0.156807
0.053820 0.087771 0.090744
0.086437 0.061356 0.074796
0.083018 0.045131 0.108578
0.095327 0.017399 0.096156
0.117593 0.005843 0.110072
0.123885 -0.007243 0.122129
0.127246 -0.024771 0.160784
0.129629 -0.013397 0.172549
0.104458 -0.013410 0.188235
-0.001127 0.115245 0.156549
0.142202 0.092017 0.140253
0.091398 0.044742 0.130026
0.105748 0.050378 0.171493
0.116053 0.019602 0.112838
0.120023 0.008047 0.164138
0.110270 -0.009350 0.180070
0.104458 -0.013410 0.188235
0.104458 -0.013410 0.188235
0.222101 0.101612 0.165731
0.187343 0.092688 0.179592
0.138573 0.066555 0.152724
0.127485 0.049660 0.166173
0.130308 0.031136 0.141365
0.121778 0.018954 0.177277
0.119886 0.013778 0.189665
0.144593 0.025767 0.188497
0.149351 0.004961 0.279736
0.134701 0.107421 0.159729
0.178598 0.067238 0.180234
0.169312 0.061366 0.180766
0.137157 0.046739 0.218025
0.161265 0.046701 0.170588
0.156560 0.036951 0.239216
0.133422 0.019624 0.260715
0.136794 0.018434 0.253548
0.136794 0.018434 0.253548
0.233285 0.053394 0.194221
0.176192 0.059581 0.182011
0.167844 0.041924 0.205228
0.166292 0.034208 0.198065
0.150341 0.037243 0.213974
0.162820 0.037341 0.261741
0.145934 0.028179 0.231373
0.145672 0.025058 0.261438
0.148076 0.012305 0.231187
0.276458 0.040131 0.195592
0.176192 0.059581 0.182011
0.167844 0.041924 0.205228
0.159227 0.023266 0.208381
0.156644 0.032601 0.231138
0.153020 0.036766 0.240047
0.152715 0.024218 0.255109
0.139263 0.003081 0.268692
0.131137 0.059915 0.284632
-0.011274 -0.034971 0.096883
0.030647 -0.052763 0.054530
0.084928 -0.071076 0.054355
0.101964 -0.050392 0.040391
0.084237 -0.057187 0.052236
0.156023 -0.023892 0.126370
0.136848 -0.057534 0.113200
0.172289 -0.035920 0.123728
0.172289 -0.035920 0.123728
-0.014483 -0.005550 0.068620
0.007457 -0.034172 0.055432
0.039780 -0.068242 0.073265
0.079462 -0.044574 0.088346
0.115893 -0.061175 0.108086
0.154070 -0.027400 0.122294
0.172289 -0.035920 0.123728
0.215076 -0.022640 0.159053
0.216869 -0.025778 0.176388
0.000461 0.008561 0.063271
0.009917 -0.016149 0.067465
0.037255 -0.033010 0.082310
0.073248 -0.045192 0.100492
0.104981 -0.047436 0.120413
0.115175 -0.056206 0.127663
0.143428 -0.052686 0.139085
0.224616 -0.015330 0.173415
0.153788 -0.048111 0.159148
-0.013704 0.039956 0.091668
0.056495 0.030234 0.105656
0.041278 -0.010383 0.102477
0.076681 -0.018922 0.128484
0.101140 -0.033980 0.140203
0.110579 -0.050613 0.150531
0.110497 -0.055035 0.164307
0.135517 -0.046043 0.182147
0.140724 -0.032917 0.205454
0.049811 0.076751 0.119943
0.100051 0.053310 0.132236
0.088668 0.047320 0.167251
0.089612 0.005762 0.149804
0.100441 -0.015629 0.163016
0.102908 -0.034065 0.177709
0.093970 -0.048772 0.187575
0.108997 -0.043540 0.201994
0.130030 -0.041650 0.213765
0.173540 0.087872 0.163258
0.186923 0.064318 0.147767
0.120123 0.037000 0.166031
0.106393 0.020713 0.177583
0.104119 -0.001767 0.179964
0.108215 -0.013182 0.205027
0.111039 -0.021823 0.224625
0.161069 -0.007419 0.250358
0.161069 -0.007419 0.250358
0.228448 0.056920 0.180117
0.184859 0.051291 0.185479
0.149448 0.042677 0.183276
0.160470 0.034095 0.204593
0.136537 0.016839 0.213313
0.129582 0.000610 0.234757
0.117277 -0.018107 0.244281
0.136044 -0.014078 0.265522
0.136044 -0.014078 0.265522
0.233285 0.053394 0.194221
0.276458 0.040131 0.195592
0.166376 0.037662 0.201188
0.159227 0.023266 0.208381
0.145584 0.001856 0.222033
0.158937 0.021365 0.251240
0.136704 -0.002508 0.258368
0.144131 -0.015824 0.276277
0.113446 -0.002311 0.266503
0.226360 0.043040 0.198047
0.229419 0.029616 0.207627
0.159227 0.023266 0.208381
0.155371 0.018024 0.210601
0.158195 0.029280 0.248977
0.158937 0.021365 0.251240
0.136704 -0.002508 0.258368
0.124697 -0.009183 0.259904
0.099571 0.007733 0.269930
-0.018946 -0.032207 0.149842
0.020995 -0.074564 0.085465
0.024148 -0.081618 0.087235
0.071950 -0.062624 0.083268
0.115893 -0.061175 0.108086
0.091641 -0.075170 0.109631
0.172289 -0.035920 0.123728
0.215076 -0.022640 0.159053
0.215076 -0.022640 0.159053
-0.021442 -0.044394 0.112126
-0.023755 -0.062277 0.100890
0.024148 -0.081618 0.087235
0.068317 -0.075989 0.096458
0.095775 -0.071840 0.129623
0.100870 -0.073853 0.144410
0.215076 -0.022640 0.159053
0.232537 0.004271 0.179610
0.232537 0.004271 0.179610
-0.031060 -0.025677 0.103775
-0.027689 -0.054160 0.101279
0.006701 -0.071865 0.109072
0.018878 -0.088963 0.097769
0.086598 -0.088417 0.136613
0.112891 -0.078553 0.157185
0.135316 -0.043451 0.164155
0.151413 -0.057241 0.193576
0.151413 -0.057241 0.193576
-0.038970 -0.007345 0.109533
-0.004960 -0.013964 0.124387
0.021043 -0.038784 0.134534
0.047572 -0.062634 0.145659
0.076666 -0.068415 0.158943
0.099489 -0.092498 0.166532
0.174726 0.008925 0.239474
0.176836 -0.032435 0.231563
0.152282 -0.055234 0.212929
-0.028633 0.031551 0.148871
0.060751 0.017552 0.155016
0.046716 -0.010516 0.160092
0.060421 -0.037854 0.170262
0.075659 -0.058770 0.177295
0.084270 -0.073415 0.189026
0.084079 -0.079177 0.207801
0.154963 -0.046992 0.232065
0.154963 -0.046992 0.232065
-0.007377 0.056901 0.165094
0.141235 0.031545 0.183080
0.081436 -0.002797 0.180894
0.069719 -0.020599 0.182637
0.089083 -0.033614 0.210242
0.097856 -0.049326 0.219419
0.100966 -0.056332 0.239187
0.132707 -0.044660 0.255985
0.132706 -0.043252 0.275144
0.233285 0.053394 0.194221
0.212026 0.036524 0.197646
0.155777 0.019980 0.213017
0.123822 0.009292 0.214812
0.112892 -0.012264 0.226758
0.115602 -0.032018 0.245516
0.108452 -0.041730 0.263287
0.140536 -0.042353 0.284205
0.140536 -0.042353 0.284205
0.226360 0.043040 0.198047
0.229419 0.029616 0.207627
0.177369 0.015100 0.234427
0.149705 -0.007250 0.244986
0.143848 -0.012863 0.236441
0.147981 0.006406 0.268866
0.135704 0.016286 0.276469
0.123571 -0.036218 0.310165
0.085028 0.065857 0.290350
0.284411 0.047886 0.209639
0.244907 0.012161 0.243596
0.180931 0.005731 0.238624
0.133983 -0.000734 0.245150
0.157324 -0.010890 0.270768
0.147981 0.006406 0.268866
0.128732 -0.012696 0.279864
0.097493 -0.019201 0.286006
0.080388 0.023041 0.288268
-0.026704 -0.076798 0.096891
-0.026704 -0.076798 0.096891
0.024148 -0.081618 0.087235
0.024148 -0.081618 0.087235
0.064892 -0.090099 0.123826
0.091641 -0.075170 0.109631
0.104136 -0.079148 0.148933
0.215076 -0.022640 0.159053
0.232537 0.004271 0.179610
-0.026704 -0.076798 0.096891
-0.071590 -0.069672 0.118814
-0.020134 -0.098439 0.118921
0.028428 -0.096338 0.122469
0.070212 -0.103261 0.148325
0.070212 -0.103261 0.148325
0.100116 -0.080810 0.163810
0.151413 -0.057241 0.193576
0.151413 -0.057241 0.193576
-0.035594 -0.070404 0.121986
-0.067927 -0.091765 0.117194
-0.026327 -0.114970 0.129174
0.028428 -0.096338 0.122469
0.070212 -0.103261 0.148325
0.067200 -0.100519 0.159754
0.090741 -0.102753 0.177783
0.103320 -0.072803 0.216541
0.151413 -0.057241 0.193576
-0.044835 -0.040701 0.143030
-0.082088 -0.059215 0.135461
-0.027022 -0.092538 0.121987
0.013807 -0.098085 0.157360
0.031371 -0.131769 0.147245
0.090002 -0.123491 0.181044
0.103320 -0.072803 0.216541
0.075977 -0.106045 0.214476
0.077465 -0.114916 0.201830
-0.053637 -0.016009 0.164757
-0.032795 -0.030323 0.167613
0.000986 -0.048203 0.178282
0.029581 -0.066734 0.184401
0.053024 -0.095835 0.193489
0.061764 -0.112766 0.195083
0.077027 -0.117234 0.205677
0.136225 -0.095267 0.240036
0.136225 -0.095267 0.240036
-0.000958 0.017588 0.197749
0.043090 -0.005648 0.190145
0.053081 -0.035747 0.187547
0.037014 -0.054392 0.201970
0.061937 -0.068548 0.219456
0.060514 -0.106823 0.210092
0.086984 -0.089700 0.248095
0.147987 -0.080490 0.275983
0.147987 -0.080490 0.275983
0.208466 0.027914 0.206927
0.214049 0.021240 0.242096
0.109935 -0.009808 0.227726
0.093511 -0.021473 0.243152
0.079930 -0.047829 0.248787
0.092176 -0.063541 0.265968
0.096274 -0.071457 0.280591
0.132953 -0.074262 0.296728
0.132953 -0.074262 0.296728
0.245087 0.022286 0.242662
0.244907 0.012161 0.243596
0.180931 0.005731 0.238624
0.143364 -0.010193 0.278682
0.127927 0.017201 0.285645
0.131574 0.015672 0.300111
0.109566 -0.067762 0.305777
0.120195 -0.077303 0.317808
0.063704 -0.065503 0.299980
0.245087 0.022286 0.242662
0.244907 0.012161 0.243596
0.195752 0.054999 0.265127
0.143364 -0.010193 0.278682
0.127927 0.017201 0.285645
0.131574 0.015672 0.300111
0.105402 -0.022719 0.305636
0.070642 -0.048056 0.305738
0.054243 0.047511 0.302166
-0.026704 -0.076798 0.096891
-0.026704 -0.076798 0.096891
-0.022185 -0.101730 0.114019
-0.020957 -0.116877 0.136209
0.028428 -0.096338 0.122469
0.070212 -0.103261 0.148325
0.067200 -0.100519 0.159754
0.090741 -0.102753 0.177783
0.151413 -0.057241 0.193576
-0.034720 -0.070485 0.125994
-0.087506 -0.088024 0.122668
-0.023956 -0.121927 0.130781
-0.005051 -0.125079 0.141848
0.028428 -0.096338 0.122469
0.067200 -0.100519 0.159754
0.067200 -0.100519 0.159754
0.103320 -0.072803 0.216541
0.103320 -0.072803 0.216541
-0.045224 -0.075122 0.119052
-0.099570 -0.111337 0.119804
-0.023975 -0.116948 0.127908
-0.005051 -0.125079 0.141848
-0.007705 -0.148548 0.156115
0.067200 -0.100519 0.159754
0.071337 -0.114557 0.182057
0.060096 -0.119975 0.181836
0.075977 -0.106045 0.214476
-0.052409 -0.075997 0.145948
-0.104044 -0.087173 0.146050
-0.061129 -0.114568 0.150726
-0.010676 -0.132980 0.154230
0.047485 -0.115963 0.183992
0.067854 -0.121391 0.196667
0.060096 -0.119975 0.181836
0.068450 -0.130869 0.199013
0.072508 -0.117742 0.225711
-0.061392 -0.057624 0.165508
-0.115203 -0.083265 0.154085
-0.042948 -0.087404 0.192623
-0.008741 -0.108284 0.182289
0.032056 -0.125055 0.185632
0.047685 -0.127152 0.193201
0.072795 -0.122766 0.220559
0.061089 -0.129780 0.218888
0.072508 -0.117742 0.225711
-0.068595 -0.032978 0.187286
-0.076912 -0.057843 0.178328
-0.030622 -0.070448 0.192704
0.001669 -0.090444 0.199842
0.032908 -0.109120 0.204939
0.057513 -0.114869 0.227647
0.079648 -0.127903 0.249171
0.113826 -0.119984 0.254034
0.113826 -0.119984 0.254034
-0.061010 -0.018782 0.217267
0.095041 -0.007157 0.238798
0.057347 -0.033448 0.234472
0.025694 -0.057680 0.243666
0.054038 -0.080359 0.250978
0.074950 -0.091274 0.260701
0.080443 -0.107437 0.277174
0.136105 -0.095246 0.301231
0.119065 -0.097959 0.315646
0.146443 0.017738 0.257816
0.132230 0.014150 0.282178
0.083218 -0.005444 0.281275
0.099620 -0.033769 0.279488
0.121892 0.026182 0.306701
0.101974 -0.028751 0.310047
0.084419 -0.097739 0.299112
0.072841 -0.124779 0.309707
0.051419 -0.151015 0.290588
0.136307 0.000990 0.291769
0.067335 -0.048574 0.241929
0.083218 -0.005444 0.281275
0.099620 -0.033769 0.279488
0.121892 0.026182 0.306701
0.083605 -0.070041 0.300088
0.069921 -0.074628 0.301499
0.045108 -0.090325 0.300722
0.031884 0.003703 0.310251
-0.034720 -0.070485 0.125994
-0.034720 -0.070485 0.125994
-0.023956 -0.121927 0.130781
-0.005051 -0.125079 0.141848
-0.005051 -0.125079 0.141848
0.067200 -0.100519 0.159754
0.067200 -0.100519 0.159754
0.071337 -0.114557 0.182057
0.103320 -0.072803 0.216541
-0.039616 -0.069183 0.109935
-0.097962 -0.111194 0.129568
-0.023956 -0.121927 0.130781
-0.005051 -0.125079 0.141848
-0.002398 -0.135560 0.157790
-0.007845 -0.141595 0.166613
0.071337 -0.114557 0.182057
0.060096 -0.119975 0.181836
0.068450 -0.130869 0.199013
-0.065398 -0.092248 0.137236
-0.102680 -0.107849 0.138206
-0.028803 -0.139773 0.133391
-0.010676 -0.132980 0.154230
-0.007845 -0.141595 0.166613
-0.007845 -0.141595 0.166613
0.060096 -0.119975 0.181836
0.068450 -0.130869 0.199013
0.068450 -0.130869 0.199013
-0.067669 -0.102251 0.128143
-0.087467 -0.111624 0.136335
-0.181158 -0.115051 0.134248
-0.003585 -0.136532 0.170692
-0.007845 -0.141595 0.166613
-0.022609 -0.179014 0.147457
0.049795 -0.130051 0.191542
0.061089 -0.129780 0.218888
0.061089 -0.129780 0.218888
-0.065770 -0.085560 0.154203
-0.136981 -0.107704 0.144138
-0.130710 -0.110379 0.162664
-0.033964 -0.112753 0.174759
-0.020992 -0.170849 0.166441
-0.003416 -0.172090 0.176853
0.045420 -0.150469 0.205492
0.119695 -0.107029 0.257995
0.119695 -0.107029 0.257995
-0.076402 -0.081872 0.169202
-0.121820 -0.097774 0.165706
-0.152455 -0.129805 0.183517
-0.098784 -0.143231 0.146630
-0.012778 -0.141922 0.199676
-0.002642 -0.164692 0.265940
0.128343 -0.082439 0.305928
0.134146 -0.105800 0.277832
0.134146 -0.105800 0.277832
-0.085399 -0.052468 0.204937
-0.096550 -0.060374 0.205108
-0.100340 -0.083433 0.227219
-0.035595 -0.097017 0.227254
0.013606 -0.113675 0.258838
0.017515 -0.158917 0.248298
0.068545 -0.125837 0.261803
0.135327 -0.106006 0.292080
0.132493 -0.107075 0.303507
-0.066908 -0.077911 0.217930
-0.009447 -0.049619 0.241683
0.013949 -0.023438 0.273175
0.041097 0.012724 0.296330
0.036578 -0.073061 0.294667
0.057433 -0.088030 0.308033
0.055563 -0.136181 0.295898
0.059308 -0.159998 0.286668
0.070299 -0.172047 0.335577
-0.034873 -0.043876 0.250954
0.056578 -0.057239 0.227394
0.013949 -0.023438 0.273175
0.041097 0.012724 0.296330
0.036578 -0.073061 0.294667
0.054922 -0.073453 0.301652
0.047472 -0.019326 0.298889
0.017574 -0.048380 0.290662
0.003498 -0.042401 0.289718
-0.034720 -0.070485 0.125994
-0.097962 -0.111194 0.129568
-0.023956 -0.121927 0.130781
-0.005051 -0.125079 0.141848
-0.005051 -0.125079 0.141848
-0.007845 -0.141595 0.166613
-0.007845 -0.141595 0.166613
0.060096 -0.119975 0.181836
0.060096 -0.119975 0.181836
-0.065398 -0.092248 0.137236
-0.102680 -0.107849 0.138206
-0.102680 -0.107849 0.138206
-0.028803 -0.139773 0.133391
-0.007845 -0.141595 0.166613
-0.007845 -0.141595 0.166613
-0.007845 -0.141595 0.166613
0.060096 -0.119975 0.181836
0.068450 -0.130869 0.199013
-0.067669 -0.102251 0.128143
-0.085792 -0.100956 0.130359
-0.103234 -0.116148 0.125646
-0.003585 -0.136532 0.170692
-0.007845 -0.141595 0.166613
-0.022609 -0.179014 0.147457
-0.022609 -0.179014 0.147457
0.068450 -0.130869 0.199013
0.061089 -0.129780 0.218888
-0.061721 -0.098897 0.147244
-0.084387 -0.119593 0.133915
-0.181158 -0.115051 0.134248
-0.025552 -0.158914 0.170270
-0.020992 -0.170849 0.166441
-0.020936 -0.174044 0.185792
-0.003416 -0.172090 0.176853
0.061089 -0.129780 0.218888
0.061089 -0.129780 0.218888
-0.069428 -0.089545 0.153795
-0.118190 -0.088502 0.178073
-0.179933 -0.133916 0.150599
-0.039516 -0.192097 0.139032
-0.020992 -0.170849 0.166441
-0.003416 -0.172090 0.176853
-0.002887 -0.166215 0.249886
0.111453 -0.111320 0.265527
0.111453 -0.111320 0.265527
-0.074260 -0.096950 0.153401
-0.070401 -0.114945 0.168411
-0.209283 -0.123443 0.172048
-0.103135 -0.148908 0.156890
-0.019231 -0.142287 0.213951
-0.002642 -0.164692 0.265940
0.026550 -0.163754 0.234159
0.137891 -0.110211 0.303855
0.137891 -0.110211 0.303855
-0.085458 -0.081986 0.183167
-0.119427 -0.057605 0.225915
-0.082530 -0.069603 0.244460
-0.064584 -0.093896 0.225593
-0.014654 -0.126378 0.231033
0.008326 -0.141872 0.247394
0.045827 -0.161833 0.262957
0.086265 -0.148026 0.347341
0.070299 -0.172047 0.335577
-0.096623 -0.044020 0.264750
-0.088526 -0.047190 0.279162
0.063300 0.099415 0.334508
0.041801 0.072696 0.338028
0.030321 -0.037042 0.319701
0.062623 0.090786 0.350389
0.049915 0.055195 0.329294
0.021883 -0.179307 0.280395
0.053103 -0.192170 0.335384
-0.087711 -0.038042 0.255642
-0.040729 -0.002797 0.285462
0.063300 0.099415 0.334508
0.041801 0.072696 0.338028
0.030321 -0.037042 0.319701
0.070194 0.045079 0.342800
0.044456 -0.006138 0.311752
0.014481 0.020637 0.300680
-0.005811 -0.002457 0.285530
-0.065398 -0.092248 0.137236
-0.102680 -0.107849 0.138206
-0.102680 -0.107849 0.138206
-0.028803 -0.139773 0.133391
-0.007845 -0.141595 0.166613
-0.007845 -0.141595 0.166613
-0.007845 -0.141595 0.166613
0.060096 -0.119975 0.181836
0.068450 -0.130869 0.199013
-0.067669 -0.102251 0.128143
-0.085792 -0.100956 0.130359
-0.103234 -0.116148 0.125646
-0.003585 -0.136532 0.170692
-0.007845 -0.141595 0.166613
-0.007845 -0.141595 0.166613
-0.022609 -0.179014 0.147457
-0.020936 -0.174044 0.185792
0.061089 -0.129780 0.218888
-0.067669 -0.102251 0.128143
-0.067669 -0.102251 0.128143
-0.103234 -0.116148 0.125646
-0.000750 -0.151609 0.166717
-0.020992 -0.170849 0.166441
-0.022609 -0.179014 0.147457
-0.020936 -0.174044 0.185792
-0.003416 -0.172090 0.176853
0.061089 -0.129780 0.218888
-0.065770 -0.085560 0.154203
-0.084387 -0.119593 0.133915
-0.153755 -0.126771 0.147235
-0.039516 -0.192097 0.139032
-0.020992 -0.170849 0.166441
-0.020936 -0.174044 0.185792
-0.003416 -0.172090 0.176853
-0.002887 -0.166215 0.249886
0.119695 -0.107029 0.257995
-0.066991 -0.096040 0.172320
-0.119997 -0.122283 0.161775
-0.162083 -0.142149 0.146576
-0.039516 -0.192097 0.139032
-0.020992 -0.170849 0.166441
-0.003416 -0.172090 0.176853
-0.002887 -0.166215 0.249886
0.026550 -0.163754 0.234159
0.137891 -0.110211 0.303855
-0.074260 -0.096950 0.153401
-0.070401 -0.114945 0.168411
-0.209283 -0.123443 0.172048
-0.161510 -0.134118 0.201477
-0.007668 -0.126613 0.223676
-0.002642 -0.164692 0.265940
0.026550 -0.163754 0.234159
0.083614 -0.149042 0.269244
0.132493 -0.107075 0.303507
-0.085458 -0.081986 0.183167
-0.085458 -0.081986 0.183167
-0.082530 -0.069603 0.244460
-0.064584 -0.093896 0.225593
-0.014654 -0.126378 0.231033
0.008326 -0.141872 0.247394
0.045827 -0.161833 0.262957
0.048064 -0.158929 0.301049
0.070299 -0.172047 0.335577
-0.096623 -0.044020 0.264750
-0.088526 -0.047190 0.279162
0.063300 0.099415 0.334508
0.041801 0.072696 0.338028
0.048930 0.112720 0.348764
0.062623 0.090786 0.350389
0.049915 0.055195 0.329294
0.014481 0.020637 0.300680
-0.005811 -0.002457 0.285530
-0.087711 -0.038042 0.255642
-0.040729 -0.002797 0.285462
0.063300 0.099415 0.334508
0.041801 0.072696 0.338028
0.048930 0.112720 0.348764
0.070194 0.045079 0.342800
0.038345 0.034673 0.313312
0.014481 0.020637 0.300680
-0.005811 -0.002457 0.285530
-0.067669 -0.102251 0.128143
-0.085792 -0.100956 0.130359
-0.103234 -0.116148 0.125646
-0.003585 -0.136532 0.170692
-0.007845 -0.141595 0.166613
-0.007845 -0.141595 0.166613
-0.022609 -0.179014 0.147457
-0.022609 -0.179014 0.147457
0.068450 -0.130869 0.199013
-0.067669 -0.102251 0.128143
-0.067669 -0.102251 0.128143
-0.103234 -0.116148 0.125646
-0.000750 -0.151609 0.166717
-0.000750 -0.151609 0.166717
-0.022609 -0.179014 0.147457
-0.020936 -0.174044 0.185792
-0.020936 -0.174044 0.185792
0.061089 -0.129780 0.218888
-0.061721 -0.098897 0.147244
-0.061721 -0.098897 0.147244
-0.084387 -0.119593 0.133915
-0.039516 -0.192097 0.139032
-0.020992 -0.170849 0.166441
-0.020936 -0.174044 0.185792
-0.020936 -0.174044 0.185792
-0.003416 -0.172090 0.176853
0.061089 -0.129780 0.218888
-0.065770 -0.085560 0.154203
-0.118190 -0.088502 0.178073
-0.162083 -0.142149 0.146576
-0.039516 -0.192097 0.139032
-0.020992 -0.170849 0.166441
-0.020936 -0.174044 0.185792
-0.003416 -0.172090 0.176853
-0.002887 -0.166215 0.249886
0.137891 -0.110211 0.303855
-0.078003 -0.095908 0.148415
-0.119997 -0.122283 0.161775
-0.162083 -0.142149 0.146576
-0.192261 -0.132522 0.181845
-0.020992 -0.170849 0.166441
-0.003416 -0.172090 0.176853
-0.002887 -0.166215 0.249886
0.026550 -0.163754 0.234159
0.137891 -0.110211 0.303855
-0.085458 -0.081986 0.183167
-0.083430 -0.070940 0.187994
-0.209283 -0.123443 0.172048
-0.161510 -0.134118 0.201477
-0.007668 -0.126613 0.223676
-0.002642 -0.164692 0.265940
0.026550 -0.163754 0.234159
0.045827 -0.161833 0.262957
0.070299 -0.172047 0.335577
-0.085458 -0.081986 0.183167
-0.085458 -0.081986 0.183167
-0.082530 -0.069603 0.244460
-0.064584 -0.093896 0.225593
-0.040941 -0.109206 0.237761
0.008326 -0.141872 0.247394
0.049915 0.055195 0.329294
0.030997 0.035312 0.312645
0.053103 -0.192170 0.335384
-0.096623 -0.044020 0.264750
-0.088526 -0.047190 0.279162
0.063300 0.099415 0.334508
0.041801 0.072696 0.338028
0.048930 0.112720 0.348764
0.062623 0.090786 0.350389
0.030997 0.035312 0.312645
0.014481 0.020637 0.300680
-0.005811 -0.002457 0.285530
-0.087711 -0.038042 0.255642
-0.040729 -0.002797 0.285462
0.063300 0.099415 0.334508
0.041801 0.072696 0.338028
0.048930 0.112720 0.348764
0.049915 0.055195 0.329294
0.038345 0.034673 0.313312
0.014481 0.020637 0.300680
-0.005811 -0.002457 0.285530
