outputs/second_method/residual_lut_perchannel.cube
TITLE "Residual LUT (Per-Channel)"
LUT_3D_SIZE 17
DOMAIN_MIN 0.0 0.0 0.0
DOMAIN_MAX 1.0 1.0 1.0
-0.002127 0.001877 -0.073105
-0.004473 0.002398 -0.067900
-0.012349 -0.000716 -0.062247
-0.010722 -0.009515 -0.075410
-0.011670 -0.010600 -0.073764
-0.013323 -0.014199 -0.070770
-0.012107 -0.021839 -0.074872
-0.015553 -0.026006 -0.074058
-0.015553 -0.026006 -0.074058
-0.015498 -0.011747 -0.014496
-0.017659 -0.009263 -0.007209
-0.024916 -0.008447 -0.015819
-0.026544 -0.004023 -0.029011
-0.013991 0.042273 0.023930
-0.013991 0.042273 0.023930
-0.013991 0.042273 0.023930
-0.013991 0.042273 0.023930
0.007075 0.016471 -0.063510
0.005527 0.010659 -0.060251
-0.000787 0.008972 -0.054579
-0.008297 0.005851 -0.048445
-0.013396 0.001537 -0.043371
-0.010537 0.000677 -0.039648
-0.002630 0.003259 -0.041452
-0.005578 -0.002702 -0.031696
-0.009283 -0.006015 -0.017013
-0.015498 -0.011747 -0.014496
-0.017659 -0.009263 -0.007209
-0.024916 -0.008447 -0.015819
-0.026544 -0.004023 -0.029011
-0.013991 0.042273 0.023930
-0.013991 0.042273 0.023930
-0.013991 0.042273 0.023930
-0.013991 0.042273 0.023930
0.012931 0.040430 -0.043470
0.024437 0.027876 -0.041177
0.010209 0.019737 -0.042200
0.005365 0.016663 -0.043205
0.006767 0.019461 -0.047104
0.004880 0.015528 -0.037881
-0.000419 0.009341 -0.027541
-0.001367 0.006364 -0.009704
-0.000265 0.004541 0.001033
-0.000170 0.002725 0.013740
-0.004285 0.001841 0.019781
-0.014258 0.002994 0.018448
-0.021151 0.004473 0.025832
-0.021151 0.004473 0.025832
-0.013991 0.042273 0.023930
-0.013991 0.042273 0.023930
-0.013991 0.042273 0.023930
0.019141 0.042350 -0.036960
0.045613 0.040522 -0.030923
0.030235 0.032944 -0.030116
0.019626 0.021518 -0.034095
0.013094 0.016913 -0.032410
0.009617 0.018908 -0.014138
0.010300 0.017743 -0.002902
0.007612 0.012985 0.001851
0.002539 0.009481 -0.001283
0.002675 0.007859 0.010937
0.001436 0.004655 0.026829
-0.003803 0.011659 0.036199
-0.018319 -0.003645 0.042403
-0.014814 0.000092 0.048775
-0.014814 0.000092 0.048775
-0.014814 0.000092 0.048775
-0.011170 -0.007097 0.066444
0.028911 0.073764 -0.011035
0.065003 0.063611 -0.014836
0.053735 0.060857 -0.006901
0.039517 0.051398 0.001869
0.025998 0.042378 0.000274
0.020700 0.035215 0.004753
0.019777 0.032436 0.012762
0.014247 0.026486 0.019452
0.013115 0.023251 0.021026
0.005081 0.017924 0.016188
-0.006878 0.009525 0.028343
0.003994 0.013566 0.044391
-0.006862 0.020848 0.054752
-0.010689 0.025188 0.068504
-0.010689 0.025188 0.068504
0.003056 0.020990 0.068375
0.003056 0.020990 0.068375
0.029599 0.097158 0.014898
0.088707 0.077450 0.000158
0.063522 0.067306 0.008410
0.056372 0.067448 0.016062
0.043821 0.062657 0.024254
0.032185 0.050354 0.020456
0.027276 0.043478 0.027746
0.021832 0.040875 0.030211
0.016861 0.036186 0.037794
0.016558 0.034800 0.040581
0.004188 0.026027 0.042550
0.005164 0.027837 0.047882
0.003079 0.023130 0.063533
0.003675 0.022368 0.072079
0.003056 0.020990 0.068375
0.003056 0.020990 0.068375
0.004258 0.024209 0.106283
0.041458 0.113859 0.039221
0.133774 0.105738 0.035823
0.098676 0.091174 0.038508
0.071513 0.079196 0.032674
0.057366 0.077041 0.040862
0.054018 0.073571 0.046409
0.039891 0.063065 0.043575
0.025780 0.050798 0.037697
0.022605 0.046255 0.051250
0.016614 0.040456 0.059380
0.015803 0.041157 0.058740
0.009679 0.037102 0.059619
0.006991 0.034706 0.063826
0.006978 0.030795 0.086551
0.001830 0.025430 0.102170
0.004258 0.024209 0.106283
0.004258 0.024209 0.106283
0.132685 0.120770 0.033526
0.174133 0.114954 0.033951
0.134957 0.107988 0.064138
0.069075 0.054019 0.022685
0.059451 0.066429 0.042090
0.062221 0.078032 0.063306
0.057179 0.073783 0.063047
0.043382 0.063784 0.061566
0.028943 0.049792 0.061915
0.025302 0.047211 0.068441
0.012958 0.037400 0.075953
0.018188 0.045773 0.077563
0.013409 0.040891 0.081916
0.010521 0.033629 0.099364
0.005540 0.028944 0.115199
0.004567 0.035156 0.113732
0.004567 0.035156 0.113732
0.011987 0.127934 0.092418
0.011987 0.127934 0.092418
0.145571 0.111716 0.083807
0.121967 0.103169 0.066231
0.074362 0.067909 0.055187
0.079180 0.086209 0.075098
0.068900 0.080742 0.077821
0.062438 0.076083 0.084987
0.054089 0.070142 0.078004
0.040115 0.059972 0.079332
0.032625 0.055655 0.080861
0.023942 0.049714 0.096361
0.020178 0.046309 0.111173
0.015837 0.039684 0.116964
0.010722 0.034746 0.124326
0.006829 0.037733 0.128560
0.006829 0.037733 0.128560
0.011987 0.127934 0.092418
0.011987 0.127934 0.092418
0.145571 0.111716 0.083807
0.152651 0.106780 0.114114
0.113884 0.100931 0.072369
0.097103 0.092851 0.086121
0.086985 0.089527 0.089688
0.071581 0.082056 0.094737
0.066497 0.080056 0.108208
0.051720 0.069566 0.112222
0.038369 0.061278 0.106981
0.030249 0.058150 0.111321
0.024658 0.054020 0.121706
0.023252 0.051857 0.127278
0.016893 0.048493 0.132098
0.020880 0.056029 0.123828
0.020880 0.056029 0.123828
0.011987 0.127934 0.092418
0.223698 0.114567 0.088039
0.152651 0.106780 0.114114
0.152651 0.106780 0.114114
0.113884 0.100931 0.072369
0.097103 0.092851 0.086121
0.111494 0.102983 0.127050
0.088169 0.094048 0.120640
0.081739 0.090188 0.121387
0.068118 0.085081 0.133879
0.055888 0.081989 0.134286
0.037078 0.069671 0.132616
0.035682 0.070699 0.134287
0.029406 0.064622 0.150729
0.023861 0.062054 0.144312
0.041805 0.067571 0.144768
0.041805 0.067571 0.144768
0.111061 0.122227 0.064626
0.223698 0.114567 0.088039
0.152651 0.106780 0.114114
0.152651 0.106780 0.114114
0.113884 0.100931 0.072369
0.111494 0.102983 0.127050
0.111494 0.102983 0.127050
0.088169 0.094048 0.120640
0.081739 0.090188 0.121387
0.080610 0.093527 0.131413
0.068940 0.090009 0.126165
0.052081 0.083934 0.150648
0.037956 0.074628 0.149576
0.038073 0.073242 0.152999
0.028305 0.067818 0.170177
0.027423 0.068972 0.170905
0.027423 0.068972 0.170905
0.111061 0.122227 0.064626
0.174797 0.109689 0.101562
0.174797 0.109689 0.101562
0.174797 0.109689 0.101562
0.165103 0.108425 0.101109
0.111494 0.102983 0.127050
0.111494 0.102983 0.127050
0.088169 0.094048 0.120640
0.080610 0.093527 0.131413
0.080610 0.093527 0.131413
0.068940 0.090009 0.126165
0.058859 0.097215 0.134065
0.057103 0.097079 0.165315
0.043715 0.084095 0.189091
0.036660 0.086567 0.166426
0.035584 0.081307 0.199830
0.035584 0.081307 0.199830
0.111061 0.122227 0.064626
0.174797 0.109689 0.101562
0.174797 0.109689 0.101562
0.174797 0.109689 0.101562
0.165103 0.108425 0.101109
0.111494 0.102983 0.127050
0.111494 0.102983 0.127050
0.086409 0.089528 0.144979
0.080610 0.093527 0.131413
0.080610 0.093527 0.131413
0.058859 0.097215 0.134065
0.058859 0.097215 0.134065
0.058443 0.095215 0.196807
0.049189 0.073035 0.190886
0.049189 0.073035 0.190886
0.026303 0.084880 0.183778
0.026303 0.084880 0.183778
0.111061 0.122227 0.064626
0.174797 0.109689 0.101562
0.174797 0.109689 0.101562
0.174797 0.109689 0.101562
0.143556 0.099073 0.088623
0.143556 0.099073 0.088623
0.111494 0.102983 0.127050
0.086409 0.089528 0.144979
0.080610 0.093527 0.131413
0.066168 0.089129 0.164870
0.058859 0.097215 0.134065
0.058443 0.095215 0.196807
0.058443 0.095215 0.196807
0.049189 0.073035 0.190886
0.049189 0.073035 0.190886
0.026303 0.084880 0.183778
0.026303 0.084880 0.183778
0.174797 0.109689 0.101562
0.174797 0.109689 0.101562
0.174797 0.109689 0.101562
0.174797 0.109689 0.101562
0.143556 0.099073 0.088623
0.143556 0.099073 0.088623
0.086409 0.089528 0.144979
0.086409 0.089528 0.144979
0.066168 0.089129 0.164870
0.066168 0.089129 0.164870
0.058443 0.095215 0.196807
0.058443 0.095215 0.196807
0.058443 0.095215 0.196807
0.049189 0.073035 0.190886
0.049189 0.073035 0.190886
0.026303 0.084880 0.183778
0.026303 0.084880 0.183778
0.174797 0.109689 0.101562
0.174797 0.109689 0.101562
0.174797 0.109689 0.101562
0.143556 0.099073 0.088623
0.143556 0.099073 0.088623
0.143556 0.099073 0.088623
0.111541 0.087982 0.086235
0.066168 0.089129 0.164870
0.066168 0.089129 0.164870
0.058443 0.095215 0.196807
0.058443 0.095215 0.196807
0.058443 0.095215 0.196807
0.058443 0.095215 0.196807
0.049189 0.073035 0.190886
0.049189 0.073035 0.190886
0.026303 0.084880 0.183778
0.026303 0.084880 0.183778
-0.002127 0.001877 -0.073105
-0.004473 0.002398 -0.067900
-0.012349 -0.000716 -0.062247
-0.010722 -0.009515 -0.075410
-0.011670 -0.010600 -0.073764
-0.013323 -0.014199 -0.070770
-0.012107 -0.021839 -0.074872
-0.015553 -0.026006 -0.074058
-0.015553 -0.026006 -0.074058
-0.015498 -0.011747 -0.014496
-0.017659 -0.009263 -0.007209
-0.024916 -0.008447 -0.015819
-0.026544 -0.004023 -0.029011
-0.013991 0.042273 0.023930
-0.013991 0.042273 0.023930
-0.013991 0.042273 0.023930
-0.013991 0.042273 0.023930
0.007075 0.016471 -0.063510
0.005527 0.010659 -0.060251
-0.000787 0.008972 -0.054579
-0.008297 0.005851 -0.048445
-0.013396 0.001537 -0.043371
-0.010537 0.000677 -0.039648
-0.002630 0.003259 -0.041452
-0.005578 -0.002702 -0.031696
-0.009283 -0.006015 -0.017013
-0.015498 -0.011747 -0.014496
-0.017659 -0.009263 -0.007209
-0.024916 -0.008447 -0.015819
-0.026544 -0.004023 -0.029011
-0.013991 0.042273 0.023930
-0.013991 0.042273 0.023930
-0.013991 0.042273 0.023930
-0.013991 0.042273 0.023930
0.012931 0.040430 -0.043470
0.024437 0.027876 -0.041177
0.010209 0.019737 -0.042200
0.005365 0.016663 -0.043205
0.006767 0.019461 -0.047104
0.004880 0.015528 -0.037881
-0.000419 0.009341 -0.027541
-0.001367 0.006364 -0.009704
-0.000265 0.004541 0.001033
-0.000170 0.002725 0.013740
-0.004285 0.001841 0.019781
-0.014258 0.002994 0.018448
-0.021151 0.004473 0.025832
-0.021151 0.004473 0.025832
-0.013991 0.042273 0.023930
-0.013991 0.042273 0.023930
-0.026442 -0.009830 0.026049
0.019141 0.042350 -0.036960
0.045613 0.040522 -0.030923
0.030235 0.032944 -0.030116
0.019626 0.021518 -0.034095
0.013094 0.016913 -0.032410
0.009617 0.018908 -0.014138
0.010300 0.017743 -0.002902
0.007612 0.012985 0.001851
0.002539 0.009481 -0.001283
0.002675 0.007859 0.010937
0.001436 0.004655 0.026829
-0.003803 0.011659 0.036199
-0.018319 -0.003645 0.042403
-0.014814 0.000092 0.048775
-0.014814 0.000092 0.048775
-0.011170 -0.007097 0.066444
-0.026442 -0.009830 0.026049
0.028911 0.073764 -0.011035
0.065003 0.063611 -0.014836
0.053735 0.060857 -0.006901
0.039517 0.051398 0.001869
0.025998 0.042378 0.000274
0.020700 0.035215 0.004753
0.019777 0.032436 0.012762
0.014247 0.026486 0.019452
0.013115 0.023251 0.021026
0.005081 0.017924 0.016188
-0.006878 0.009525 0.028343
0.003994 0.013566 0.044391
-0.006862 0.020848 0.054752
-0.010689 0.025188 0.068504
-0.010689 0.025188 0.068504
-0.011170 -0.007097 0.066444
-0.009790 -0.001854 0.076165
0.029599 0.097158 0.014898
0.088707 0.077450 0.000158
0.063522 0.067306 0.008410
0.056372 0.067448 0.016062
0.043821 0.062657 0.024254
0.032185 0.050354 0.020456
0.027276 0.043478 0.027746
0.021832 0.040875 0.030211
0.016861 0.036186 0.037794
0.016558 0.034800 0.040581
0.004188 0.026027 0.042550
0.005164 0.027837 0.047882
0.003079 0.023130 0.063533
0.003675 0.022368 0.072079
0.003056 0.020990 0.068375
0.003056 0.020990 0.068375
-0.009790 -0.001854 0.076165
0.041458 0.113859 0.039221
0.133774 0.105738 0.035823
0.098676 0.091174 0.038508
0.071513 0.079196 0.032674
0.057366 0.077041 0.040862
0.054018 0.073571 0.046409
0.039891 0.063065 0.043575
0.025780 0.050798 0.037697
0.022605 0.046255 0.051250
0.016614 0.040456 0.059380
0.015803 0.041157 0.058740
0.009679 0.037102 0.059619
0.006991 0.034706 0.063826
0.006978 0.030795 0.086551
0.001830 0.025430 0.102170
0.004258 0.024209 0.106283
0.004258 0.024209 0.106283
0.132685 0.120770 0.033526
0.174133 0.114954 0.033951
0.134957 0.107988 0.064138
0.069075 0.054019 0.022685
0.059451 0.066429 0.042090
0.062221 0.078032 0.063306
0.057179 0.073783 0.063047
0.043382 0.063784 0.061566
0.028943 0.049792 0.061915
0.025302 0.047211 0.068441
0.012958 0.037400 0.075953
0.018188 0.045773 0.077563
0.013409 0.040891 0.081916
0.010521 0.033629 0.099364
0.005540 0.028944 0.115199
0.004567 0.035156 0.113732
0.004567 0.035156 0.113732
0.011987 0.127934 0.092418
0.011987 0.127934 0.092418
0.145571 0.111716 0.083807
0.121967 0.103169 0.066231
0.074362 0.067909 0.055187
0.079180 0.086209 0.075098
0.068900 0.080742 0.077821
0.062438 0.076083 0.084987
0.054089 0.070142 0.078004
0.040115 0.059972 0.079332
0.032625 0.055655 0.080861
0.023942 0.049714 0.096361
0.020178 0.046309 0.111173
0.015837 0.039684 0.116964
0.010722 0.034746 0.124326
0.006829 0.037733 0.128560
0.006829 0.037733 0.128560
0.011987 0.127934 0.092418
0.223698 0.114567 0.088039
0.145571 0.111716 0.083807
0.152651 0.106780 0.114114
0.113884 0.100931 0.072369
0.097103 0.092851 0.086121
0.086985 0.089527 0.089688
0.071581 0.082056 0.094737
0.066497 0.080056 0.108208
0.051720 0.069566 0.112222
0.038369 0.061278 0.106981
0.030249 0.058150 0.111321
0.024658 0.054020 0.121706
0.023252 0.051857 0.127278
0.016893 0.048493 0.132098
0.020880 0.056029 0.123828
0.020880 0.056029 0.123828
0.111061 0.122227 0.064626
0.223698 0.114567 0.088039
0.199802 0.114014 0.094146
0.152651 0.106780 0.114114
0.113884 0.100931 0.072369
0.097103 0.092851 0.086121
0.111494 0.102983 0.127050
0.088169 0.094048 0.120640
0.081739 0.090188 0.121387
0.068118 0.085081 0.133879
0.055888 0.081989 0.134286
0.037078 0.069671 0.132616
0.035682 0.070699 0.134287
0.029406 0.064622 0.150729
0.023861 0.062054 0.144312
0.041805 0.067571 0.144768
0.041805 0.067571 0.144768
0.111061 0.122227 0.064626
0.223698 0.114567 0.088039
0.174797 0.109689 0.101562
0.174797 0.109689 0.101562
0.165103 0.108425 0.101109
0.144554 0.107937 0.107808
0.111494 0.102983 0.127050
0.088169 0.094048 0.120640
0.081739 0.090188 0.121387
0.080610 0.093527 0.131413
0.068940 0.090009 0.126165
0.052081 0.083934 0.150648
0.037956 0.074628 0.149576
0.038073 0.073242 0.152999
0.028305 0.067818 0.170177
0.027423 0.068972 0.170905
0.027423 0.068972 0.170905
0.111061 0.122227 0.064626
0.174797 0.109689 0.101562
0.174797 0.109689 0.101562
0.174797 0.109689 0.101562
0.165103 0.108425 0.101109
0.144554 0.107937 0.107808
0.111494 0.102983 0.127050
0.086409 0.089528 0.144979
0.086409 0.089528 0.144979
0.080610 0.093527 0.131413
0.068940 0.090009 0.126165
0.058859 0.097215 0.134065
0.057103 0.097079 0.165315
0.043715 0.084095 0.189091
0.036660 0.086567 0.166426
0.035584 0.081307 0.199830
0.035584 0.081307 0.199830
0.111061 0.122227 0.064626
0.174797 0.109689 0.101562
0.174797 0.109689 0.101562
0.174797 0.109689 0.101562
0.143556 0.099073 0.088623
0.143556 0.099073 0.088623
0.132710 0.092690 0.091195
0.086409 0.089528 0.144979
0.086409 0.089528 0.144979
0.066168 0.089129 0.164870
0.066168 0.089129 0.164870
0.058859 0.097215 0.134065
0.058443 0.095215 0.196807
0.049189 0.073035 0.190886
0.049189 0.073035 0.190886
0.026303 0.084880 0.183778
0.026303 0.084880 0.183778
0.111061 0.122227 0.064626
0.174797 0.109689 0.101562
0.174797 0.109689 0.101562
0.174797 0.109689 0.101562
0.143556 0.099073 0.088623
0.143556 0.099073 0.088623
0.132710 0.092690 0.091195
0.086409 0.089528 0.144979
0.066168 0.089129 0.164870
0.066168 0.089129 0.164870
0.066168 0.089129 0.164870
0.058443 0.095215 0.196807
0.058443 0.095215 0.196807
0.049189 0.073035 0.190886
0.049189 0.073035 0.190886
0.026303 0.084880 0.183778
0.026303 0.084880 0.183778
0.174797 0.109689 0.101562
0.174797 0.109689 0.101562
0.174797 0.109689 0.101562
0.143556 0.099073 0.088623
0.143556 0.099073 0.088623
0.143556 0.099073 0.088623
0.111541 0.087982 0.086235
0.111541 0.087982 0.086235
0.066168 0.089129 0.164870
0.066168 0.089129 0.164870
0.058443 0.095215 0.196807
0.058443 0.095215 0.196807
0.058443 0.095215 0.196807
0.049189 0.073035 0.190886
0.049189 0.073035 0.190886
0.026303 0.084880 0.183778
0.026303 0.084880 0.183778
0.174797 0.109689 0.101562
0.174797 0.109689 0.101562
0.174797 0.109689 0.101562
0.143556 0.099073 0.088623
0.143556 0.099073 0.088623
0.143556 0.099073 0.088623
0.111541 0.087982 0.086235
0.111541 0.087982 0.086235
0.066168 0.089129 0.164870
0.066168 0.089129 0.164870
0.058443 0.095215 0.196807
0.058443 0.095215 0.196807
0.058443 0.095215 0.196807
0.049189 0.073035 0.190886
0.049189 0.073035 0.190886
0.026303 0.084880 0.183778
0.026303 0.084880 0.183778
-0.000620 0.002817 -0.076896
-0.001874 0.002157 -0.071420
-0.016303 -0.006714 -0.071467
-0.013200 -0.020089 -0.071830
-0.011177 -0.019552 -0.065272
-0.021484 -0.028316 -0.056891
-0.021484 -0.028316 -0.056891
-0.015553 -0.026006 -0.074058
-0.012044 -0.007306 -0.009829
-0.014064 -0.013393 -0.007574
-0.031423 -0.021011 -0.008960
-0.011919 0.012790 0.028636
-0.030847 -0.010650 0.023087
-0.030847 -0.010650 0.023087
-0.013991 0.042273 0.023930
-0.013991 0.042273 0.023930
-0.023602 -0.019500 0.022353
0.002401 0.004812 -0.076434
0.001562 0.004179 -0.070251
-0.003275 0.004604 -0.058780
-0.011071 0.001740 -0.049153
-0.016062 -0.002459 -0.044658
-0.014101 -0.002037 -0.031890
-0.009273 -0.001047 -0.021717
-0.013647 -0.004305 -0.018034
-0.012044 -0.007306 -0.009829
-0.014064 -0.013393 -0.007574
-0.031423 -0.021011 -0.008960
-0.011919 0.012790 0.028636
-0.030847 -0.010650 0.023087
-0.030847 -0.010650 0.023087
-0.013991 0.042273 0.023930
-0.023602 -0.019500 0.022353
-0.023602 -0.019500 0.022353
0.009084 0.028545 -0.050515
0.015331 0.017287 -0.049352
0.002696 0.008106 -0.051925
-0.004881 0.004721 -0.043067
-0.007140 0.003769 -0.032250
-0.009669 -0.000340 -0.027012
-0.007090 -0.001279 -0.018086
-0.006903 -0.002110 -0.007962
-0.004846 -0.003059 0.002023
-0.005295 -0.005301 0.008471
-0.009093 -0.007801 0.012388
-0.020887 -0.010372 0.016527
-0.023549 -0.009254 0.022774
-0.028170 -0.014547 0.022192
-0.028170 -0.014547 0.022192
-0.023602 -0.019500 0.022353
-0.026442 -0.009830 0.026049
0.011614 0.051428 -0.022499
0.042707 0.042325 -0.019458
0.021489 0.022680 -0.023237
0.012793 0.016496 -0.020248
0.005040 0.010826 -0.014522
0.005098 0.011512 -0.003315
0.005659 0.011744 0.007065
-0.004350 -0.004905 0.002706
-0.002966 -0.005637 0.009973
-0.002092 -0.007970 0.015544
-0.004375 -0.010283 0.019219
-0.006837 -0.009433 0.028731
-0.010381 -0.007125 0.039228
-0.010949 -0.002531 0.046797
-0.010949 -0.002531 0.046797
-0.026442 -0.009830 0.026049
-0.026442 -0.009830 0.026049
0.015050 0.065566 -0.011161
0.057593 0.057039 -0.004787
0.045725 0.050623 0.003419
0.031979 0.041222 0.006307
0.021515 0.034238 0.008959
0.016431 0.026145 0.014359
0.012679 0.019849 0.018363
0.008457 0.014464 0.022081
0.003950 0.006159 0.023275
0.001083 0.001741 0.027332
-0.002220 -0.000768 0.035012
-0.003305 -0.003757 0.039694
-0.006376 -0.007773 0.044086
-0.007170 -0.008563 0.050721
-0.011170 -0.007097 0.066444
-0.011170 -0.007097 0.066444
-0.012692 -0.011153 0.055110
0.038966 0.080223 0.007196
0.073671 0.069246 0.004382
0.054483 0.058174 0.011150
0.044922 0.053862 0.015683
0.030646 0.045168 0.018255
0.023357 0.036297 0.020518
0.018542 0.027562 0.024716
0.015859 0.026639 0.035382
0.012466 0.022829 0.041228
0.008621 0.017119 0.046285
0.001655 0.011342 0.051075
-0.002151 0.010562 0.059185
-0.001223 0.006867 0.066726
-0.004776 -0.001985 0.064912
-0.009011 -0.003677 0.069663
-0.009790 -0.001854 0.076165
-0.009790 -0.001854 0.076165
0.015185 0.101574 0.032334
0.119422 0.094345 0.035730
0.084068 0.081037 0.034522
0.066398 0.073405 0.038813
0.048484 0.064616 0.041539
0.042309 0.059369 0.047839
0.032582 0.050015 0.048430
0.022914 0.041169 0.051621
0.020322 0.036598 0.059740
0.016102 0.031070 0.063644
0.010477 0.026620 0.070076
0.002861 0.020091 0.072619
0.001288 0.015602 0.079427
0.003043 0.014971 0.088436
-0.002132 0.019056 0.094879
-0.002132 0.019056 0.094879
-0.009790 -0.001854 0.076165
0.008741 0.106195 0.044200
0.145593 0.101790 0.044287
0.114614 0.094667 0.061685
0.085912 0.081137 0.055881
0.066721 0.072977 0.057077
0.053881 0.064454 0.062070
0.046675 0.058841 0.068526
0.034892 0.049801 0.068045
0.026880 0.041251 0.072795
0.022155 0.036277 0.078630
0.015492 0.029931 0.082392
0.011823 0.027132 0.090150
0.005302 0.019933 0.094631
-0.005592 0.006755 0.096610
0.002566 0.019592 0.116476
0.001542 0.019233 0.121718
0.001542 0.019233 0.121718
0.051024 0.123309 0.076499
0.239319 0.122997 0.091699
0.143116 0.104286 0.082298
0.117900 0.096091 0.074670
0.079012 0.077564 0.070799
0.067923 0.073289 0.079125
0.060673 0.066955 0.081917
0.052298 0.061288 0.088747
0.040322 0.051777 0.091757
0.026969 0.039754 0.094555
0.025995 0.039366 0.103056
0.019684 0.034274 0.107614
0.015220 0.033150 0.120852
0.012128 0.024880 0.124170
0.008918 0.021563 0.128415
0.004886 0.019012 0.127762
0.004886 0.019012 0.127762
0.111061 0.122227 0.064626
0.223698 0.114567 0.088039
0.199802 0.114014 0.094146
0.176054 0.108969 0.092847
0.132812 0.091986 0.078297
0.088243 0.080823 0.092270
0.085414 0.082899 0.111735
0.066910 0.075625 0.109580
0.063857 0.073707 0.115259
0.048340 0.063609 0.122656
0.034348 0.052607 0.124250
0.025162 0.044753 0.125346
0.021284 0.042396 0.133851
0.018881 0.036015 0.138287
0.011333 0.026967 0.141819
0.027885 0.032818 0.150033
0.027885 0.032818 0.150033
0.111061 0.122227 0.064626
0.223698 0.114567 0.088039
0.199802 0.114014 0.094146
0.174797 0.109689 0.101562
0.165103 0.108425 0.101109
0.144554 0.107937 0.107808
0.090607 0.088365 0.116926
0.083378 0.083528 0.119111
0.068939 0.075758 0.121757
0.062169 0.073932 0.132962
0.046729 0.066205 0.136176
0.033160 0.057949 0.143035
0.027384 0.052035 0.147902
0.024224 0.047456 0.153683
0.018937 0.046250 0.165449
0.015022 0.042891 0.169010
0.015022 0.042891 0.169010
0.111061 0.122227 0.064626
0.223698 0.114567 0.088039
0.174797 0.109689 0.101562
0.174797 0.109689 0.101562
0.165103 0.108425 0.101109
0.144554 0.107937 0.107808
0.090607 0.088365 0.116926
0.083378 0.083528 0.119111
0.086409 0.089528 0.144979
0.076034 0.083798 0.143332
0.060585 0.076424 0.150841
0.046541 0.071058 0.157413
0.030217 0.057447 0.160077
0.028207 0.054437 0.165102
0.024734 0.052342 0.173339
0.021870 0.052390 0.183652
0.021870 0.052390 0.183652
0.111061 0.122227 0.064626
0.174797 0.109689 0.101562
0.174797 0.109689 0.101562
0.174797 0.109689 0.101562
0.143556 0.099073 0.088623
0.143556 0.099073 0.088623
0.132710 0.092690 0.091195
0.111806 0.079186 0.090253
0.086409 0.089528 0.144979
0.076034 0.083798 0.143332
0.066168 0.089129 0.164870
0.056312 0.084455 0.151805
0.053727 0.087822 0.169287
0.039412 0.071324 0.172586
0.031080 0.067533 0.186422
0.032191 0.071931 0.198225
0.032191 0.071931 0.198225
0.111061 0.122227 0.064626
0.174797 0.109689 0.101562
0.174797 0.109689 0.101562
0.174797 0.109689 0.101562
0.143556 0.099073 0.088623
0.143556 0.099073 0.088623
0.132710 0.092690 0.091195
0.111806 0.079186 0.090253
0.086409 0.089528 0.144979
0.066168 0.089129 0.164870
0.066168 0.089129 0.164870
0.056312 0.084455 0.151805
0.059180 0.094642 0.172962
0.052619 0.083868 0.174982
0.040749 0.082278 0.174317
0.028224 0.074685 0.183671
0.026499 0.070924 0.181776
0.111061 0.122227 0.064626
0.174797 0.109689 0.101562
0.174797 0.109689 0.101562
0.143556 0.099073 0.088623
0.143556 0.099073 0.088623
0.143556 0.099073 0.088623
0.111541 0.087982 0.086235
0.111541 0.087982 0.086235
0.066168 0.089129 0.164870
0.066168 0.089129 0.164870
0.066168 0.089129 0.164870
0.059180 0.094642 0.172962
0.059180 0.094642 0.172962
0.052619 0.083868 0.174982
0.040749 0.082278 0.174317
0.028224 0.074685 0.183671
0.026499 0.070924 0.181776
0.229360 0.101591 0.030744
0.174797 0.109689 0.101562
0.174797 0.109689 0.101562
0.143556 0.099073 0.088623
0.143556 0.099073 0.088623
0.143556 0.099073 0.088623
0.111541 0.087982 0.086235
0.111541 0.087982 0.086235
0.066168 0.089129 0.164870
0.066168 0.089129 0.164870
0.059180 0.094642 0.172962
0.059180 0.094642 0.172962
0.059180 0.094642 0.172962
0.052619 0.083868 0.174982
0.040749 0.082278 0.174317
0.028224 0.074685 0.183671
0.026499 0.070924 0.181776
0.229360 0.101591 0.030744
0.174797 0.109689 0.101562
0.143556 0.099073 0.088623
0.143556 0.099073 0.088623
0.143556 0.099073 0.088623
0.111541 0.087982 0.086235
0.111541 0.087982 0.086235
0.111541 0.087982 0.086235
0.066168 0.089129 0.164870
0.066168 0.089129 0.164870
0.059180 0.094642 0.172962
0.059180 0.094642 0.172962
0.059180 0.094642 0.172962
0.052619 0.083868 0.174982
0.040749 0.082278 0.174317
0.028224 0.074685 0.183671
0.026499 0.070924 0.181776
-0.004886 -0.003323 -0.105708
-0.012359 -0.007155 -0.103590
