outputs/second_method/residual_lut_65.cube
TITLE "Residual LUT 65^3"
LUT_3D_SIZE 65
DOMAIN_MIN 0.0 0.0 0.0
DOMAIN_MAX 1.0 1.0 1.0
-0.000006 -0.000512 0.000959
0.004963 -0.001443 0.002021
0.024220 -0.004621 0.001079
0.036109 -0.005589 0.000000
0.036109 -0.005589 0.000000
0.060460 -0.013256 0.004869
0.075264 -0.016765 0.007843
0.071411 -0.018703 0.002191
0.085871 -0.021259 0.000418
0.089904 -0.022546 0.000097
0.089904 -0.022546 0.000097
0.105179 -0.028591 0.002106
0.114980 -0.028260 0.005872
0.120094 -0.032544 0.000980
0.134812 -0.036807 0.000619
0.135534 -0.038568 0.000000
0.135534 -0.038568 0.000000
0.135534 -0.038568 0.000000
0.145151 -0.042938 0.015364
0.143606 -0.048675 0.001961
0.106837 -0.045817 0.007843
0.106837 -0.045817 0.007843
0.106837 -0.045817 0.007843
0.103905 -0.058833 0.008864
0.103905 -0.058833 0.008864
0.091420 -0.067699 0.000000
0.091420 -0.067699 0.000000
0.091420 -0.067699 0.000000
0.091420 -0.067699 0.000000
0.091420 -0.067699 0.000000
0.113788 -0.068748 0.031373
0.113788 -0.068748 0.031373
0.087445 -0.086273 0.007843
0.087445 -0.086273 0.007843
0.145301 -0.040271 0.045098
0.145301 -0.040271 0.045098
0.145301 -0.040271 0.045098
0.144171 -0.049347 0.090080
0.144171 -0.049347 0.090080
0.144171 -0.049347 0.090080
0.159622 0.006605 0.101961
0.159622 0.006605 0.101961
0.159622 0.006605 0.101961
0.159622 0.006605 0.101961
0.159622 0.006605 0.101961
0.159622 0.006605 0.101961
0.159622 0.006605 0.101961
0.159622 0.006605 0.101961
0.159622 0.006605 0.101961
0.159622 0.006605 0.101961
0.159622 0.006605 0.101961
0.159622 0.006605 0.101961
0.136848 -0.057534 0.113200
0.136848 -0.057534 0.113200
0.136848 -0.057534 0.113200
0.136848 -0.057534 0.113200
0.136848 -0.057534 0.113200
0.136848 -0.057534 0.113200
0.136848 -0.057534 0.113200
0.136848 -0.057534 0.113200
0.136848 -0.057534 0.113200
0.136848 -0.057534 0.113200
0.136848 -0.057534 0.113200
0.136848 -0.057534 0.113200
0.172289 -0.035920 0.123728
0.000904 -0.000083 0.002422
0.002074 -0.000984 0.003777
0.008833 -0.003235 0.003731
0.018849 -0.006984 0.005561
0.029490 -0.010141 0.006527
0.060460 -0.013256 0.004869
0.075264 -0.016765 0.007843
0.071411 -0.018703 0.002191
0.085871 -0.021259 0.000418
0.089904 -0.022546 0.000097
0.089904 -0.022546 0.000097
0.105179 -0.028591 0.002106
0.114980 -0.028260 0.005872
0.120094 -0.032544 0.000980
0.134812 -0.036807 0.000619
0.135534 -0.038568 0.000000
0.135534 -0.038568 0.000000
0.143726 -0.040055 0.011927
0.145151 -0.042938 0.015364
0.143606 -0.048675 0.001961
0.106837 -0.045817 0.007843
0.106837 -0.045817 0.007843
0.106837 -0.045817 0.007843
0.103905 -0.058833 0.008864
0.103905 -0.058833 0.008864
0.091420 -0.067699 0.000000
0.091420 -0.067699 0.000000
0.091420 -0.067699 0.000000
0.091420 -0.067699 0.000000
0.113788 -0.068748 0.031373
0.113788 -0.068748 0.031373
0.113788 -0.068748 0.031373
0.087445 -0.086273 0.007843
0.087445 -0.086273 0.007843
0.145301 -0.040271 0.045098
0.145301 -0.040271 0.045098
0.145301 -0.040271 0.045098
0.144171 -0.049347 0.090080
0.144171 -0.049347 0.090080
0.144171 -0.049347 0.090080
0.159622 0.006605 0.101961
0.159622 0.006605 0.101961
0.159622 0.006605 0.101961
0.159622 0.006605 0.101961
0.159622 0.006605 0.101961
0.159622 0.006605 0.101961
0.159622 0.006605 0.101961
0.159622 0.006605 0.101961
0.159622 0.006605 0.101961
0.159622 0.006605 0.101961
0.159622 0.006605 0.101961
0.159622 0.006605 0.101961
0.136848 -0.057534 0.113200
0.136848 -0.057534 0.113200
0.136848 -0.057534 0.113200
0.136848 -0.057534 0.113200
0.136848 -0.057534 0.113200
0.136848 -0.057534 0.113200
0.136848 -0.057534 0.113200
0.136848 -0.057534 0.113200
0.136848 -0.057534 0.113200
0.136848 -0.057534 0.113200
0.136848 -0.057534 0.113200
0.172289 -0.035920 0.123728
0.172289 -0.035920 0.123728
-0.000482 0.007724 0.002738
0.004578 0.004759 0.005277
0.007796 0.000026 0.006922
0.016172 -0.004628 0.007367
0.023346 -0.007078 0.007540
0.032884 -0.010738 0.008004
0.043216 -0.012830 0.008502
0.048226 -0.012224 0.013568
0.084675 -0.023121 0.003213
0.085217 -0.023312 0.007636
0.103342 -0.024437 0.006913
0.105179 -0.028591 0.002106
0.114980 -0.028260 0.005872
0.120094 -0.032544 0.000980
0.134812 -0.036807 0.000619
0.135534 -0.038568 0.000000
0.135534 -0.038568 0.000000
0.143726 -0.040055 0.011927
0.145151 -0.042938 0.015364
0.143606 -0.048675 0.001961
0.106837 -0.045817 0.007843
0.106837 -0.045817 0.007843
0.125804 -0.043951 0.008824
0.103905 -0.058833 0.008864
0.103905 -0.058833 0.008864
0.091420 -0.067699 0.000000
0.091420 -0.067699 0.000000
0.091420 -0.067699 0.000000
0.091420 -0.067699 0.000000
0.113788 -0.068748 0.031373
0.113788 -0.068748 0.031373
0.087445 -0.086273 0.007843
0.087445 -0.086273 0.007843
0.087445 -0.086273 0.007843
0.145301 -0.040271 0.045098
0.145301 -0.040271 0.045098
0.145301 -0.040271 0.045098
0.144171 -0.049347 0.090080
0.144171 -0.049347 0.090080
0.144171 -0.049347 0.090080
0.159622 0.006605 0.101961
0.159622 0.006605 0.101961
0.159622 0.006605 0.101961
0.159622 0.006605 0.101961
0.159622 0.006605 0.101961
0.159622 0.006605 0.101961
0.159622 0.006605 0.101961
0.159622 0.006605 0.101961
0.159622 0.006605 0.101961
0.159622 0.006605 0.101961
0.159622 0.006605 0.101961
0.136848 -0.057534 0.113200
0.136848 -0.057534 0.113200
0.136848 -0.057534 0.113200
0.136848 -0.057534 0.113200
0.136848 -0.057534 0.113200
0.136848 -0.057534 0.113200
0.136848 -0.057534 0.113200
0.136848 -0.057534 0.113200
0.136848 -0.057534 0.113200
0.136848 -0.057534 0.113200
0.136848 -0.057534 0.113200
0.172289 -0.035920 0.123728
0.172289 -0.035920 0.123728
0.172289 -0.035920 0.123728
-0.000518 0.015097 0.005851
0.006635 0.010280 0.005480
0.008856 0.006631 0.006088
0.014052 0.001014 0.006244
0.026922 -0.001157 0.009201
0.033629 -0.003534 0.012360
0.038470 -0.007121 0.015363
0.051200 -0.008793 0.016659
0.056366 -0.012444 0.015281
0.067532 -0.013538 0.018990
0.082464 -0.018485 0.016974
0.095926 -0.018611 0.016542
0.105942 -0.020361 0.017283
0.114787 -0.025666 0.015206
0.128131 -0.027467 0.009505
0.139900 -0.034802 0.004485
0.143238 -0.036251 0.007897
0.143726 -0.040055 0.011927
0.145151 -0.042938 0.015364
0.143606 -0.048675 0.001961
0.106837 -0.045817 0.007843
0.106837 -0.045817 0.007843
0.125804 -0.043951 0.008824
0.103905 -0.058833 0.008864
0.103905 -0.058833 0.008864
0.091420 -0.067699 0.000000
0.091420 -0.067699 0.000000
0.091420 -0.067699 0.000000
0.113788 -0.068748 0.031373
0.113788 -0.068748 0.031373
0.113788 -0.068748 0.031373
0.087445 -0.086273 0.007843
0.087445 -0.086273 0.007843
0.163170 -0.026079 0.070588
0.145301 -0.040271 0.045098
0.145301 -0.040271 0.045098
0.145301 -0.040271 0.045098
0.144171 -0.049347 0.090080
0.144171 -0.049347 0.090080
0.144171 -0.049347 0.090080
0.159622 0.006605 0.101961
0.159622 0.006605 0.101961
0.159622 0.006605 0.101961
0.159622 0.006605 0.101961
0.159622 0.006605 0.101961
0.159622 0.006605 0.101961
0.159622 0.006605 0.101961
0.159622 0.006605 0.101961
0.159622 0.006605 0.101961
0.159622 0.006605 0.101961
0.136848 -0.057534 0.113200
0.136848 -0.057534 0.113200
0.136848 -0.057534 0.113200
0.136848 -0.057534 0.113200
0.136848 -0.057534 0.113200
0.136848 -0.057534 0.113200
0.136848 -0.057534 0.113200
0.136848 -0.057534 0.113200
0.136848 -0.057534 0.113200
0.136848 -0.057534 0.113200
0.136848 -0.057534 0.113200
0.172289 -0.035920 0.123728
0.172289 -0.035920 0.123728
0.172289 -0.035920 0.123728
0.172289 -0.035920 0.123728
-0.002478 0.023594 0.003761
0.006761 0.014854 0.003689
0.009507 0.012588 0.008201
0.015843 0.006202 0.006886
0.023694 0.005882 0.008550
0.029306 0.001154 0.008856
0.044586 -0.000710 0.014282
0.050143 -0.002768 0.013707
0.053781 -0.006015 0.010293
0.066318 -0.006788 0.018935
0.075394 -0.011197 0.023831
0.089010 -0.013779 0.020813
0.098276 -0.015970 0.021574
0.102280 -0.017611 0.023732
0.108656 -0.017130 0.025229
0.124478 -0.021106 0.013822
0.130632 -0.024287 0.017389
0.131452 -0.028484 0.024792
0.135944 -0.031433 0.028399
0.132070 -0.030119 0.036431
0.130190 -0.057105 0.017077
0.118770 -0.057912 0.001307
0.125804 -0.043951 0.008824
0.103905 -0.058833 0.008864
0.103905 -0.058833 0.008864
0.105236 -0.061679 0.025583
0.091420 -0.067699 0.000000
0.091420 -0.067699 0.000000
0.113788 -0.068748 0.031373
0.113788 -0.068748 0.031373
0.087445 -0.086273 0.007843
0.087445 -0.086273 0.007843
0.087445 -0.086273 0.007843
0.163170 -0.026079 0.070588
0.145301 -0.040271 0.045098
0.145301 -0.040271 0.045098
0.145301 -0.040271 0.045098
0.144171 -0.049347 0.090080
0.144171 -0.049347 0.090080
0.159622 0.006605 0.101961
0.159622 0.006605 0.101961
0.159622 0.006605 0.101961
0.159622 0.006605 0.101961
0.159622 0.006605 0.101961
0.159622 0.006605 0.101961
0.159622 0.006605 0.101961
0.159622 0.006605 0.101961
0.159622 0.006605 0.101961
0.159622 0.006605 0.101961
0.159622 0.006605 0.101961
0.136848 -0.057534 0.113200
0.136848 -0.057534 0.113200
0.136848 -0.057534 0.113200
0.136848 -0.057534 0.113200
0.136848 -0.057534 0.113200
0.136848 -0.057534 0.113200
0.136848 -0.057534 0.113200
0.136848 -0.057534 0.113200
0.136848 -0.057534 0.113200
0.136848 -0.057534 0.113200
0.172289 -0.035920 0.123728
0.172289 -0.035920 0.123728
0.172289 -0.035920 0.123728
0.172289 -0.035920 0.123728
0.172289 -0.035920 0.123728
0.000916 0.030273 0.009722
0.011837 0.021861 0.006520
0.015075 0.020837 0.010373
0.017128 0.016094 0.008782
0.024188 0.006875 0.009463
0.032447 0.010008 0.012996
0.039215 0.006403 0.015081
0.045529 0.004920 0.018337
0.052419 0.001786 0.018164
0.055105 -0.004252 0.015394
0.067496 -0.007388 0.020889
0.074725 -0.008198 0.022714
0.077569 -0.012070 0.028384
0.095132 -0.015708 0.023166
0.095959 -0.017961 0.018013
0.101325 -0.019945 0.020306
0.108269 -0.019057 0.021597
0.111545 -0.022076 0.026613
0.112843 -0.024851 0.035896
0.110250 -0.031288 0.035602
0.106669 -0.032021 0.036108
0.114018 -0.034446 0.034022
0.123430 -0.031230 0.041792
0.114126 -0.045409 0.035181
0.119736 -0.043392 0.040669
0.105236 -0.061679 0.025583
0.114344 -0.056808 0.030137
0.130084 -0.072094 0.000000
0.113788 -0.068748 0.031373
0.113788 -0.068748 0.031373
0.087445 -0.086273 0.007843
0.087445 -0.086273 0.007843
0.087445 -0.086273 0.007843
0.163170 -0.026079 0.070588
0.145301 -0.040271 0.045098
0.145301 -0.040271 0.045098
0.145301 -0.040271 0.045098
0.144171 -0.049347 0.090080
0.144171 -0.049347 0.090080
0.159622 0.006605 0.101961
0.159622 0.006605 0.101961
0.159622 0.006605 0.101961
0.159622 0.006605 0.101961
0.159622 0.006605 0.101961
0.159622 0.006605 0.101961
0.159622 0.006605 0.101961
0.159622 0.006605 0.101961
0.159622 0.006605 0.101961
0.159622 0.006605 0.101961
0.133078 -0.056213 0.102946
0.136848 -0.057534 0.113200
0.136848 -0.057534 0.113200
0.136848 -0.057534 0.113200
0.136848 -0.057534 0.113200
0.136848 -0.057534 0.113200
0.136848 -0.057534 0.113200
0.136848 -0.057534 0.113200
0.136848 -0.057534 0.113200
0.136848 -0.057534 0.113200
0.172289 -0.035920 0.123728
0.172289 -0.035920 0.123728
0.172289 -0.035920 0.123728
0.172289 -0.035920 0.123728
0.172289 -0.035920 0.123728
0.172289 -0.035920 0.123728
0.000704 0.038302 0.014344
0.009592 0.036808 0.014522
0.019481 0.027160 0.011389
0.021148 0.022089 0.012527
0.023475 0.021071 0.015331
0.028062 0.009595 0.014187
0.034617 0.010226 0.014927
0.047428 0.011616 0.018137
0.047707 0.003048 0.017900
0.056752 0.001233 0.024733
0.056831 -0.004670 0.020000
0.076683 0.000418 0.024303
0.072097 -0.006620 0.024684
0.052462 -0.014366 0.031106
0.080753 -0.014743 0.023739
0.084556 -0.020131 0.021035
0.081420 -0.022743 0.017200
0.090181 -0.021810 0.020043
0.094513 -0.023103 0.027653
0.096727 -0.024243 0.034560
0.094552 -0.027773 0.044716
0.096167 -0.030325 0.047259
0.109587 -0.029906 0.046942
0.122467 -0.032936 0.039356
0.135328 -0.028143 0.046828
0.127096 -0.037650 0.049116
0.119283 -0.046266 0.023529
0.115006 -0.044541 0.035276
0.134726 -0.046079 0.054902
0.145672 -0.025391 0.071252
0.087445 -0.086273 0.007843
0.087445 -0.086273 0.007843
0.163170 -0.026079 0.070588
0.163170 -0.026079 0.070588
0.145301 -0.040271 0.045098
0.145301 -0.040271 0.045098
0.139018 -0.038749 0.050980
0.139018 -0.038749 0.050980
0.139018 -0.038749 0.050980
0.159622 0.006605 0.101961
0.159622 0.006605 0.101961
0.159622 0.006605 0.101961
0.159622 0.006605 0.101961
0.159622 0.006605 0.101961
0.159622 0.006605 0.101961
0.159622 0.006605 0.101961
0.159622 0.006605 0.101961
0.159622 0.006605 0.101961
0.133078 -0.056213 0.102946
0.136848 -0.057534 0.113200
0.136848 -0.057534 0.113200
0.136848 -0.057534 0.113200
0.136848 -0.057534 0.113200
0.136848 -0.057534 0.113200
0.136848 -0.057534 0.113200
0.136848 -0.057534 0.113200
0.136848 -0.057534 0.113200
0.136848 -0.057534 0.113200
0.172289 -0.035920 0.123728
0.172289 -0.035920 0.123728
0.172289 -0.035920 0.123728
0.172289 -0.035920 0.123728
0.172289 -0.035920 0.123728
0.172289 -0.035920 0.123728
0.172289 -0.035920 0.123728
0.009458 0.033667 0.008406
0.002408 0.042457 0.017691
0.026694 0.034758 0.012704
0.021400 0.028197 0.016337
0.028896 0.027650 0.022767
0.031622 0.015216 0.022240
0.028946 0.009165 0.019187
0.039880 0.012865 0.024539
0.034693 0.000407 0.018188
0.047640 0.004162 0.021896
0.055783 0.000914 0.024492
0.050585 -0.004324 0.025881
0.064651 -0.010615 0.014998
0.055779 -0.013202 0.038789
0.063133 -0.016753 0.027055
0.049656 -0.021210 0.033333
0.063614 -0.024934 0.025630
0.075939 -0.023637 0.015398
0.085985 -0.022264 0.021491
0.095975 -0.020495 0.037113
0.100297 -0.021638 0.048316
0.111675 -0.017903 0.044071
0.115424 -0.026929 0.055756
0.116864 -0.023185 0.057549
0.102206 -0.025403 0.043219
0.117849 -0.032995 0.057451
0.118897 -0.030998 0.042577
0.119513 -0.046489 0.056182
0.132350 -0.026543 0.074251
0.143163 -0.036781 0.076676
0.137992 -0.037670 0.068676
0.137992 -0.037670 0.068676
0.131016 -0.033924 0.047059
0.163170 -0.026079 0.070588
0.145301 -0.040271 0.045098
0.145301 -0.040271 0.045098
0.139018 -0.038749 0.050980
0.139018 -0.038749 0.050980
0.139018 -0.038749 0.050980
0.159622 0.006605 0.101961
0.159622 0.006605 0.101961
0.159622 0.006605 0.101961
0.159622 0.006605 0.101961
0.159622 0.006605 0.101961
0.159622 0.006605 0.101961
0.159622 0.006605 0.101961
0.159622 0.006605 0.101961
0.133078 -0.056213 0.102946
0.133078 -0.056213 0.102946
0.136848 -0.057534 0.113200
0.136848 -0.057534 0.113200
0.136848 -0.057534 0.113200
0.136848 -0.057534 0.113200
0.136848 -0.057534 0.113200
0.136848 -0.057534 0.113200
0.136848 -0.057534 0.113200
0.136848 -0.057534 0.113200
0.172289 -0.035920 0.123728
0.172289 -0.035920 0.123728
0.172289 -0.035920 0.123728
0.172289 -0.035920 0.123728
0.172289 -0.035920 0.123728
0.172289 -0.035920 0.123728
0.172289 -0.035920 0.123728
0.172289 -0.035920 0.123728
0.009458 0.033667 0.008406
0.002820 0.049791 0.021170
0.034029 0.044719 0.029212
0.031520 0.032168 0.023679
0.025830 0.026261 0.014572
0.026214 0.015889 0.008604
0.028340 0.012464 0.023455
0.028524 0.005088 0.022741
0.036055 0.006950 0.024008
0.036718 0.003482 0.019492
0.032477 -0.007176 0.022439
0.049170 -0.004082 0.026478
0.037078 -0.019760 0.016356
0.051869 -0.010890 0.031846
0.055554 -0.012580 0.033260
0.065368 -0.015150 0.023087
0.078313 -0.014383 0.015690
0.080016 -0.017370 0.027453
0.083525 -0.018756 0.033864
0.089509 -0.019266 0.040265
0.091589 -0.020608 0.050978
0.087947 -0.020850 0.044803
0.098575 -0.023565 0.054937
0.097862 -0.026899 0.053540
0.111228 -0.021235 0.067785
0.109954 -0.027245 0.069358
0.123794 -0.026191 0.052832
0.123974 -0.023600 0.063478
0.128343 -0.032839 0.058094
0.137987 -0.027405 0.065418
0.137987 -0.027405 0.065418
0.155334 -0.029707 0.089139
0.131016 -0.033924 0.047059
0.169987 -0.027140 0.074510
0.145919 -0.028929 0.070231
0.160353 -0.032685 0.058824
0.139018 -0.038749 0.050980
0.139018 -0.038749 0.050980
0.138105 -0.036333 0.077152
0.135957 -0.034783 0.090978
0.159622 0.006605 0.101961
0.159622 0.006605 0.101961
0.159622 0.006605 0.101961
0.159622 0.006605 0.101961
0.159622 0.006605 0.101961
0.159622 0.006605 0.101961
0.133078 -0.056213 0.102946
0.133078 -0.056213 0.102946
0.133078 -0.056213 0.102946
0.136848 -0.057534 0.113200
0.136848 -0.057534 0.113200
0.136848 -0.057534 0.113200
0.136848 -0.057534 0.113200
0.136848 -0.057534 0.113200
0.136848 -0.057534 0.113200
0.136848 -0.057534 0.113200
0.172289 -0.035920 0.123728
0.172289 -0.035920 0.123728
0.172289 -0.035920 0.123728
0.172289 -0.035920 0.123728
0.172289 -0.035920 0.123728
0.172289 -0.035920 0.123728
0.172289 -0.035920 0.123728
0.172289 -0.035920 0.123728
0.172289 -0.035920 0.123728
0.006688 0.049081 0.030317
0.006688 0.049081 0.030317
0.026833 0.026419 0.015255
0.031202 0.027247 0.020986
0.026689 0.023290 0.025216
0.024433 0.018268 0.030857
0.028392 0.009285 0.012755
0.019454 -0.006942 0.029291
0.020325 -0.005165 0.023937
0.020649 -0.011129 0.021665
0.032254 -0.003685 0.018809
0.034417 -0.014376 0.017204
0.038354 -0.012063 0.022608
0.052715 -0.012062 0.037257
0.060711 -0.009398 0.034866
0.066303 -0.011765 0.016800
0.072495 -0.013530 0.019873
0.076059 -0.014509 0.028904
0.076319 -0.017714 0.041693
0.079347 -0.018681 0.048681
0.081385 -0.020940 0.056463
0.081032 -0.026302 0.040652
0.091746 -0.022088 0.041983
0.095215 -0.026043 0.055843
0.120755 -0.018812 0.066083
0.127235 -0.016837 0.060965
0.132435 -0.023986 0.070653
0.138588 -0.023137 0.076297
0.154210 -0.015257 0.082307
0.154022 -0.017807 0.091787
0.158437 -0.012535 0.090196
0.154909 -0.013192 0.082353
0.154909 -0.013192 0.082353
0.169987 -0.027140 0.074510
0.156365 -0.024737 0.074510
0.150190 -0.027822 0.081753
0.162319 -0.015656 0.098039
0.138105 -0.036333 0.077152
0.138105 -0.036333 0.077152
0.135957 -0.034783 0.090978
0.135957 -0.034783 0.090978
0.159622 0.006605 0.101961
0.159622 0.006605 0.101961
0.159622 0.006605 0.101961
0.121237 -0.056927 0.098890
0.121237 -0.056927 0.098890
0.133078 -0.056213 0.102946
0.133078 -0.056213 0.102946
0.136848 -0.057534 0.113200
0.136848 -0.057534 0.113200
0.136848 -0.057534 0.113200
0.136848 -0.057534 0.113200
0.136848 -0.057534 0.113200
0.136848 -0.057534 0.113200
0.136848 -0.057534 0.113200
0.172289 -0.035920 0.123728
0.172289 -0.035920 0.123728
0.172289 -0.035920 0.123728
0.172289 -0.035920 0.123728
0.172289 -0.035920 0.123728
0.172289 -0.035920 0.123728
0.172289 -0.035920 0.123728
0.128560 -0.049110 0.134741
0.128560 -0.049110 0.134741
0.135510 -0.047467 0.146870
-0.009536 0.046571 0.037693
-0.009536 0.046571 0.037693
0.052889 0.039861 0.030509
0.052889 0.039861 0.030509
0.030792 0.019460 0.023568
0.024498 0.010213 0.027020
0.023044 0.010085 0.027233
0.023426 -0.002542 0.033834
0.023593 -0.000183 0.029753
0.028151 -0.000848 0.028886
0.035163 -0.003293 0.023860
0.031351 -0.010077 0.023395
0.036517 -0.009023 0.025088
0.045427 -0.009999 0.036711
0.060945 -0.004637 0.020746
0.062578 -0.008507 0.024532
0.064752 -0.011993 0.030792
0.068487 -0.014616 0.038130
0.073701 -0.015549 0.044116
0.077535 -0.017954 0.052799
0.087777 -0.014128 0.056736
0.096055 -0.018017 0.045076
0.101092 -0.014372 0.049688
0.111267 -0.015589 0.051289
0.118328 -0.016456 0.050651
0.126475 -0.013270 0.070207
0.116902 -0.027614 0.063763
0.117054 -0.016460 0.050980
0.141440 -0.020779 0.079892
0.115726 -0.026294 0.074826
0.115768 -0.037810 0.079071
0.129016 -0.033531 0.072929
0.129016 -0.033531 0.072929
0.131577 -0.032573 0.086115
0.131577 -0.032573 0.086115
0.132101 -0.036955 0.074510
0.133114 -0.027647 0.084329
0.153182 -0.025040 0.101436
0.153182 -0.025040 0.101436
0.135957 -0.034783 0.090978
0.135957 -0.034783 0.090978
0.135957 -0.034783 0.090978
0.121237 -0.056927 0.098890
0.121237 -0.056927 0.098890
0.121237 -0.056927 0.098890
0.121237 -0.056927 0.098890
0.133078 -0.056213 0.102946
0.133078 -0.056213 0.102946
0.136848 -0.057534 0.113200
0.136848 -0.057534 0.113200
0.136848 -0.057534 0.113200
0.136848 -0.057534 0.113200
0.136848 -0.057534 0.113200
0.136848 -0.057534 0.113200
0.172289 -0.035920 0.123728
0.172289 -0.035920 0.123728
0.172289 -0.035920 0.123728
0.172289 -0.035920 0.123728
0.172289 -0.035920 0.123728
0.128560 -0.049110 0.134741
0.128560 -0.049110 0.134741
0.128560 -0.049110 0.134741
0.128560 -0.049110 0.134741
0.135510 -0.047467 0.146870
0.135510 -0.047467 0.146870
0.020498 0.034950 0.021473
0.020498 0.034950 0.021473
0.020498 0.034950 0.021473
0.038000 0.032150 0.034628
0.029846 0.020962 0.037619
0.034843 0.032238 0.042042
0.030644 0.018543 0.031181
0.033616 0.016679 0.038625
0.035145 0.013039 0.033545
0.026963 -0.005235 0.037291
0.038155 0.004145 0.028685
0.044903 0.002632 0.022603
0.047966 -0.000005 0.018244
0.050214 -0.003425 0.023516
0.053668 -0.006016 0.029915
0.058872 -0.007044 0.038993
0.062373 -0.008960 0.047097
0.067115 -0.012187 0.049147
0.074473 -0.011650 0.052336
0.086271 -0.010203 0.054218
0.099254 -0.009529 0.051274
0.106239 -0.010348 0.050454
0.108320 -0.010126 0.049662
0.109046 -0.014321 0.044625
0.112710 -0.013620 0.057572
0.114828 -0.019379 0.061567
0.123130 -0.014643 0.067751
0.130397 -0.017138 0.078821
0.132503 -0.015121 0.080357
0.136862 -0.024332 0.086858
0.136862 -0.024332 0.086858
0.108749 -0.006470 0.074510
0.108749 -0.006470 0.074510
0.131577 -0.032573 0.086115
0.131577 -0.032573 0.086115
0.132101 -0.036955 0.074510
0.133114 -0.027647 0.084329
0.122597 -0.032021 0.103829
0.122597 -0.032021 0.103829
0.135957 -0.034783 0.090978
0.135957 -0.034783 0.090978
0.135765 -0.031441 0.109203
0.121237 -0.056927 0.098890
0.121237 -0.056927 0.098890
0.121237 -0.056927 0.098890
0.124522 -0.037924 0.101787
0.124522 -0.037924 0.101787
0.124522 -0.037924 0.101787
0.136848 -0.057534 0.113200
0.136848 -0.057534 0.113200
0.136848 -0.057534 0.113200
0.136848 -0.057534 0.113200
0.136848 -0.057534 0.113200
0.172289 -0.035920 0.123728
0.172289 -0.035920 0.123728
0.172289 -0.035920 0.123728
0.128560 -0.049110 0.134741
0.128560 -0.049110 0.134741
0.128560 -0.049110 0.134741
0.128560 -0.049110 0.134741
0.128560 -0.049110 0.134741
0.135510 -0.047467 0.146870
0.135510 -0.047467 0.146870
0.135510 -0.047467 0.146870
0.135510 -0.047467 0.146870
0.013521 0.034990 0.024348
0.013521 0.034990 0.024348
0.035963 0.039360 0.025273
0.037540 0.036944 0.037067
0.037878 0.033086 0.039792
0.035404 0.030921 0.038233
0.033662 0.027282 0.038175
0.033463 0.021469 0.037635
0.033117 0.016957 0.037393
0.036765 0.013830 0.033424
0.037716 0.006805 0.033557
0.040552 0.003551 0.031404
0.046749 0.001936 0.034871
0.052777 0.002507 0.039574
0.053842 -0.002478 0.044114
0.059989 -0.003942 0.051979
0.068812 -0.003060 0.054129
0.078359 -0.002801 0.057194
0.081967 -0.004661 0.057673
0.090651 -0.002746 0.054358
0.092765 -0.007353 0.057051
0.094538 -0.010820 0.053251
0.103522 -0.011097 0.067265
0.099466 -0.015182 0.059556
0.107105 -0.013928 0.047459
0.111816 -0.016267 0.055860
0.112011 -0.018955 0.062646
0.116807 -0.019637 0.066445
0.121932 -0.020861 0.076842
0.129579 -0.018196 0.080458
0.121021 -0.023712 0.060784
0.139941 -0.014757 0.086275
0.139941 -0.014757 0.086275
0.136443 -0.032920 0.103306
0.136967 -0.034152 0.095310
0.116752 0.021546 0.078431
0.138730 0.010101 0.129137
0.110430 0.008113 0.070588
0.110430 0.008113 0.070588
0.125368 -0.025880 0.107848
0.135765 -0.031441 0.109203
0.135765 -0.031441 0.109203
0.135765 -0.031441 0.109203
0.124522 -0.037924 0.101787
0.124522 -0.037924 0.101787
0.124522 -0.037924 0.101787
0.124522 -0.037924 0.101787
0.124522 -0.037924 0.101787
0.124522 -0.037924 0.101787
0.136848 -0.057534 0.113200
0.136848 -0.057534 0.113200
0.136848 -0.057534 0.113200
0.172289 -0.035920 0.123728
0.128560 -0.049110 0.134741
0.128560 -0.049110 0.134741
0.128560 -0.049110 0.134741
0.128560 -0.049110 0.134741
0.128560 -0.049110 0.134741
0.128560 -0.049110 0.134741
0.134978 -0.024553 0.167583
0.135510 -0.047467 0.146870
0.135510 -0.047467 0.146870
0.135510 -0.047467 0.146870
0.135510 -0.047467 0.146870
0.135510 -0.047467 0.146870
0.038037 0.047230 0.022267
0.038037 0.047230 0.022267
0.029533 0.045145 0.012052
0.043112 0.036142 0.026563
0.038417 0.031348 0.046391
0.035420 0.028690 0.048625
0.035135 0.026694 0.044961
0.034019 0.022656 0.045814
0.032559 0.016397 0.044627
0.037235 0.014515 0.043260
0.038575 0.009907 0.049969
0.042247 0.007400 0.042741
0.049065 0.008210 0.051585
0.061392 0.013287 0.046750
0.066325 0.012182 0.045424
0.060387 0.002332 0.042598
