outputs/second_method/residual_lut.cube
TITLE "Residual LUT"
LUT_3D_SIZE 17
DOMAIN_MIN 0.0 0.0 0.0
DOMAIN_MAX 1.0 1.0 1.0
0.001322 -0.001086 0.004720
0.015101 -0.006732 0.007324
0.085538 -0.022632 0.002631
0.110643 -0.025710 0.002614
0.110643 -0.025710 0.002614
0.108229 -0.029975 0.036990
0.111826 -0.046225 0.038052
0.112841 -0.063165 0.024770
0.112841 -0.063165 0.024770
0.145423 -0.032490 0.074480
0.136490 -0.024765 0.089442
0.136490 -0.024765 0.089442
0.134371 -0.059609 0.098294
0.134371 -0.059609 0.098294
0.134371 -0.059609 0.098294
0.134371 -0.059609 0.098294
0.172289 -0.035920 0.123728
0.002496 0.000700 0.013137
0.012474 -0.001197 0.017078
0.054690 -0.010732 0.024496
0.089026 -0.017530 0.028920
0.116770 -0.027134 0.023007
0.108229 -0.029975 0.036990
0.111826 -0.046225 0.038052
0.112841 -0.063165 0.024770
0.112841 -0.063165 0.024770
0.145423 -0.032490 0.074480
0.136490 -0.024765 0.089442
0.136490 -0.024765 0.089442
0.134371 -0.059609 0.098294
0.134371 -0.059609 0.098294
0.134371 -0.059609 0.098294
0.172289 -0.035920 0.123728
0.172289 -0.035920 0.123728
0.005274 0.038782 0.029298
0.023574 0.017063 0.029574
0.031681 -0.000479 0.030182
0.045182 -0.012027 0.036956
0.073605 -0.019250 0.033840
0.086028 -0.021860 0.047757
0.108594 -0.028516 0.066931
0.129259 -0.031179 0.075794
0.141783 -0.033430 0.081719
0.145423 -0.032490 0.074480
0.136490 -0.024765 0.089442
0.136490 -0.024765 0.089442
0.134371 -0.059609 0.098294
0.134371 -0.059609 0.098294
0.172289 -0.035920 0.123728
0.172289 -0.035920 0.123728
0.141601 -0.037958 0.156903
0.012030 0.035977 0.032676
0.036184 0.032251 0.040677
0.034674 0.017021 0.042651
0.048514 0.003202 0.039198
0.063283 -0.006921 0.047796
0.086231 -0.012417 0.063574
0.102480 -0.019351 0.070444
0.118293 -0.024808 0.082063
0.128495 -0.030313 0.094452
0.132191 -0.030789 0.099691
0.129601 -0.031835 0.107997
0.128267 -0.037362 0.104638
0.128267 -0.037362 0.104638
0.129136 -0.040460 0.125692
0.129136 -0.040460 0.125692
0.141601 -0.037958 0.156903
0.141601 -0.037958 0.156903
0.011738 0.056854 0.056626
0.050979 0.046802 0.054453
0.050543 0.038707 0.062656
0.054341 0.020327 0.067236
0.065921 0.007009 0.071583
0.078185 -0.001419 0.080808
0.094028 -0.008991 0.085007
0.104462 -0.016029 0.083190
0.120867 -0.020799 0.099895
0.133824 -0.020218 0.113770
0.132631 -0.026926 0.119476
0.142633 -0.025361 0.132586
0.142633 -0.025361 0.132586
0.129136 -0.040460 0.125692
0.141601 -0.037958 0.156903
0.141601 -0.037958 0.156903
0.141601 -0.037958 0.156903
0.015264 0.074544 0.076372
0.065953 0.058706 0.061603
0.060071 0.043278 0.076267
0.062855 0.036747 0.084016
0.068627 0.019578 0.085754
0.082070 0.012377 0.094409
0.094515 0.005261 0.101682
0.111446 -0.000730 0.106608
0.111848 -0.012282 0.108118
0.126397 -0.013862 0.119983
0.132292 -0.015111 0.133757
0.132664 -0.020624 0.147750
0.132664 -0.020624 0.147750
0.141601 -0.037958 0.156903
0.141601 -0.037958 0.156903
0.141601 -0.037958 0.156903
0.141601 -0.037958 0.156903
0.013950 0.084671 0.095334
0.077772 0.080794 0.097037
0.085069 0.060808 0.097234
0.077413 0.049577 0.100271
0.084683 0.045649 0.111728
0.088377 0.027299 0.107246
0.095106 0.015842 0.108636
0.105165 0.008281 0.122294
0.118259 0.003972 0.124988
0.125297 -0.002491 0.126970
0.125986 -0.007614 0.136981
0.127307 -0.011979 0.150886
0.123405 -0.016557 0.161823
0.123405 -0.016557 0.161823
0.128710 -0.038813 0.165773
0.128710 -0.038813 0.165773
0.128710 -0.038813 0.165773
0.070037 0.101230 0.097488
0.128665 0.101913 0.100809
0.117869 0.082689 0.126090
0.074953 0.034942 0.094182
0.094132 0.052139 0.126363
0.097430 0.046337 0.133533
0.099427 0.024460 0.126167
0.103387 0.014481 0.134126
0.108808 0.006280 0.143510
0.122712 0.004768 0.142065
0.123811 0.000356 0.146320
0.122102 -0.006923 0.162665
0.119496 -0.015486 0.176822
0.110566 -0.021679 0.178032
0.110566 -0.021679 0.178032
0.110566 -0.021679 0.178032
0.110566 -0.021679 0.178032
0.070037 0.101230 0.097488
0.019232 0.113505 0.158935
0.138212 0.091384 0.144132
0.113057 0.066866 0.120487
0.095623 0.047967 0.129907
0.105945 0.052907 0.142224
0.112816 0.046785 0.148947
0.106988 0.022670 0.140052
0.111659 0.013953 0.145146
0.114373 0.009019 0.157539
0.117801 0.006744 0.164697
0.112321 -0.004733 0.174491
0.108247 -0.011878 0.186811
0.106394 -0.014720 0.191729
0.106394 -0.014720 0.191729
0.106394 -0.014720 0.191729
0.106394 -0.014720 0.191729
0.221568 0.114441 0.164103
0.221568 0.114441 0.164103
0.221568 0.114441 0.164103
0.150443 0.090399 0.151381
0.126314 0.075717 0.150090
0.126628 0.064526 0.163028
0.122242 0.050148 0.164107
0.120193 0.041053 0.171172
0.115338 0.022610 0.165505
0.115243 0.014299 0.166592
0.114008 0.007774 0.184196
0.114449 0.002344 0.191787
0.111512 -0.004018 0.197981
0.112314 -0.002055 0.201821
0.112314 -0.002055 0.201821
0.112314 -0.002055 0.201821
0.112314 -0.002055 0.201821
0.221568 0.114441 0.164103
0.221568 0.114441 0.164103
0.186228 0.084346 0.168875
0.150443 0.090399 0.151381
0.126314 0.075717 0.150090
0.130940 0.056660 0.177535
0.128305 0.048596 0.185597
0.124741 0.040563 0.191398
0.128822 0.035766 0.200571
0.122925 0.022991 0.189331
0.121490 0.017524 0.192366
0.120008 0.012448 0.206876
0.121247 0.012659 0.201141
0.135534 0.017498 0.205577
0.135534 0.017498 0.205577
0.129955 -0.007898 0.253357
0.129955 -0.007898 0.253357
0.221568 0.114441 0.164103
0.186228 0.084346 0.168875
0.186228 0.084346 0.168875
0.174462 0.062142 0.178746
0.170214 0.059878 0.180449
0.130940 0.056660 0.177535
0.135424 0.051258 0.212406
0.141043 0.044736 0.186574
0.139998 0.040056 0.205698
0.138156 0.035267 0.212474
0.133714 0.027986 0.216205
0.134345 0.026057 0.211023
0.129310 0.020219 0.238981
0.141888 0.020205 0.225219
0.141888 0.020205 0.225219
0.129955 -0.007898 0.253357
0.129955 -0.007898 0.253357
0.173565 0.084874 0.158355
0.186228 0.084346 0.168875
0.174462 0.062142 0.178746
0.174462 0.062142 0.178746
0.170214 0.059878 0.180449
0.160182 0.042948 0.191628
0.135424 0.051258 0.212406
0.141043 0.044736 0.186574
0.157315 0.044865 0.193136
0.151047 0.040833 0.201084
0.138222 0.027733 0.238244
0.135994 0.024310 0.229432
0.130328 0.017232 0.244091
0.134974 0.016506 0.249001
0.134974 0.016506 0.249001
0.138742 -0.005462 0.256872
0.138742 -0.005462 0.256872
0.173565 0.084874 0.158355
0.174462 0.062142 0.178746
0.174462 0.062142 0.178746
0.174462 0.062142 0.178746
0.160182 0.042948 0.191628
0.160182 0.042948 0.191628
0.160182 0.042948 0.191628
0.148834 0.037051 0.218868
0.157315 0.044865 0.193136
0.150227 0.035110 0.165442
0.149852 0.030540 0.238279
0.139992 0.022989 0.260026
0.143217 0.024302 0.246003
0.158063 0.022364 0.271654
0.158063 0.022364 0.271654
0.146023 0.027137 0.258824
0.146023 0.027137 0.258824
0.174462 0.062142 0.178746
0.174462 0.062142 0.178746
0.174462 0.062142 0.178746
0.160182 0.042948 0.191628
0.160182 0.042948 0.191628
0.160182 0.042948 0.191628
0.162285 0.030320 0.214481
0.148834 0.037051 0.218868
0.150227 0.035110 0.165442
0.150227 0.035110 0.165442
0.149852 0.030540 0.238279
0.157768 0.030779 0.258425
0.157768 0.030779 0.258425
0.148435 0.020396 0.263680
0.146023 0.027137 0.258824
0.146023 0.027137 0.258824
0.146023 0.027137 0.258824
0.232388 0.048490 0.195147
0.174462 0.062142 0.178746
0.174462 0.062142 0.178746
0.160182 0.042948 0.191628
0.160182 0.042948 0.191628
0.162285 0.030320 0.214481
0.162285 0.030320 0.214481
0.159285 0.020773 0.201215
0.150227 0.035110 0.165442
0.160484 0.024693 0.245434
0.160484 0.024693 0.245434
0.157768 0.030779 0.258425
0.157768 0.030779 0.258425
0.148435 0.020396 0.263680
0.146023 0.027137 0.258824
0.146023 0.027137 0.258824
0.146023 0.027137 0.258824
0.232388 0.048490 0.195147
0.206875 0.026558 0.218777
0.206875 0.026558 0.218777
0.160182 0.042948 0.191628
0.162285 0.030320 0.214481
0.162285 0.030320 0.214481
0.162285 0.030320 0.214481
0.159285 0.020773 0.201215
0.160484 0.024693 0.245434
0.160484 0.024693 0.245434
0.160484 0.024693 0.245434
0.157768 0.030779 0.258425
0.157768 0.030779 0.258425
0.148435 0.020396 0.263680
0.146023 0.027137 0.258824
0.146023 0.027137 0.258824
0.146023 0.027137 0.258824
-0.005173 -0.014903 0.047919
0.000415 -0.012501 0.014079
0.000415 -0.012501 0.014079
0.110643 -0.025710 0.002614
0.075438 -0.030859 0.045497
0.086343 -0.041546 0.046127
0.086343 -0.041546 0.046127
0.112841 -0.063165 0.024770
0.112841 -0.063165 0.024770
0.119907 -0.052671 0.080688
0.132625 -0.044751 0.101326
0.134371 -0.059609 0.098294
0.134371 -0.059609 0.098294
0.134371 -0.059609 0.098294
0.134371 -0.059609 0.098294
0.172289 -0.035920 0.123728
0.172289 -0.035920 0.123728
-0.003602 -0.001705 0.029063
0.008824 -0.003250 0.029812
0.044894 -0.022475 0.034840
0.068820 -0.026398 0.044299
0.075438 -0.030859 0.045497
0.086343 -0.041546 0.046127
0.086343 -0.041546 0.046127
0.112841 -0.063165 0.024770
0.135094 -0.037128 0.090068
0.119907 -0.052671 0.080688
0.132625 -0.044751 0.101326
0.134371 -0.059609 0.098294
0.134371 -0.059609 0.098294
0.134371 -0.059609 0.098294
0.172289 -0.035920 0.123728
0.172289 -0.035920 0.123728
0.172289 -0.035920 0.123728
-0.003269 0.013234 0.042080
0.011230 -0.005112 0.041198
0.011940 -0.018037 0.041241
0.031833 -0.024036 0.045080
0.060599 -0.030997 0.052656
0.073358 -0.032549 0.061751
0.105818 -0.032264 0.073316
0.127201 -0.037021 0.079158
0.135094 -0.037128 0.090068
0.119907 -0.052671 0.080688
0.132625 -0.044751 0.101326
0.134371 -0.059609 0.098294
0.134371 -0.059609 0.098294
0.172289 -0.035920 0.123728
0.172289 -0.035920 0.123728
0.172289 -0.035920 0.123728
0.172289 -0.035920 0.123728
-0.002866 0.029255 0.052405
0.014309 0.002637 0.046674
0.014877 -0.016235 0.050412
0.028216 -0.019779 0.058258
0.053954 -0.022731 0.067428
0.078259 -0.030385 0.072056
0.093309 -0.033715 0.081671
0.110844 -0.036667 0.089942
0.120263 -0.041186 0.096291
0.124407 -0.047528 0.104326
0.130860 -0.041137 0.111592
0.136148 -0.052535 0.113594
0.136148 -0.052535 0.113594
0.172289 -0.035920 0.123728
0.172289 -0.035920 0.123728
0.141601 -0.037958 0.156903
0.141601 -0.037958 0.156903
-0.005453 0.042170 0.065538
0.040358 0.039392 0.070466
0.037678 0.021135 0.073351
0.042002 0.002678 0.075862
0.055367 -0.008152 0.081157
0.069380 -0.014400 0.087287
0.083549 -0.028266 0.091485
0.099221 -0.034737 0.099492
0.115880 -0.040032 0.107991
0.127676 -0.043246 0.116913
0.132966 -0.043729 0.125370
0.132705 -0.045170 0.131539
0.129136 -0.040460 0.125692
0.129136 -0.040460 0.125692
0.141601 -0.037958 0.156903
0.141601 -0.037958 0.156903
0.141601 -0.037958 0.156903
0.002730 0.053555 0.079282
0.045170 0.045265 0.080899
0.047757 0.030148 0.085741
0.050748 0.018608 0.089864
0.060582 0.008477 0.094976
0.073708 -0.002225 0.100126
0.087393 -0.010438 0.107091
0.101826 -0.020451 0.114428
0.112344 -0.030351 0.120855
0.122425 -0.037178 0.127182
0.126107 -0.044137 0.134287
0.123754 -0.047930 0.138415
0.125420 -0.044397 0.148317
0.141601 -0.037958 0.156903
0.141601 -0.037958 0.156903
0.141601 -0.037958 0.156903
0.141601 -0.037958 0.156903
0.007537 0.064820 0.094672
0.038776 0.065636 0.101131
0.062266 0.040524 0.100239
0.063040 0.031816 0.105641
0.068983 0.021874 0.112115
0.077448 0.008425 0.116321
0.088612 -0.000254 0.122953
0.098641 -0.009082 0.128092
0.109121 -0.017873 0.134738
0.113516 -0.024969 0.140716
0.118159 -0.031623 0.146765
0.120945 -0.038392 0.152462
0.119972 -0.043521 0.156623
0.128710 -0.038813 0.165773
0.128710 -0.038813 0.165773
0.128710 -0.038813 0.165773
0.128710 -0.038813 0.165773
-0.028382 0.088600 0.125681
0.015729 0.081138 0.115114
0.096179 0.060750 0.120173
0.082180 0.047500 0.124140
0.080238 0.033813 0.126549
0.084130 0.023741 0.132862
0.090338 0.008152 0.136298
0.097951 -0.000162 0.142120
0.106486 -0.008041 0.146831
0.112389 -0.017136 0.152324
0.114729 -0.024133 0.157496
0.112567 -0.030311 0.164189
0.112650 -0.028920 0.173323
0.112822 -0.032532 0.182251
0.112822 -0.032532 0.182251
0.112822 -0.032532 0.182251
0.112822 -0.032532 0.182251
-0.028382 0.088600 0.125681
0.031088 0.104568 0.147733
0.130095 0.079966 0.147455
0.100670 0.057517 0.137689
0.092398 0.043278 0.138981
0.092979 0.032899 0.145559
0.096831 0.022236 0.151879
0.099667 0.006386 0.154446
0.107923 -0.000246 0.161606
0.110970 -0.009120 0.166229
0.109346 -0.018182 0.171776
0.097760 -0.034172 0.172041
0.103859 -0.026505 0.187277
0.104625 -0.027967 0.190954
0.104625 -0.027967 0.190954
0.104625 -0.027967 0.190954
0.104625 -0.027967 0.190954
0.055785 0.106108 0.152171
0.055785 0.106108 0.152171
0.189001 0.090901 0.165423
0.136995 0.078831 0.156440
0.103551 0.047214 0.150493
0.107115 0.041115 0.160077
0.107837 0.033127 0.168031
0.105983 0.018045 0.173175
0.102279 -0.001240 0.175755
0.109372 -0.003391 0.182459
0.110606 -0.006903 0.190388
0.110141 -0.012421 0.196293
0.108160 -0.021316 0.199743
0.114397 -0.021173 0.209804
0.114397 -0.021173 0.209804
0.114397 -0.021173 0.209804
0.129955 -0.007898 0.253357
0.055785 0.106108 0.152171
0.055785 0.106108 0.152171
0.186228 0.084346 0.168875
0.176040 0.070886 0.174109
0.142290 0.055432 0.175472
0.118884 0.036813 0.176627
0.118399 0.034544 0.182108
0.118327 0.028644 0.186486
0.119646 0.020480 0.196026
0.114803 0.005385 0.198375
0.114660 -0.000049 0.203492
0.116530 -0.002365 0.214283
0.116080 -0.006720 0.219683
0.130428 -0.008136 0.229666
0.130428 -0.008136 0.229666
0.129955 -0.007898 0.253357
0.129955 -0.007898 0.253357
0.173565 0.084874 0.158355
0.173565 0.084874 0.158355
0.186228 0.084346 0.168875
0.174462 0.062142 0.178746
0.170214 0.059878 0.180449
0.158836 0.047679 0.188320
0.132590 0.033609 0.190723
0.127676 0.028734 0.199804
0.130977 0.026849 0.208215
0.128595 0.017088 0.215651
0.125976 0.009861 0.221457
0.124062 0.003103 0.227348
0.121790 -0.001788 0.235761
0.120596 -0.006059 0.244703
0.129955 -0.007898 0.253357
0.129955 -0.007898 0.253357
0.129955 -0.007898 0.253357
0.173565 0.084874 0.158355
0.173565 0.084874 0.158355
0.174462 0.062142 0.178746
0.174462 0.062142 0.178746
0.170214 0.059878 0.180449
0.160182 0.042948 0.191628
0.160182 0.042948 0.191628
0.148834 0.037051 0.218868
0.145805 0.030633 0.219915
0.141800 0.023265 0.228084
0.131012 0.010433 0.232399
0.125558 0.002888 0.237136
0.120235 -0.006896 0.239536
0.128453 -0.001806 0.256090
0.138742 -0.005462 0.256872
0.138742 -0.005462 0.256872
0.138742 -0.005462 0.256872
0.173565 0.084874 0.158355
0.174462 0.062142 0.178746
0.174462 0.062142 0.178746
0.174462 0.062142 0.178746
0.160182 0.042948 0.191628
0.160182 0.042948 0.191628
0.162285 0.030320 0.214481
0.148834 0.037051 0.218868
0.145805 0.030633 0.219915
0.146057 0.019552 0.233358
0.143562 0.016216 0.233399
0.134410 0.005504 0.247723
0.136640 0.005589 0.254132
0.150256 0.007202 0.268917
0.150256 0.007202 0.268917
0.138742 -0.005462 0.256872
0.138742 -0.005462 0.256872
0.232388 0.048490 0.195147
0.232388 0.048490 0.195147
0.174462 0.062142 0.178746
0.160182 0.042948 0.191628
0.160182 0.042948 0.191628
0.162285 0.030320 0.214481
0.162285 0.030320 0.214481
0.159285 0.020773 0.201215
0.139232 0.009727 0.230944
0.146057 0.019552 0.233358
0.160484 0.024693 0.245434
0.153790 0.029375 0.243471
0.146428 0.019194 0.251893
0.152681 0.009694 0.271805
0.140287 0.008961 0.258992
0.140287 0.008961 0.258992
0.140287 0.008961 0.258992
0.232388 0.048490 0.195147
0.206875 0.026558 0.218777
0.206875 0.026558 0.218777
0.206875 0.026558 0.218777
0.162285 0.030320 0.214481
0.162285 0.030320 0.214481
0.162285 0.030320 0.214481
0.159285 0.020773 0.201215
0.139232 0.009727 0.230944
0.160484 0.024693 0.245434
0.160484 0.024693 0.245434
0.153790 0.029375 0.243471
0.146428 0.019194 0.251893
0.152681 0.009694 0.271805
0.140287 0.008961 0.258992
0.140287 0.008961 0.258992
0.140287 0.008961 0.258992
0.232388 0.048490 0.195147
0.206875 0.026558 0.218777
0.206875 0.026558 0.218777
0.206875 0.026558 0.218777
0.162285 0.030320 0.214481
0.162285 0.030320 0.214481
0.162285 0.030320 0.214481
0.164343 0.027420 0.282256
0.164343 0.027420 0.282256
0.160484 0.024693 0.245434
0.160484 0.024693 0.245434
0.153790 0.029375 0.243471
0.146428 0.019194 0.251893
0.152681 0.009694 0.271805
0.140287 0.008961 0.258992
0.140287 0.008961 0.258992
0.140287 0.008961 0.258992
-0.005173 -0.014903 0.047919
0.000415 -0.012501 0.014079
0.014612 -0.048168 0.079090
0.025613 -0.055197 0.067364
0.066773 -0.061336 0.058199
0.062016 -0.057049 0.069992
0.062016 -0.057049 0.069992
0.108517 -0.054449 0.087352
0.115893 -0.061175 0.108086
0.132337 -0.035249 0.105355
0.132337 -0.035249 0.105355
0.134371 -0.059609 0.098294
0.134371 -0.059609 0.098294
0.134371 -0.059609 0.098294
0.172289 -0.035920 0.123728
0.172289 -0.035920 0.123728
0.172289 -0.035920 0.123728
-0.014854 -0.022635 0.079520
-0.015226 -0.029045 0.079540
0.014612 -0.048168 0.079090
0.025613 -0.055197 0.067364
0.066773 -0.061336 0.058199
0.062016 -0.057049 0.069992
0.062016 -0.057049 0.069992
0.108517 -0.054449 0.087352
0.115893 -0.061175 0.108086
0.132337 -0.035249 0.105355
0.132337 -0.035249 0.105355
0.134371 -0.059609 0.098294
0.134371 -0.059609 0.098294
0.172289 -0.035920 0.123728
0.172289 -0.035920 0.123728
0.172289 -0.035920 0.123728
0.172289 -0.035920 0.123728
-0.016093 -0.015454 0.078467
-0.013397 -0.023100 0.067421
0.000865 -0.028805 0.047579
0.023014 -0.047246 0.056623
0.046569 -0.046604 0.064920
0.058447 -0.049681 0.071509
0.093162 -0.044133 0.088098
0.108517 -0.054449 0.087352
0.115893 -0.061175 0.108086
0.132337 -0.035249 0.105355
0.132337 -0.035249 0.105355
0.134371 -0.059609 0.098294
0.172289 -0.035920 0.123728
0.172289 -0.035920 0.123728
0.172289 -0.035920 0.123728
0.172289 -0.035920 0.123728
0.172289 -0.035920 0.123728
-0.013915 -0.004385 0.054630
-0.003398 -0.018005 0.054512
0.006856 -0.026088 0.058552
0.019246 -0.025777 0.066292
0.051603 -0.044286 0.078438
0.064037 -0.045621 0.085860
0.079832 -0.049049 0.091701
0.094094 -0.053197 0.099004
0.109108 -0.054069 0.105576
0.122102 -0.052474 0.117827
0.122330 -0.052338 0.119074
0.123165 -0.052826 0.115868
0.172289 -0.035920 0.123728
0.172289 -0.035920 0.123728
0.172289 -0.035920 0.123728
0.157296 -0.044072 0.170012
0.157296 -0.044072 0.170012
-0.011355 0.028178 0.071681
0.012938 0.013075 0.074676
0.011333 -0.016137 0.076814
0.021929 -0.026009 0.079568
0.034940 -0.029081 0.085415
0.055954 -0.038328 0.091675
0.073796 -0.047057 0.098386
0.091019 -0.048144 0.107173
0.108020 -0.050311 0.115721
0.122680 -0.052907 0.123546
0.125229 -0.054967 0.132110
0.127302 -0.054186 0.137776
0.154743 -0.040032 0.152091
0.154743 -0.040032 0.152091
0.157296 -0.044072 0.170012
0.157296 -0.044072 0.170012
0.157296 -0.044072 0.170012
-0.017830 0.031611 0.081215
0.012236 0.024549 0.083342
0.033059 0.011304 0.086017
0.031196 -0.009660 0.091380
0.039905 -0.024473 0.098250
0.057604 -0.024980 0.107268
0.075724 -0.032792 0.113960
0.091603 -0.043126 0.120820
0.104380 -0.044741 0.127959
0.114579 -0.050027 0.134445
0.119702 -0.056338 0.139907
0.116086 -0.061275 0.143397
0.125038 -0.055535 0.157558
0.157296 -0.044072 0.170012
0.157296 -0.044072 0.170012
0.157296 -0.044072 0.170012
0.157296 -0.044072 0.170012
-0.003157 0.044907 0.086798
0.010916 0.038024 0.094094
0.049841 0.024867 0.101857
0.051852 0.019147 0.109139
0.056998 0.004269 0.114062
0.064545 -0.010351 0.119687
0.077675 -0.016856 0.126425
0.089600 -0.023219 0.132028
0.102202 -0.035825 0.137201
0.106629 -0.042778 0.145767
0.111508 -0.051443 0.153215
0.114458 -0.057351 0.157592
0.114571 -0.055149 0.165247
0.135878 -0.045479 0.178334
0.135878 -0.045479 0.178334
0.135878 -0.045479 0.178334
0.135878 -0.045479 0.178334
-0.003157 0.044907 0.086798
0.026241 0.061294 0.115263
0.072093 0.035273 0.117030
0.061232 0.022206 0.121552
0.066887 0.017782 0.126248
0.072156 0.004719 0.132274
0.080268 -0.007760 0.136670
0.089937 -0.014856 0.143965
0.098493 -0.024691 0.150600
0.106885 -0.034813 0.156406
0.106989 -0.044677 0.163781
0.109320 -0.049945 0.171848
0.107526 -0.055726 0.178400
0.120272 -0.051059 0.187726
0.120272 -0.051059 0.187726
0.120272 -0.051059 0.187726
0.120272 -0.051059 0.187726
0.080204 0.076681 0.130960
0.080204 0.076681 0.130960
0.108421 0.055208 0.134384
0.087350 0.038939 0.136442
0.072877 0.017606 0.138102
0.079209 0.013731 0.145006
0.083351 0.001866 0.151691
0.091201 -0.011242 0.157540
0.098136 -0.019713 0.163507
0.102216 -0.028708 0.168590
0.100548 -0.038798 0.174999
0.095947 -0.047566 0.179874
0.096925 -0.048119 0.187440
0.117994 -0.040503 0.204225
0.117994 -0.040503 0.204225
0.117994 -0.040503 0.204225
0.117994 -0.040503 0.204225
0.114711 0.088525 0.149112
0.114711 0.088525 0.149112
0.141389 0.064295 0.146340
0.107554 0.050160 0.150074
0.100309 0.039393 0.155377
0.090576 0.019805 0.158007
0.091663 0.010661 0.163470
0.092224 -0.004078 0.170730
0.094882 -0.017132 0.174566
0.100121 -0.021472 0.182230
0.102296 -0.028157 0.189155
0.102154 -0.033844 0.196066
0.098099 -0.042880 0.202498
0.113914 -0.039284 0.214078
0.113914 -0.039284 0.214078
0.113914 -0.039284 0.214078
0.132965 -0.016493 0.257302
0.173565 0.084874 0.158355
0.173565 0.084874 0.158355
0.184937 0.066879 0.150853
0.172621 0.060052 0.166204
0.115722 0.034635 0.166845
0.109624 0.025108 0.172948
0.103964 0.015494 0.178113
0.105611 0.008712 0.184589
0.105099 -0.003449 0.190595
0.107968 -0.010126 0.196498
0.107971 -0.017409 0.204112
0.110066 -0.020696 0.212577
0.112761 -0.022370 0.223052
0.126120 -0.024266 0.232206
0.126120 -0.024266 0.232206
0.132965 -0.016493 0.257302
0.132965 -0.016493 0.257302
0.173565 0.084874 0.158355
0.173565 0.084874 0.158355
0.184937 0.066879 0.150853
0.164714 0.051496 0.165432
0.156803 0.048655 0.180278
0.152798 0.041326 0.187135
0.122299 0.022541 0.190559
0.115897 0.011436 0.194401
0.125594 0.013642 0.206233
0.121820 0.002621 0.212960
0.119321 -0.005391 0.220329
0.120080 -0.007824 0.229036
0.119267 -0.012463 0.236598
0.116188 -0.019086 0.246196
0.132965 -0.016493 0.257302
0.132965 -0.016493 0.257302
0.132965 -0.016493 0.257302
0.173565 0.084874 0.158355
0.176680 0.042720 0.168342
0.176680 0.042720 0.168342
0.164714 0.051496 0.165432
0.156803 0.048655 0.180278
0.164796 0.041230 0.195034
0.159911 0.034686 0.202402
0.149056 0.027155 0.210841
0.139609 0.018255 0.218596
0.134750 0.010182 0.227138
0.126649 -0.002092 0.232452
0.121545 -0.009894 0.237723
0.118614 -0.017223 0.243855
0.121838 -0.018748 0.253824
0.135435 -0.016406 0.264033
0.135435 -0.016406 0.264033
0.135435 -0.016406 0.264033
0.232388 0.048490 0.195147
0.232388 0.048490 0.195147
0.176680 0.042720 0.168342
0.141498 0.029104 0.189108
0.141498 0.029104 0.189108
0.164796 0.041230 0.195034
0.162285 0.030320 0.214481
0.159285 0.020773 0.201215
0.139232 0.009727 0.230944
0.138204 0.005120 0.230916
0.136432 0.001510 0.238256
0.127442 -0.008886 0.243911
0.129201 -0.010508 0.256794
0.135498 -0.010010 0.266036
0.149500 -0.009660 0.272014
0.149500 -0.009660 0.272014
0.149500 -0.009660 0.272014
0.232388 0.048490 0.195147
0.232388 0.048490 0.195147
0.206875 0.026558 0.218777
0.206875 0.026558 0.218777
0.141498 0.029104 0.189108
0.162285 0.030320 0.214481
0.162285 0.030320 0.214481
0.159285 0.020773 0.201215
0.139232 0.009727 0.230944
0.138204 0.005120 0.230916
0.153401 0.014406 0.241400
0.151041 0.024567 0.242140
0.141402 0.000939 0.259578
0.136660 -0.008573 0.267446
0.137268 -0.014928 0.273274
0.137268 -0.014928 0.273274
0.137268 -0.014928 0.273274
0.232388 0.048490 0.195147
0.206875 0.026558 0.218777
0.206875 0.026558 0.218777
0.206875 0.026558 0.218777
0.162285 0.030320 0.214481
0.162285 0.030320 0.214481
0.162285 0.030320 0.214481
0.164343 0.027420 0.282256
0.164343 0.027420 0.282256
0.148944 -0.004086 0.240863
0.153401 0.014406 0.241400
0.151041 0.024567 0.242140
0.141402 0.000939 0.259578
0.136660 -0.008573 0.267446
0.137268 -0.014928 0.273274
0.137268 -0.014928 0.273274
0.137268 -0.014928 0.273274
0.278379 0.039468 0.224309
0.206875 0.026558 0.218777
0.206875 0.026558 0.218777
0.206875 0.026558 0.218777
0.162285 0.030320 0.214481
0.162285 0.030320 0.214481
0.162285 0.030320 0.214481
0.164343 0.027420 0.282256
0.164343 0.027420 0.282256
0.148944 -0.004086 0.240863
0.153401 0.014406 0.241400
0.151041 0.024567 0.242140
0.141402 0.000939 0.259578
0.106860 -0.032806 0.277988
0.106860 -0.032806 0.277988
0.106860 -0.032806 0.277988
0.106860 -0.032806 0.277988
-0.015963 -0.039627 0.106859
