outputs/second_method/residual_lut.cube
TITLE "Residual LUT"
LUT_3D_SIZE 5
DOMAIN_MIN 0.0 0.0 0.0
DOMAIN_MAX 1.0 1.0 1.0
0.001322 -0.001086 0.004720
0.110643 -0.025710 0.002614
0.112841 -0.063165 0.024770
0.134371 -0.059609 0.098294
0.172289 -0.035920 0.123728
0.011738 0.056854 0.056626
0.065921 0.007009 0.071583
0.120867 -0.020799 0.099895
0.142633 -0.025361 0.132586
0.141601 -0.037958 0.156903
0.070037 0.101230 0.097488
0.095623 0.047967 0.129907
0.111659 0.013953 0.145146
0.108247 -0.011878 0.186811
0.106394 -0.014720 0.191729
0.173565 0.084874 0.158355
0.170214 0.059878 0.180449
0.157315 0.044865 0.193136
0.130328 0.017232 0.244091
0.138742 -0.005462 0.256872
0.232388 0.048490 0.195147
0.162285 0.030320 0.214481
0.160484 0.024693 0.245434
0.157768 0.030779 0.258425
0.146023 0.027137 0.258824
-0.015963 -0.039627 0.106859
0.024148 -0.081618 0.087235
0.115893 -0.061175 0.108086
0.172289 -0.035920 0.123728
0.172289 -0.035920 0.123728
-0.028151 -0.031059 0.102064
0.004802 -0.075529 0.103936
0.085808 -0.086882 0.141267
0.118812 -0.068772 0.148436
0.178249 -0.036092 0.187601
-0.011517 0.032033 0.149810
0.048220 -0.008282 0.159249
0.074305 -0.054520 0.178710
0.086414 -0.080252 0.201398
0.140959 -0.072482 0.238926
0.232388 0.048490 0.195147
0.148831 0.018383 0.212090
0.114037 -0.011899 0.234340
0.112787 -0.040969 0.266039
0.138425 -0.038960 0.287503
0.278379 0.039468 0.224309
0.181776 0.000225 0.250864
0.139627 -0.010967 0.255663
0.096145 -0.040121 0.298359
0.087767 -0.005829 0.288706
-0.026835 -0.069921 0.102993
-0.029557 -0.095197 0.115701
0.070212 -0.103261 0.148325
0.071268 -0.102342 0.137225
0.178249 -0.036092 0.187601
-0.044566 -0.075902 0.115890
-0.025792 -0.118654 0.133105
-0.008886 -0.146808 0.155696
0.071337 -0.114557 0.182057
0.074314 -0.098722 0.214493
-0.062603 -0.046511 0.173240
-0.061304 -0.087046 0.175835
0.018664 -0.128803 0.181156
0.053329 -0.131017 0.196952
0.088240 -0.118339 0.247479
-0.037038 -0.017959 0.217181
0.057983 -0.035498 0.236730
0.056174 -0.078304 0.252481
0.083895 -0.105302 0.281146
0.127848 -0.091534 0.305790
-0.067019 -0.058197 0.229676
0.092789 -0.025371 0.265813
0.118612 0.034626 0.306442
0.074164 -0.074333 0.303256
0.028005 -0.014450 0.309030
-0.044566 -0.075902 0.115890
-0.025792 -0.118654 0.133105
-0.023423 -0.122817 0.133739
0.071337 -0.114557 0.182057
0.074314 -0.098722 0.214493
-0.072905 -0.099698 0.138344
-0.102267 -0.112146 0.131099
0.002046 -0.155117 0.170404
-0.003944 -0.169806 0.171434
0.074408 -0.122289 0.219416
-0.071431 -0.086577 0.162226
-0.148605 -0.128039 0.159911
-0.024025 -0.172343 0.162570
0.000637 -0.164259 0.258160
0.134593 -0.109009 0.280749
-0.087246 -0.055128 0.215559
-0.084045 -0.077450 0.243529
0.004724 -0.114840 0.244708
0.076663 -0.122485 0.291470
0.064804 -0.164763 0.292542
-0.067019 -0.058197 0.229676
-0.058055 -0.053513 0.282953
0.032521 -0.064362 0.303294
0.049008 -0.010689 0.311549
-0.006192 -0.009785 0.285967
-0.072905 -0.099698 0.138344
-0.102267 -0.112146 0.131099
0.002046 -0.155117 0.170404
-0.003944 -0.169806 0.171434
-0.003944 -0.169806 0.171434
-0.062534 -0.098436 0.144082
-0.084387 -0.119593 0.133915
-0.024025 -0.172343 0.162570
-0.003944 -0.169806 0.171434
0.076576 -0.111927 0.236271
-0.076368 -0.102653 0.150659
-0.146646 -0.132075 0.164846
-0.024025 -0.172343 0.162570
0.000637 -0.164259 0.258160
0.134343 -0.114495 0.307881
-0.087246 -0.055128 0.215559
-0.084045 -0.077450 0.243529
-0.050854 -0.077197 0.263659
0.066289 0.088247 0.342058
0.064804 -0.164763 0.292542
-0.064531 -0.027315 0.270608
-0.058055 -0.053513 0.282953
0.058372 0.049612 0.342912
0.049008 -0.010689 0.311549
-0.006192 -0.009785 0.285967
