outputs/second_method/residual_lut_33.cube
TITLE "Residual LUT 33^3"
LUT_3D_SIZE 5
DOMAIN_MIN 0.0 0.0 0.0
DOMAIN_MAX 1.0 1.0 1.0
0.000552 -0.000727 0.002206
0.142091 -0.039246 0.004120
0.130084 -0.072094 0.000000
0.159622 0.006605 0.101961
0.172289 -0.035920 0.123728
0.004593 0.042566 0.023939
0.067520 0.010298 0.066120
0.125926 -0.017201 0.101369
0.133681 -0.035914 0.141272
0.126556 -0.038569 0.148728
-0.006182 0.108077 0.120136
0.083970 0.035246 0.120211
0.116134 0.018595 0.134837
0.107833 -0.011580 0.186825
0.137074 -0.014659 0.222207
0.194383 0.077213 0.167064
0.171886 0.060779 0.182697
0.159384 0.046047 0.163878
0.132938 0.019965 0.253763
0.136769 0.017842 0.249197
0.255193 0.052760 0.195181
0.163439 0.040307 0.196847
0.167465 0.037317 0.229435
0.147462 0.015357 0.250110
0.126736 0.009167 0.250341
-0.014574 -0.047234 0.112819
0.024148 -0.081618 0.087235
0.091641 -0.075170 0.109631
0.172289 -0.035920 0.123728
0.232537 0.004271 0.179610
-0.030660 -0.027259 0.105926
0.004850 -0.076329 0.103678
0.083573 -0.091702 0.136334
0.098325 -0.092956 0.164638
0.203056 -0.016576 0.196068
-0.037955 0.032054 0.139968
0.045607 -0.010971 0.160025
0.074715 -0.056956 0.177433
0.086632 -0.079183 0.205499
0.146635 -0.051126 0.228199
0.255193 0.052760 0.195181
0.160558 0.021034 0.219585
0.117492 -0.009204 0.236662
0.113782 -0.041133 0.266413
0.126690 -0.044139 0.279179
0.238825 0.041906 0.205687
0.175586 0.009091 0.240773
0.152097 -0.015917 0.266673
0.106463 -0.024798 0.278169
0.076546 0.031491 0.291389
-0.028740 -0.069994 0.107463
-0.024488 -0.096436 0.119762
0.028428 -0.096338 0.122469
0.080789 -0.108739 0.165879
0.232537 0.004271 0.179610
-0.042762 -0.073429 0.116830
-0.020142 -0.124059 0.135507
-0.015700 -0.147239 0.158688
0.071337 -0.114557 0.182057
0.074740 -0.128682 0.216330
-0.061605 -0.053116 0.168993
-0.049312 -0.099499 0.175964
0.019304 -0.128635 0.182783
0.063327 -0.133209 0.224566
0.074740 -0.128682 0.216330
-0.067448 -0.018675 0.212221
0.058773 -0.035107 0.234316
0.054784 -0.079683 0.252068
0.080360 -0.107754 0.278857
0.133946 -0.090392 0.305938
-0.043051 -0.074409 0.219843
0.096888 -0.019411 0.274302
0.124840 0.044222 0.306477
0.064519 -0.072903 0.303351
0.032367 -0.007042 0.309275
-0.090217 -0.100395 0.129177
-0.020142 -0.124059 0.135507
-0.007097 -0.126056 0.148399
0.071337 -0.114557 0.182057
0.060096 -0.119975 0.181836
-0.065968 -0.102547 0.132843
-0.090304 -0.108746 0.127314
-0.007342 -0.155412 0.159597
-0.001763 -0.159039 0.164539
0.074740 -0.128682 0.216330
-0.072683 -0.089064 0.161446
-0.147094 -0.140543 0.143334
-0.028670 -0.179856 0.155870
0.001760 -0.156728 0.274756
0.131262 -0.109562 0.279476
-0.087773 -0.059369 0.213970
-0.110443 -0.071633 0.233594
-0.022398 -0.115177 0.242042
0.045827 -0.161833 0.262957
0.075330 -0.166085 0.342994
-0.095864 -0.030582 0.273878
-0.006748 -0.011556 0.297176
0.067220 0.105143 0.349409
0.051551 0.057801 0.325705
-0.006379 -0.004155 0.285693
-0.065968 -0.102547 0.132843
-0.090304 -0.108746 0.127314
-0.007342 -0.155412 0.159597
-0.001763 -0.159039 0.164539
0.074740 -0.128682 0.216330
-0.065968 -0.102547 0.132843
-0.065968 -0.102547 0.132843
-0.028670 -0.179856 0.155870
-0.028670 -0.179856 0.155870
0.074740 -0.128682 0.216330
-0.075275 -0.091141 0.156726
-0.153755 -0.126771 0.147235
-0.028670 -0.179856 0.155870
0.001760 -0.156728 0.274756
0.135468 -0.111862 0.298158
-0.095864 -0.030582 0.273878
-0.110443 -0.071633 0.233594
-0.022398 -0.115177 0.242042
0.042328 -0.146947 0.311311
0.002986 0.014483 0.295078
-0.095864 -0.030582 0.273878
0.058969 0.055674 0.302135
0.067220 0.105143 0.349409
0.051551 0.057801 0.325705
-0.006379 -0.004155 0.285693
