outputs/second_method/residual_lut_perchannel.cube
TITLE "Residual LUT (Per-Channel)"
LUT_3D_SIZE 9
DOMAIN_MIN 0.0 0.0 0.0
DOMAIN_MAX 1.0 1.0 1.0
-0.002127 0.001877 -0.073105
-0.012349 -0.000716 -0.062247
-0.011670 -0.010600 -0.073764
-0.012107 -0.021839 -0.074872
-0.015553 -0.026006 -0.074058
-0.017659 -0.009263 -0.007209
-0.026544 -0.004023 -0.029011
-0.013991 0.042273 0.023930
-0.013991 0.042273 0.023930
0.012931 0.040430 -0.043470
0.010209 0.019737 -0.042200
0.006767 0.019461 -0.047104
-0.000419 0.009341 -0.027541
-0.000265 0.004541 0.001033
-0.004285 0.001841 0.019781
-0.021151 0.004473 0.025832
-0.013991 0.042273 0.023930
-0.013991 0.042273 0.023930
0.028911 0.073764 -0.011035
0.053735 0.060857 -0.006901
0.025998 0.042378 0.000274
0.019777 0.032436 0.012762
0.013115 0.023251 0.021026
-0.006878 0.009525 0.028343
-0.006862 0.020848 0.054752
-0.010689 0.025188 0.068504
0.003056 0.020990 0.068375
0.041458 0.113859 0.039221
0.098676 0.091174 0.038508
0.057366 0.077041 0.040862
0.039891 0.063065 0.043575
0.022605 0.046255 0.051250
0.015803 0.041157 0.058740
0.006991 0.034706 0.063826
0.001830 0.025430 0.102170
0.004258 0.024209 0.106283
0.011987 0.127934 0.092418
0.145571 0.111716 0.083807
0.074362 0.067909 0.055187
0.068900 0.080742 0.077821
0.054089 0.070142 0.078004
0.032625 0.055655 0.080861
0.020178 0.046309 0.111173
0.010722 0.034746 0.124326
0.006829 0.037733 0.128560
0.011987 0.127934 0.092418
0.152651 0.106780 0.114114
0.113884 0.100931 0.072369
0.111494 0.102983 0.127050
0.081739 0.090188 0.121387
0.055888 0.081989 0.134286
0.035682 0.070699 0.134287
0.023861 0.062054 0.144312
0.041805 0.067571 0.144768
0.111061 0.122227 0.064626
0.174797 0.109689 0.101562
0.165103 0.108425 0.101109
0.111494 0.102983 0.127050
0.080610 0.093527 0.131413
0.068940 0.090009 0.126165
0.057103 0.097079 0.165315
0.036660 0.086567 0.166426
0.035584 0.081307 0.199830
0.111061 0.122227 0.064626
0.174797 0.109689 0.101562
0.143556 0.099073 0.088623
0.111494 0.102983 0.127050
0.080610 0.093527 0.131413
0.058859 0.097215 0.134065
0.058443 0.095215 0.196807
0.049189 0.073035 0.190886
0.026303 0.084880 0.183778
0.174797 0.109689 0.101562
0.174797 0.109689 0.101562
0.143556 0.099073 0.088623
0.111541 0.087982 0.086235
0.066168 0.089129 0.164870
0.058443 0.095215 0.196807
0.058443 0.095215 0.196807
0.049189 0.073035 0.190886
0.026303 0.084880 0.183778
-0.000620 0.002817 -0.076896
-0.016303 -0.006714 -0.071467
-0.011177 -0.019552 -0.065272
-0.021484 -0.028316 -0.056891
-0.012044 -0.007306 -0.009829
-0.031423 -0.021011 -0.008960
-0.030847 -0.010650 0.023087
-0.013991 0.042273 0.023930
-0.023602 -0.019500 0.022353
0.009084 0.028545 -0.050515
0.002696 0.008106 -0.051925
-0.007140 0.003769 -0.032250
-0.007090 -0.001279 -0.018086
-0.004846 -0.003059 0.002023
-0.009093 -0.007801 0.012388
-0.023549 -0.009254 0.022774
-0.028170 -0.014547 0.022192
-0.026442 -0.009830 0.026049
0.015050 0.065566 -0.011161
0.045725 0.050623 0.003419
0.021515 0.034238 0.008959
0.012679 0.019849 0.018363
0.003950 0.006159 0.023275
-0.002220 -0.000768 0.035012
-0.006376 -0.007773 0.044086
-0.011170 -0.007097 0.066444
-0.012692 -0.011153 0.055110
0.015185 0.101574 0.032334
0.084068 0.081037 0.034522
0.048484 0.064616 0.041539
0.032582 0.050015 0.048430
0.020322 0.036598 0.059740
0.010477 0.026620 0.070076
0.001288 0.015602 0.079427
-0.002132 0.019056 0.094879
-0.009790 -0.001854 0.076165
0.051024 0.123309 0.076499
0.143116 0.104286 0.082298
0.079012 0.077564 0.070799
0.060673 0.066955 0.081917
0.040322 0.051777 0.091757
0.025995 0.039366 0.103056
0.015220 0.033150 0.120852
0.008918 0.021563 0.128415
0.004886 0.019012 0.127762
0.111061 0.122227 0.064626
0.199802 0.114014 0.094146
0.165103 0.108425 0.101109
0.090607 0.088365 0.116926
0.068939 0.075758 0.121757
0.046729 0.066205 0.136176
0.027384 0.052035 0.147902
0.018937 0.046250 0.165449
0.015022 0.042891 0.169010
0.111061 0.122227 0.064626
0.174797 0.109689 0.101562
0.143556 0.099073 0.088623
0.132710 0.092690 0.091195
0.086409 0.089528 0.144979
0.066168 0.089129 0.164870
0.053727 0.087822 0.169287
0.031080 0.067533 0.186422
0.032191 0.071931 0.198225
0.111061 0.122227 0.064626
0.174797 0.109689 0.101562
0.143556 0.099073 0.088623
0.111541 0.087982 0.086235
0.066168 0.089129 0.164870
0.066168 0.089129 0.164870
0.059180 0.094642 0.172962
0.040749 0.082278 0.174317
0.026499 0.070924 0.181776
0.229360 0.101591 0.030744
0.143556 0.099073 0.088623
0.143556 0.099073 0.088623
0.111541 0.087982 0.086235
0.066168 0.089129 0.164870
0.059180 0.094642 0.172962
0.059180 0.094642 0.172962
0.040749 0.082278 0.174317
0.026499 0.070924 0.181776
-0.007965 -0.015053 -0.120952
-0.018830 -0.027980 -0.104681
-0.051127 -0.030223 -0.128374
-0.022996 -0.026870 -0.072288
-0.024390 -0.032742 -0.062404
-0.020744 -0.023659 -0.025071
0.003739 0.014561 0.012564
-0.023602 -0.019500 0.022353
-0.023602 -0.019500 0.022353
-0.003392 0.005076 -0.101594
-0.003651 -0.003922 -0.083554
-0.016343 -0.014369 -0.074515
-0.015184 -0.019517 -0.059560
-0.014283 -0.021806 -0.039708
-0.020744 -0.023659 -0.025071
0.003739 0.014561 0.012564
-0.023602 -0.019500 0.022353
0.065576 0.021664 0.046043
0.001987 0.042948 -0.055411
0.018410 0.020179 -0.052195
-0.002730 0.000382 -0.048163
-0.001144 -0.004471 -0.028138
-0.007373 -0.016477 -0.017642
-0.011608 -0.019774 -0.001870
-0.013687 -0.024155 0.013610
-0.013348 -0.020322 0.028994
0.012238 -0.004750 0.042007
0.018060 0.063948 -0.031665
0.059290 0.051523 -0.020361
0.036107 0.042825 -0.005014
0.018893 0.026249 0.004640
0.010024 0.015478 0.018008
0.000742 0.004264 0.029139
-0.007758 -0.009644 0.037607
-0.009942 -0.011994 0.052682
0.006450 -0.002317 0.065022
0.100928 0.096375 0.010340
0.119814 0.076156 0.011913
0.074492 0.061527 0.025610
0.043676 0.041541 0.032777
0.026414 0.026677 0.044876
0.014851 0.015280 0.058101
0.006335 0.005571 0.072893
0.000217 -0.002881 0.088389
0.016652 0.003103 0.097458
0.156330 0.109984 0.030769
0.154518 0.087467 0.031852
0.135186 0.093392 0.070929
0.081259 0.068689 0.067158
0.054529 0.053198 0.073840
0.032364 0.042048 0.089221
0.017658 0.030236 0.102474
0.012155 0.024468 0.120707
0.017117 0.029153 0.135772
0.237201 0.108513 0.031285
0.184397 0.089692 0.039962
0.138033 0.091503 0.082550
0.125888 0.086119 0.082914
0.111541 0.087982 0.086235
0.056287 0.070408 0.109939
0.036422 0.059896 0.123774
0.021901 0.046367 0.138095
0.024069 0.056100 0.155494
0.229360 0.101591 0.030744
0.229360 0.101591 0.030744
0.138033 0.091503 0.082550
0.111541 0.087982 0.086235
0.111541 0.087982 0.086235
0.060683 0.083046 0.087693
0.049516 0.067175 0.125278
0.031756 0.049081 0.141074
0.023311 0.055780 0.155910
0.229360 0.101591 0.030744
0.199232 0.084450 0.038204
0.183593 0.082148 0.032454
0.111541 0.087982 0.086235
0.111541 0.087982 0.086235
0.060683 0.083046 0.087693
0.049516 0.067175 0.125278
0.031756 0.049081 0.141074
0.023311 0.055780 0.155910
-0.010338 -0.023846 -0.137459
-0.026436 -0.034722 -0.123311
-0.029208 -0.037227 -0.119613
-0.057407 -0.046752 -0.103305
-0.013897 -0.016759 -0.042908
-0.048556 -0.038494 -0.036741
-0.048556 -0.038494 -0.036741
0.003739 0.014561 0.012564
0.065576 0.021664 0.046043
-0.014487 -0.015267 -0.125512
-0.024928 -0.027391 -0.114992
-0.036597 -0.036313 -0.103781
-0.055581 -0.057108 -0.099919
-0.013897 -0.016759 -0.042908
-0.022748 -0.024621 -0.017677
-0.042696 -0.044007 -0.025524
-0.042696 -0.044007 -0.025524
0.065576 0.021664 0.046043
-0.013354 0.009514 -0.090168
-0.008907 -0.009484 -0.083593
-0.015593 -0.016410 -0.065585
-0.021001 -0.032795 -0.060553
-0.019593 -0.036541 -0.039793
-0.024059 -0.045452 -0.029986
-0.029108 -0.048643 -0.015019
-0.028651 -0.045820 -0.001470
0.018254 -0.005977 0.048149
0.001965 0.046754 -0.049984
0.042056 0.033511 -0.038198
0.002354 0.008761 -0.038201
-0.005390 -0.006216 -0.029231
-0.007919 -0.013151 -0.011139
-0.014447 -0.022440 0.003213
-0.015509 -0.031143 0.016110
-0.009955 -0.027144 0.034098
0.035673 0.001819 0.056649
0.002370 0.067407 -0.015531
0.084888 0.045932 -0.012531
0.040648 0.028980 -0.004187
0.022352 0.014406 0.007499
0.007807 -0.002412 0.014442
0.001553 -0.010709 0.030963
-0.005875 -0.021655 0.043441
-0.007889 -0.026414 0.063563
0.005457 -0.021167 0.073755
0.015088 0.078650 -0.000229
0.166920 0.074075 0.024661
0.099996 0.061805 0.032869
0.058700 0.044529 0.038314
0.040852 0.035542 0.052664
0.020795 0.020395 0.063223
0.010385 0.008818 0.078142
0.003493 -0.005213 0.090156
0.007437 -0.001301 0.101232
0.229360 0.101591 0.030744
0.229360 0.101591 0.030744
0.135414 0.077470 0.041463
0.083979 0.059319 0.049737
0.080010 0.063198 0.073915
0.048085 0.058241 0.088830
0.024718 0.038920 0.099997
0.015568 0.029009 0.117095
0.016653 0.033292 0.131826
0.295642 0.101616 0.020413
0.199232 0.084450 0.038204
0.183593 0.082148 0.032454
0.112702 0.062268 0.053402
0.069721 0.064331 0.070993
0.056927 0.048170 0.085884
0.041186 0.061680 0.104992
0.021909 0.044451 0.118199
0.014827 0.057120 0.139611
0.295642 0.101616 0.020413
0.199232 0.084450 0.038204
0.183593 0.082148 0.032454
0.112702 0.062268 0.053402
0.069721 0.064331 0.070993
0.056927 0.048170 0.085884
0.041186 0.061680 0.104992
0.021909 0.044451 0.118199
0.014827 0.057120 0.139611
-0.014972 -0.053988 -0.174524
-0.044729 -0.051418 -0.139136
-0.011212 -0.025305 -0.098761
-0.027560 -0.048661 -0.127719
-0.042766 -0.051925 -0.069212
-0.028588 -0.051007 -0.056955
-0.042696 -0.044007 -0.025524
-0.042696 -0.044007 -0.025524
-0.026393 -0.054943 -0.020049
-0.018082 -0.032967 -0.152059
-0.037845 -0.044345 -0.138449
-0.033412 -0.053011 -0.134963
-0.027560 -0.048661 -0.127719
-0.042766 -0.051925 -0.069212
-0.028588 -0.051007 -0.056955
-0.034204 -0.068325 -0.055674
-0.026393 -0.054943 -0.020049
-0.025703 -0.059825 -0.012856
-0.018704 -0.015712 -0.122498
-0.034805 -0.033126 -0.114864
-0.041398 -0.048153 -0.107676
-0.046711 -0.061732 -0.100591
-0.040634 -0.063547 -0.079284
-0.033428 -0.066267 -0.058908
-0.034204 -0.068325 -0.055674
-0.025703 -0.059825 -0.012856
-0.025703 -0.059825 -0.012856
-0.021177 0.019959 -0.082583
-0.007311 0.001996 -0.075335
-0.019913 -0.014212 -0.066895
-0.017964 -0.022764 -0.051445
-0.024328 -0.039526 -0.044177
-0.027447 -0.043648 -0.028767
-0.024445 -0.051995 -0.012927
-0.022697 -0.057822 -0.002103
-0.028529 -0.057468 -0.001072
-0.020033 0.033624 -0.055260
0.053150 0.025350 -0.042097
0.016940 0.008199 -0.032001
-0.001174 -0.013069 -0.026786
-0.004528 -0.020849 -0.009189
-0.012505 -0.032787 0.004071
-0.014680 -0.043935 0.011830
-0.013453 -0.048151 0.033466
0.012110 -0.039338 0.041478
0.172578 0.076747 -0.003689
0.130220 0.062432 0.002603
0.076306 0.046097 0.009294
0.044673 0.027918 0.016238
0.019584 0.009508 0.023333
0.004756 -0.005700 0.032948
0.000349 -0.011998 0.050010
-0.003159 -0.030795 0.056348
0.009735 -0.012729 0.081554
0.295642 0.101616 0.020413
0.251655 0.090394 0.023131
0.163976 0.076712 0.032146
0.105005 0.061745 0.044059
0.056117 0.049901 0.049147
0.036650 0.042187 0.067397
0.017360 0.023408 0.080594
0.010540 0.014644 0.096058
0.010038 0.010618 0.108000
0.295642 0.101616 0.020413
0.251655 0.090394 0.023131
0.163976 0.076712 0.032146
0.100017 0.047217 0.051187
0.084680 0.059014 0.063593
0.046451 0.052790 0.074162
0.034816 0.057751 0.090241
0.016164 0.031905 0.104006
0.007070 0.049727 0.118712
0.295642 0.101616 0.020413
0.251655 0.090394 0.023131
0.155684 0.086367 0.034627
0.100017 0.047217 0.051187
0.084680 0.059014 0.063593
0.046451 0.052790 0.074162
0.034816 0.057751 0.090241
0.016164 0.031905 0.104006
0.007070 0.049727 0.118712
-0.015434 -0.024593 -0.159638
-0.062640 -0.078588 -0.162101
-0.052359 -0.066068 -0.142252
-0.027560 -0.048661 -0.127719
-0.033368 -0.057602 -0.125753
-0.043479 -0.076252 -0.083735
-0.046749 -0.066304 -0.058462
-0.046749 -0.066304 -0.058462
-0.025703 -0.059825 -0.012856
-0.018278 -0.052801 -0.199009
-0.062640 -0.078588 -0.162101
-0.064307 -0.070931 -0.158481
-0.067226 -0.071015 -0.151440
-0.030083 -0.062982 -0.116664
-0.043479 -0.076252 -0.083735
-0.046749 -0.066304 -0.058462
-0.045585 -0.071062 -0.059071
-0.025703 -0.059825 -0.012856
-0.021511 -0.044825 -0.159049
-0.062158 -0.062993 -0.156553
-0.062448 -0.072487 -0.138630
-0.057442 -0.077127 -0.122080
-0.030083 -0.062982 -0.116664
-0.034804 -0.069706 -0.068902
-0.046749 -0.066304 -0.058462
-0.045585 -0.071062 -0.059071
-0.025703 -0.059825 -0.012856
-0.025879 -0.008480 -0.117738
-0.052433 -0.022567 -0.110333
-0.046144 -0.038458 -0.101546
-0.043967 -0.055222 -0.095369
-0.043213 -0.064300 -0.080996
-0.041589 -0.072832 -0.070562
-0.032399 -0.074551 -0.039315
-0.043587 -0.070421 -0.056536
-0.033996 -0.074165 -0.004395
-0.029170 -0.001516 -0.102429
0.007930 0.002883 -0.066666
-0.023825 -0.022139 -0.067224
-0.020707 -0.033024 -0.053713
-0.025329 -0.046333 -0.042785
-0.031625 -0.057292 -0.037037
-0.043426 -0.082923 -0.037772
-0.021724 -0.072557 -0.002451
-0.028299 -0.073871 0.003586
0.024740 0.044070 -0.037948
0.085561 0.038488 -0.027228
0.049667 0.024564 -0.020491
0.023377 0.010458 -0.011355
-0.002072 -0.016955 -0.010220
-0.004833 -0.017748 0.009368
-0.014527 -0.037213 0.014703
-0.014014 -0.048500 0.025323
0.012329 -0.035232 0.045088
0.192786 0.083602 0.005656
0.261564 0.081768 0.004597
0.127290 0.057139 0.006253
0.082222 0.047153 0.019864
0.046308 0.036910 0.029713
0.019579 0.019657 0.040358
0.000890 -0.002797 0.047070
-0.001333 -0.007431 0.063679
0.003606 -0.022910 0.064871
0.279492 0.092906 0.020713
0.261564 0.081768 0.004597
0.155684 0.086367 0.034627
0.099267 0.058043 0.026059
0.056904 0.044767 0.038673
0.034108 0.036978 0.049399
0.022874 0.046643 0.066935
0.014458 0.054084 0.085839
0.003714 0.070033 0.101705
0.279492 0.092906 0.020713
0.261564 0.081768 0.004597
0.155684 0.086367 0.034627
0.099267 0.058043 0.026059
0.056904 0.044767 0.038673
0.034108 0.036978 0.049399
0.022874 0.046643 0.066935
0.014458 0.054084 0.085839
0.003714 0.070033 0.101705
-0.018278 -0.052801 -0.199009
-0.070049 -0.061658 -0.173399
-0.072844 -0.085629 -0.159161
-0.066577 -0.077454 -0.150062
-0.069210 -0.101248 -0.150917
-0.069210 -0.101248 -0.150917
-0.046749 -0.066304 -0.058462
-0.045585 -0.071062 -0.059071
-0.045585 -0.071062 -0.059071
-0.021709 -0.055085 -0.182773
-0.070049 -0.061658 -0.173399
-0.072844 -0.085629 -0.159161
-0.066577 -0.077454 -0.150062
-0.069210 -0.101248 -0.150917
-0.069210 -0.101248 -0.150917
-0.046749 -0.066304 -0.058462
-0.045585 -0.071062 -0.059071
-0.045585 -0.071062 -0.059071
-0.025821 -0.051757 -0.183989
-0.095652 -0.080066 -0.174252
-0.092762 -0.079335 -0.164708
-0.078034 -0.102753 -0.149860
-0.069210 -0.101248 -0.150917
-0.050480 -0.085137 -0.102336
-0.045585 -0.071062 -0.059071
-0.045585 -0.071062 -0.059071
-0.030927 -0.082051 -0.021733
-0.028856 -0.033890 -0.144458
-0.109073 -0.057636 -0.150127
-0.091597 -0.076354 -0.143358
-0.068383 -0.079648 -0.129132
-0.078859 -0.109818 -0.146218
-0.050480 -0.085137 -0.102336
-0.059507 -0.094576 -0.078595
-0.034855 -0.084913 -0.037727
-0.030927 -0.082051 -0.021733
-0.044944 -0.015272 -0.106234
-0.078715 -0.028126 -0.101594
-0.057790 -0.044286 -0.092195
-0.047104 -0.057457 -0.082712
-0.046826 -0.073560 -0.077307
-0.048064 -0.084783 -0.070413
-0.033413 -0.093640 -0.044393
-0.035453 -0.096397 -0.043851
-0.008543 -0.078909 -0.006996
-0.025858 0.032271 -0.051228
0.044694 0.023596 -0.048554
-0.028951 -0.017610 -0.066411
-0.034241 -0.036527 -0.063560
-0.026509 -0.036080 -0.039163
-0.031185 -0.051998 -0.032166
-0.025211 -0.064937 -0.013609
-0.020536 -0.065090 0.001082
0.002775 -0.069062 0.003086
0.166873 0.078389 -0.005930
0.108056 0.069062 -0.009543
0.071320 0.042404 -0.010847
0.047133 0.026776 -0.002881
0.019015 0.014155 0.001533
-0.006528 -0.010434 0.006307
-0.007478 -0.010704 0.027260
-0.013579 -0.025430 0.036530
0.000050 -0.030279 0.049104
0.166873 0.078389 -0.005930
0.043454 0.060578 -0.033487
0.072565 0.076534 0.009948
0.067712 0.035238 0.009135
0.064790 0.063838 0.026209
0.027926 0.087669 0.041307
-0.004311 -0.009336 0.032411
-0.003120 0.008546 0.054533
-0.002630 0.077435 0.082443
0.166873 0.078389 -0.005930
0.043454 0.060578 -0.033487
0.072565 0.076534 0.009948
0.067712 0.035238 0.009135
0.064790 0.063838 0.026209
0.027926 0.087669 0.041307
-0.004311 -0.009336 0.032411
-0.003120 0.008546 0.054533
-0.002630 0.077435 0.082443
-0.021709 -0.055085 -0.182773
-0.070049 -0.061658 -0.173399
-0.072844 -0.085629 -0.159161
-0.066577 -0.077454 -0.150062
-0.069210 -0.101248 -0.150917
-0.069210 -0.101248 -0.150917
-0.082321 -0.110982 -0.144315
-0.045585 -0.071062 -0.059071
-0.045585 -0.071062 -0.059071
-0.025821 -0.051757 -0.183989
-0.095652 -0.080066 -0.174252
-0.092762 -0.079335 -0.164708
-0.078034 -0.102753 -0.149860
-0.069210 -0.101248 -0.150917
-0.082321 -0.110982 -0.144315
-0.080291 -0.109034 -0.145051
-0.045585 -0.071062 -0.059071
-0.045585 -0.071062 -0.059071
-0.029740 -0.056692 -0.176744
-0.099821 -0.082641 -0.202285
-0.099821 -0.082641 -0.202285
-0.082402 -0.104822 -0.157225
-0.082321 -0.110982 -0.144315
-0.080291 -0.109034 -0.145051
-0.080291 -0.109034 -0.145051
-0.045585 -0.071062 -0.059071
-0.030927 -0.082051 -0.021733
-0.031084 -0.042558 -0.161872
-0.100315 -0.080735 -0.201019
-0.089834 -0.079628 -0.147442
-0.092715 -0.081279 -0.144751
-0.083469 -0.112529 -0.153357
-0.080291 -0.109034 -0.145051
-0.101246 -0.133969 -0.167236
-0.041717 -0.108006 -0.075465
-0.030927 -0.082051 -0.021733
-0.046287 -0.047395 -0.157539
-0.128808 -0.057344 -0.148672
-0.130952 -0.078432 -0.143016
-0.111424 -0.076326 -0.133552
-0.081428 -0.111973 -0.142908
-0.101246 -0.133969 -0.167236
-0.041717 -0.108006 -0.075465
-0.029524 -0.090432 -0.037810
-0.008543 -0.078909 -0.006996
-0.053498 -0.002962 -0.107308
-0.068484 -0.010218 -0.102147
-0.074955 -0.029185 -0.097746
-0.064125 -0.046324 -0.092128
-0.056935 -0.061683 -0.078302
-0.051007 -0.077364 -0.074896
-0.045266 -0.080283 -0.061059
-0.028760 -0.082339 -0.039683
0.009999 -0.067128 -0.005737
0.027770 0.016216 -0.086722
0.009505 0.016190 -0.075725
0.023895 0.031255 -0.041760
-0.030495 -0.016349 -0.068509
-0.055935 -0.043757 -0.068209
-0.032300 -0.031103 -0.038126
-0.031549 -0.044437 -0.024424
-0.017540 -0.056289 -0.000532
0.003372 -0.042135 0.010580
-0.034339 0.016891 -0.060017
-0.012836 0.036125 -0.038526
0.028282 0.028589 -0.042122
0.032441 0.027266 -0.023241
0.025658 0.081794 -0.002312
-0.000807 0.038432 -0.002235
-0.015355 -0.002964 0.001133
-0.006583 0.060678 0.032629
-0.005218 0.104611 0.052178
-0.034339 0.016891 -0.060017
-0.012836 0.036125 -0.038526
0.028282 0.028589 -0.042122
0.032441 0.027266 -0.023241
0.025658 0.081794 -0.002312
-0.000807 0.038432 -0.002235
-0.015355 -0.002964 0.001133
-0.006583 0.060678 0.032629
-0.005218 0.104611 0.052178
-0.073770 -0.076276 -0.203509
-0.099821 -0.082641 -0.202285
-0.099821 -0.082641 -0.202285
-0.078034 -0.102753 -0.149860
-0.069210 -0.101248 -0.150917
-0.082321 -0.110982 -0.144315
-0.080291 -0.109034 -0.145051
-0.045585 -0.071062 -0.059071
-0.045585 -0.071062 -0.059071
-0.073770 -0.076276 -0.203509
-0.099821 -0.082641 -0.202285
-0.099821 -0.082641 -0.202285
-0.082402 -0.104822 -0.157225
-0.082321 -0.110982 -0.144315
-0.080291 -0.109034 -0.145051
-0.080291 -0.109034 -0.145051
-0.082968 -0.124797 -0.155663
-0.030927 -0.082051 -0.021733
-0.073770 -0.076276 -0.203509
-0.099821 -0.082641 -0.202285
-0.099821 -0.082641 -0.202285
-0.082402 -0.104822 -0.157225
-0.083469 -0.112529 -0.153357
-0.080291 -0.109034 -0.145051
-0.082968 -0.124797 -0.155663
-0.082968 -0.124797 -0.155663
-0.030927 -0.082051 -0.021733
-0.050347 -0.073620 -0.218758
-0.050347 -0.073620 -0.218758
-0.183176 -0.088074 -0.199634
-0.085877 -0.120994 -0.152581
-0.085877 -0.120994 -0.152581
-0.082968 -0.124797 -0.155663
-0.082968 -0.124797 -0.155663
-0.041717 -0.108006 -0.075465
-0.008543 -0.078909 -0.006996
-0.060430 -0.061872 -0.178757
-0.117939 -0.075307 -0.181667
-0.163075 -0.092463 -0.169150
-0.128773 -0.096389 -0.174082
-0.085877 -0.120994 -0.152581
-0.090717 -0.131143 -0.142783
-0.090562 -0.123363 -0.090677
-0.056005 -0.106644 -0.087804
-0.023777 -0.103746 -0.048928
-0.058878 -0.009869 -0.126388
-0.104811 -0.036031 -0.122384
-0.152716 -0.060786 -0.113963
-0.106560 -0.066746 -0.117973
-0.098824 -0.081349 -0.123427
-0.077959 -0.096283 -0.113788
-0.056005 -0.106644 -0.087804
-0.024858 -0.077644 -0.022380
-0.023777 -0.103746 -0.048928
-0.060171 0.016844 -0.069061
-0.048139 0.017795 -0.066015
-0.077497 -0.002653 -0.070377
-0.054393 -0.018459 -0.077692
-0.057316 -0.028156 -0.061158
-0.047358 -0.033902 -0.048199
-0.041224 -0.046197 -0.036954
-0.035877 -0.057704 -0.026677
0.004390 -0.055344 0.000228
-0.034339 0.016891 -0.060017
-0.012836 0.036125 -0.038526
-0.009579 0.040057 -0.024865
-0.026866 0.038281 -0.024258
-0.038060 0.022886 -0.023422
-0.050770 -0.024475 -0.023550
-0.027581 0.006443 -0.013443
-0.012581 0.093468 0.016253
-0.002467 0.158585 0.034777
-0.034339 0.016891 -0.060017
-0.012836 0.036125 -0.038526
-0.009579 0.040057 -0.024865
-0.026866 0.038281 -0.024258
-0.038060 0.022886 -0.023422
-0.050770 -0.024475 -0.023550
-0.027581 0.006443 -0.013443
-0.012581 0.093468 0.016253
-0.002467 0.158585 0.034777
