outputs/second_method/residual_lut_perchannel.cube
TITLE "Residual LUT (Per-Channel)"
LUT_3D_SIZE 5
DOMAIN_MIN 0.0 0.0 0.0
DOMAIN_MAX 1.0 1.0 1.0
-0.002127 0.001877 -0.073105
-0.011670 -0.010600 -0.073764
-0.015553 -0.026006 -0.074058
-0.026544 -0.004023 -0.029011
-0.013991 0.042273 0.023930
0.028911 0.073764 -0.011035
0.025998 0.042378 0.000274
0.013115 0.023251 0.021026
-0.006862 0.020848 0.054752
0.003056 0.020990 0.068375
0.011987 0.127934 0.092418
0.074362 0.067909 0.055187
0.054089 0.070142 0.078004
0.020178 0.046309 0.111173
0.006829 0.037733 0.128560
0.111061 0.122227 0.064626
0.165103 0.108425 0.101109
0.080610 0.093527 0.131413
0.057103 0.097079 0.165315
0.035584 0.081307 0.199830
0.174797 0.109689 0.101562
0.143556 0.099073 0.088623
0.066168 0.089129 0.164870
0.058443 0.095215 0.196807
0.026303 0.084880 0.183778
-0.007965 -0.015053 -0.120952
-0.051127 -0.030223 -0.128374
-0.024390 -0.032742 -0.062404
0.003739 0.014561 0.012564
-0.023602 -0.019500 0.022353
0.001987 0.042948 -0.055411
-0.002730 0.000382 -0.048163
-0.007373 -0.016477 -0.017642
-0.013687 -0.024155 0.013610
0.012238 -0.004750 0.042007
0.100928 0.096375 0.010340
0.074492 0.061527 0.025610
0.026414 0.026677 0.044876
0.006335 0.005571 0.072893
0.016652 0.003103 0.097458
0.237201 0.108513 0.031285
0.138033 0.091503 0.082550
0.111541 0.087982 0.086235
0.036422 0.059896 0.123774
0.024069 0.056100 0.155494
0.229360 0.101591 0.030744
0.183593 0.082148 0.032454
0.111541 0.087982 0.086235
0.049516 0.067175 0.125278
0.023311 0.055780 0.155910
-0.014972 -0.053988 -0.174524
-0.011212 -0.025305 -0.098761
-0.042766 -0.051925 -0.069212
-0.042696 -0.044007 -0.025524
-0.026393 -0.054943 -0.020049
-0.018704 -0.015712 -0.122498
-0.041398 -0.048153 -0.107676
-0.040634 -0.063547 -0.079284
-0.034204 -0.068325 -0.055674
-0.025703 -0.059825 -0.012856
-0.020033 0.033624 -0.055260
0.016940 0.008199 -0.032001
-0.004528 -0.020849 -0.009189
-0.014680 -0.043935 0.011830
0.012110 -0.039338 0.041478
0.295642 0.101616 0.020413
0.163976 0.076712 0.032146
0.056117 0.049901 0.049147
0.017360 0.023408 0.080594
0.010038 0.010618 0.108000
0.295642 0.101616 0.020413
0.155684 0.086367 0.034627
0.084680 0.059014 0.063593
0.034816 0.057751 0.090241
0.007070 0.049727 0.118712
-0.018278 -0.052801 -0.199009
-0.072844 -0.085629 -0.159161
-0.069210 -0.101248 -0.150917
-0.046749 -0.066304 -0.058462
-0.045585 -0.071062 -0.059071
-0.025821 -0.051757 -0.183989
-0.092762 -0.079335 -0.164708
-0.069210 -0.101248 -0.150917
-0.045585 -0.071062 -0.059071
-0.030927 -0.082051 -0.021733
-0.044944 -0.015272 -0.106234
-0.057790 -0.044286 -0.092195
-0.046826 -0.073560 -0.077307
-0.033413 -0.093640 -0.044393
-0.008543 -0.078909 -0.006996
0.166873 0.078389 -0.005930
0.071320 0.042404 -0.010847
0.019015 0.014155 0.001533
-0.007478 -0.010704 0.027260
0.000050 -0.030279 0.049104
0.166873 0.078389 -0.005930
0.072565 0.076534 0.009948
0.064790 0.063838 0.026209
-0.004311 -0.009336 0.032411
-0.002630 0.077435 0.082443
-0.073770 -0.076276 -0.203509
-0.099821 -0.082641 -0.202285
-0.069210 -0.101248 -0.150917
-0.080291 -0.109034 -0.145051
-0.045585 -0.071062 -0.059071
-0.073770 -0.076276 -0.203509
-0.099821 -0.082641 -0.202285
-0.083469 -0.112529 -0.153357
-0.082968 -0.124797 -0.155663
-0.030927 -0.082051 -0.021733
-0.060430 -0.061872 -0.178757
-0.163075 -0.092463 -0.169150
-0.085877 -0.120994 -0.152581
-0.090562 -0.123363 -0.090677
-0.023777 -0.103746 -0.048928
-0.060171 0.016844 -0.069061
-0.077497 -0.002653 -0.070377
-0.057316 -0.028156 -0.061158
-0.041224 -0.046197 -0.036954
0.004390 -0.055344 0.000228
-0.034339 0.016891 -0.060017
-0.009579 0.040057 -0.024865
-0.038060 0.022886 -0.023422
-0.027581 0.006443 -0.013443
-0.002467 0.158585 0.034777
