outputs/second_method/residual_lut_33.cube
TITLE "Residual LUT 33^3"
LUT_3D_SIZE 9
DOMAIN_MIN 0.0 0.0 0.0
DOMAIN_MAX 1.0 1.0 1.0
0.000552 -0.000727 0.002206
0.085021 -0.022347 0.002833
0.142091 -0.039246 0.004120
0.089690 -0.061576 0.011376
0.130084 -0.072094 0.000000
0.138801 -0.043538 0.070588
0.159622 0.006605 0.101961
0.172289 -0.035920 0.123728
0.172289 -0.035920 0.123728
0.002671 0.045416 0.028706
0.031561 0.003301 0.024838
0.074905 -0.016197 0.020963
0.108786 -0.026486 0.064359
0.131016 -0.033924 0.047059
0.138801 -0.043538 0.070588
0.159622 0.006605 0.101961
0.172289 -0.035920 0.123728
0.172289 -0.035920 0.123728
0.004593 0.042566 0.023939
0.052679 0.041605 0.059611
0.067520 0.010298 0.066120
0.096303 -0.006429 0.082554
0.125926 -0.017201 0.101369
0.123400 0.020688 0.138432
0.133681 -0.035914 0.141272
0.126556 -0.038569 0.148728
0.126556 -0.038569 0.148728
0.043614 0.086186 0.085233
0.086275 0.062141 0.090882
0.086155 0.047085 0.109079
0.094909 0.016660 0.100361
0.120217 0.005962 0.119225
0.126682 -0.009744 0.137263
0.128414 -0.016629 0.151471
0.119497 -0.020396 0.184314
0.119497 -0.020396 0.184314
-0.006182 0.108077 0.120136
0.145265 0.097225 0.150824
0.083970 0.035246 0.120211
0.111900 0.045940 0.149261
0.116134 0.018595 0.134837
0.118865 0.007644 0.164253
0.107833 -0.011580 0.186825
0.137074 -0.014659 0.222207
0.137074 -0.014659 0.222207
0.031730 0.103321 0.148916
0.195073 0.094737 0.173142
0.133053 0.068076 0.156251
0.130135 0.050280 0.172740
0.128481 0.036585 0.188461
0.122226 0.018992 0.182275
0.121697 0.014718 0.192621
0.120762 0.016028 0.219608
0.120762 0.016028 0.219608
0.194383 0.077213 0.167064
0.179590 0.064902 0.181208
0.171886 0.060779 0.182697
0.149315 0.048056 0.184099
0.159384 0.046047 0.163878
0.145257 0.035111 0.239240
0.132938 0.019965 0.253763
0.136769 0.017842 0.249197
0.136769 0.017842 0.249197
0.216455 0.059440 0.189130
0.168589 0.058637 0.177263
0.163439 0.040307 0.196847
0.157414 0.032208 0.194689
0.147588 0.019798 0.227509
0.156644 0.032601 0.231138
0.144640 0.028778 0.221176
0.146030 0.022366 0.264041
0.136630 0.009349 0.257882
0.255193 0.052760 0.195181
0.163439 0.040307 0.196847
0.163439 0.040307 0.196847
0.161762 0.019641 0.211697
0.167465 0.037317 0.229435
0.162820 0.037341 0.261741
0.147462 0.015357 0.250110
0.126736 0.009167 0.250341
0.126736 0.009167 0.250341
-0.009582 -0.034289 0.093970
0.046353 -0.046777 0.051250
0.084928 -0.071076 0.054355
0.062016 -0.057049 0.069992
0.159576 -0.025684 0.092564
0.139410 -0.039902 0.108842
0.133078 -0.056213 0.102946
0.172289 -0.035920 0.123728
0.172289 -0.035920 0.123728
-0.013250 -0.005872 0.065442
-0.000482 -0.037691 0.048725
0.043133 -0.048829 0.064841
0.079462 -0.044574 0.088346
0.117739 -0.035923 0.097742
0.162644 -0.021767 0.125544
0.172289 -0.035920 0.123728
0.172289 -0.035920 0.123728
0.232537 0.004271 0.179610
-0.006285 0.021696 0.071257
0.014128 -0.007584 0.076357
0.037254 -0.030188 0.084513
0.072912 -0.047788 0.098038
0.109891 -0.051272 0.117570
0.124271 -0.054250 0.131896
0.180148 -0.039232 0.157737
0.232537 0.004271 0.179610
0.202417 -0.014234 0.203921
-0.002623 0.038505 0.090967
0.052502 0.026550 0.103457
0.053052 0.000719 0.112059
0.075475 -0.020923 0.126610
0.099744 -0.037138 0.137515
0.111139 -0.050699 0.152232
0.113474 -0.053905 0.166267
0.147334 -0.039016 0.184282
0.111717 -0.059059 0.190184
0.082784 0.079251 0.130771
0.110444 0.054776 0.130586
0.078494 0.024909 0.140887
0.085012 0.003455 0.151925
0.098898 -0.015581 0.162782
0.100399 -0.037483 0.177174
0.096440 -0.049544 0.188010
0.120383 -0.040461 0.205250
0.120383 -0.040461 0.205250
0.086338 0.089117 0.145833
0.197328 0.068969 0.144443
0.119919 0.036574 0.170752
0.106674 0.019380 0.179813
0.107227 -0.001007 0.192947
0.106553 -0.017839 0.203691
0.113182 -0.022139 0.223226
0.157292 -0.010143 0.243975
0.157292 -0.010143 0.243975
0.216455 0.059440 0.189130
0.178738 0.048980 0.181598
0.158207 0.044902 0.189992
0.159124 0.034306 0.202886
0.140511 0.019473 0.218246
0.127664 -0.001456 0.233353
0.118382 -0.017498 0.243149
0.133279 -0.014937 0.263604
0.133279 -0.014937 0.263604
0.255193 0.052760 0.195181
0.212026 0.036524 0.197646
0.172068 0.040447 0.196292
0.161762 0.019641 0.211697
0.145703 0.007298 0.228442
0.156810 0.037154 0.235452
0.143422 -0.005770 0.261013
0.137235 -0.023109 0.273701
0.106585 -0.009540 0.276142
0.238825 0.041906 0.205687
0.261493 0.031976 0.224438
0.175586 0.009091 0.240773
0.161762 0.019641 0.211697
0.153367 0.028857 0.267770
0.156810 0.037154 0.235452
0.143422 -0.005770 0.261013
0.126362 -0.020350 0.265312
0.106585 -0.009540 0.276142
-0.014574 -0.047234 0.112819
-0.005318 -0.083355 0.062104
0.024148 -0.081618 0.087235
0.052315 -0.053405 0.075038
0.091641 -0.075170 0.109631
0.091641 -0.075170 0.109631
0.172289 -0.035920 0.123728
0.172289 -0.035920 0.123728
0.232537 0.004271 0.179610
-0.031499 -0.049132 0.096164
-0.019490 -0.064857 0.086635
0.024148 -0.081618 0.087235
0.071189 -0.070855 0.098467
0.069506 -0.091859 0.116123
0.106585 -0.068834 0.141568
0.215076 -0.022640 0.159053
0.232537 0.004271 0.179610
0.232537 0.004271 0.179610
-0.030660 -0.027259 0.105926
-0.027971 -0.053507 0.099717
0.004850 -0.076329 0.103678
0.031355 -0.085695 0.108384
0.083573 -0.091702 0.136334
0.104595 -0.077176 0.155451
0.098325 -0.092956 0.164638
0.203056 -0.016576 0.196068
0.203056 -0.016576 0.196068
-0.035868 0.000253 0.121736
-0.002802 -0.015545 0.125574
0.021083 -0.039323 0.133117
0.045746 -0.058184 0.145135
0.078359 -0.067990 0.157937
0.096681 -0.086331 0.171283
0.104964 -0.082003 0.190424
0.195836 -0.019432 0.208513
0.144347 -0.046838 0.220143
-0.037955 0.032054 0.139968
0.059853 0.016765 0.154218
0.045607 -0.010971 0.160025
0.057087 -0.040402 0.168464
0.074715 -0.056956 0.177433
0.080482 -0.075336 0.186688
0.086632 -0.079183 0.205499
0.146635 -0.051126 0.228199
0.146635 -0.051126 0.228199
0.112550 0.054793 0.178264
0.144786 0.031348 0.179972
0.083232 0.004825 0.184415
0.081392 -0.011762 0.192831
0.084424 -0.036079 0.203392
0.095913 -0.046034 0.224202
0.099142 -0.060104 0.236634
0.132906 -0.045800 0.257612
0.132906 -0.045800 0.257612
0.255193 0.052760 0.195181
0.224163 0.041372 0.195628
0.160558 0.021034 0.219585
0.130600 0.007517 0.216317
0.117492 -0.009204 0.236662
0.109607 -0.032831 0.247074
0.113782 -0.041133 0.266413
0.126690 -0.044139 0.279179
0.126690 -0.044139 0.279179
0.238825 0.041906 0.205687
0.261493 0.031976 0.224438
0.175586 0.009091 0.240773
0.145866 -0.002797 0.249434
0.138402 -0.007907 0.246533
0.143740 0.000561 0.268092
0.131983 0.004948 0.277937
0.124824 -0.044767 0.298668
0.076546 0.031491 0.291389
0.238825 0.041906 0.205687
0.261493 0.031976 0.224438
0.175586 0.009091 0.240773
0.132787 -0.012367 0.254181
0.152097 -0.015917 0.266673
0.143740 0.000561 0.268092
0.106463 -0.024798 0.278169
0.081660 -0.044864 0.291922
0.076546 0.031491 0.291389
-0.026337 -0.072125 0.102212
-0.026337 -0.072125 0.102212
0.024148 -0.081618 0.087235
0.021467 -0.095812 0.094620
0.069506 -0.091859 0.116123
0.091641 -0.075170 0.109631
0.104595 -0.077176 0.155451
0.232537 0.004271 0.179610
0.232537 0.004271 0.179610
-0.028740 -0.069994 0.107463
-0.070175 -0.077673 0.113610
-0.024488 -0.096436 0.119762
0.021467 -0.095812 0.094620
0.070212 -0.103261 0.148325
0.070212 -0.103261 0.148325
0.098325 -0.092956 0.164638
0.232537 0.004271 0.179610
0.203056 -0.016576 0.196068
-0.036907 -0.070791 0.121558
-0.066737 -0.087417 0.118374
-0.031375 -0.110967 0.119995
0.028428 -0.096338 0.122469
0.070212 -0.103261 0.148325
0.080789 -0.108739 0.165879
0.100577 -0.110742 0.179427
0.203056 -0.016576 0.196068
0.203056 -0.016576 0.196068
-0.044706 -0.038987 0.143035
-0.074762 -0.057064 0.139647
-0.021232 -0.084094 0.135716
0.018145 -0.098707 0.157136
0.056512 -0.111659 0.166018
0.090002 -0.123491 0.181044
0.096947 -0.105163 0.187907
0.077578 -0.108449 0.191117
0.074854 -0.109461 0.205140
-0.032843 -0.005171 0.169912
-0.015706 -0.023800 0.179438
-0.004177 -0.053483 0.172854
0.027650 -0.070998 0.182485
0.048539 -0.094049 0.182820
0.023038 -0.145907 0.156404
0.077104 -0.118185 0.210065
0.102990 -0.107334 0.223066
0.102990 -0.107334 0.223066
-0.041221 0.007460 0.189665
0.061146 0.000976 0.199759
0.041562 -0.031833 0.193546
0.043797 -0.051804 0.203770
0.061246 -0.067851 0.218164
0.071105 -0.090437 0.224172
0.087361 -0.091829 0.246677
0.123025 -0.079115 0.269060
0.118581 -0.106617 0.269907
0.232460 0.026165 0.213304
0.214049 0.021240 0.242096
0.123780 0.002465 0.240710
0.090660 -0.022461 0.243385
0.085895 -0.043495 0.252881
0.091502 -0.063651 0.265237
0.096892 -0.071657 0.280716
0.125533 -0.075604 0.295677
0.121898 -0.091482 0.277495
0.244439 0.028090 0.236332
0.258839 0.016128 0.234593
0.165538 0.000426 0.254670
0.151611 -0.018001 0.268828
0.124973 -0.006463 0.282394
0.131734 0.012040 0.300092
0.115801 -0.012278 0.309189
0.110894 -0.076278 0.314519
0.062176 -0.055512 0.300625
0.244439 0.028090 0.236332
0.258839 0.016128 0.234593
0.178653 -0.004908 0.269871
0.151611 -0.018001 0.268828
0.124973 -0.006463 0.282394
0.131734 0.012040 0.300092
0.112799 -0.007936 0.308212
0.073841 -0.055110 0.304059
0.045348 0.038539 0.309257
-0.028740 -0.069994 0.107463
-0.028740 -0.069994 0.107463
-0.024488 -0.096436 0.119762
-0.023294 -0.112578 0.120375
0.028428 -0.096338 0.122469
0.070212 -0.103261 0.148325
0.080789 -0.108739 0.165879
0.232537 0.004271 0.179610
0.232537 0.004271 0.179610
-0.033332 -0.078371 0.102377
-0.069318 -0.082213 0.122079
-0.023294 -0.112578 0.120375
-0.019904 -0.121497 0.123353
0.028428 -0.096338 0.122469
0.070212 -0.103261 0.148325
0.071337 -0.114557 0.182057
0.100577 -0.110742 0.179427
0.203056 -0.016576 0.196068
-0.042762 -0.073429 0.116830
-0.090217 -0.100395 0.129177
-0.020142 -0.124059 0.135507
-0.028560 -0.125462 0.142242
-0.015700 -0.147239 0.158688
0.090002 -0.123491 0.181044
0.071337 -0.114557 0.182057
0.060096 -0.119975 0.181836
0.074740 -0.128682 0.216330
-0.063961 -0.084087 0.142981
-0.113523 -0.094522 0.138945
-0.063028 -0.114588 0.152984
-0.013179 -0.141614 0.155318
-0.015700 -0.147239 0.158688
0.053060 -0.131767 0.193585
0.060096 -0.119975 0.181836
0.074740 -0.128682 0.216330
0.074740 -0.128682 0.216330
-0.061605 -0.053116 0.168993
-0.115512 -0.076285 0.158257
-0.049312 -0.099499 0.175964
-0.013660 -0.110575 0.170527
0.019304 -0.128635 0.182783
0.036395 -0.132536 0.191937
0.063327 -0.133209 0.224566
0.074740 -0.128682 0.216330
0.074740 -0.128682 0.216330
-0.069409 -0.032268 0.188120
-0.053205 -0.045091 0.189894
-0.028459 -0.071390 0.191290
-0.000905 -0.092011 0.199149
0.028304 -0.107327 0.210141
0.044476 -0.116161 0.222432
0.064397 -0.138983 0.251108
0.110540 -0.121851 0.254880
0.122478 -0.118156 0.264231
-0.067448 -0.018675 0.212221
0.065954 -0.012825 0.232349
0.058773 -0.035107 0.234316
0.038256 -0.072127 0.235501
0.054784 -0.079683 0.252068
0.067758 -0.092487 0.263713
0.080360 -0.107754 0.278857
0.133946 -0.090392 0.305938
0.133946 -0.090392 0.305938
0.146443 0.017738 0.257816
0.119446 0.013784 0.274955
0.096888 -0.019411 0.274302
0.091623 -0.035167 0.280556
0.124840 0.044222 0.306477
0.098049 -0.047329 0.305707
0.086845 -0.097370 0.302387
0.091693 -0.118932 0.303030
0.062473 -0.153878 0.290914
-0.043051 -0.074409 0.219843
0.122661 -0.008521 0.273984
0.096888 -0.019411 0.274302
0.091623 -0.035167 0.280556
0.124840 0.044222 0.306477
0.098049 -0.047329 0.305707
0.064519 -0.072903 0.303351
0.041273 -0.061220 0.301760
0.032367 -0.007042 0.309275
-0.033332 -0.078371 0.102377
-0.033332 -0.078371 0.102377
-0.023294 -0.112578 0.120375
-0.019904 -0.121497 0.123353
-0.028560 -0.125462 0.142242
0.070212 -0.103261 0.148325
0.071337 -0.114557 0.182057
0.071337 -0.114557 0.182057
0.060096 -0.119975 0.181836
-0.090217 -0.100395 0.129177
-0.090217 -0.100395 0.129177
-0.020142 -0.124059 0.135507
-0.028560 -0.125462 0.142242
-0.015700 -0.147239 0.158688
-0.015700 -0.147239 0.158688
0.071337 -0.114557 0.182057
0.060096 -0.119975 0.181836
0.074740 -0.128682 0.216330
-0.075027 -0.096066 0.136631
-0.090217 -0.100395 0.129177
-0.028560 -0.125462 0.142242
-0.007097 -0.126056 0.148399
-0.015700 -0.147239 0.158688
-0.007342 -0.155412 0.159597
0.060096 -0.119975 0.181836
0.060096 -0.119975 0.181836
0.074740 -0.128682 0.216330
-0.065968 -0.102547 0.132843
-0.090304 -0.108746 0.127314
-0.084705 -0.099229 0.167089
-0.011457 -0.145450 0.170743
-0.007342 -0.155412 0.159597
-0.001763 -0.159039 0.164539
0.063327 -0.133209 0.224566
0.074740 -0.128682 0.216330
0.074740 -0.128682 0.216330
-0.067975 -0.083380 0.160110
-0.121211 -0.098380 0.156669
-0.154724 -0.120298 0.152539
-0.044281 -0.135911 0.157937
-0.028670 -0.179856 0.155870
-0.009036 -0.173950 0.199234
0.063327 -0.133209 0.224566
0.110540 -0.121851 0.254880
0.110540 -0.121851 0.254880
-0.076939 -0.081392 0.168878
-0.078697 -0.087287 0.162515
-0.133229 -0.137553 0.173479
-0.072526 -0.136179 0.168962
-0.049029 -0.146005 0.195082
0.001760 -0.156728 0.274756
0.128343 -0.082439 0.305928
0.131262 -0.109562 0.279476
0.131262 -0.109562 0.279476
-0.074006 -0.047876 0.198494
-0.093419 -0.057698 0.210868
-0.111401 -0.081544 0.229099
-0.034172 -0.095377 0.228795
-0.005504 -0.117324 0.242471
0.024548 -0.150249 0.254317
0.045827 -0.161833 0.262957
0.135468 -0.111862 0.298158
0.135468 -0.111862 0.298158
-0.043051 -0.074409 0.219843
-0.009237 -0.051169 0.245622
0.015275 -0.024164 0.276252
0.026270 -0.030539 0.287021
0.027507 -0.077506 0.303723
0.057989 -0.079153 0.313749
0.054438 -0.140163 0.303149
0.064796 -0.159004 0.297904
0.075330 -0.166085 0.342994
-0.043051 -0.074409 0.219843
-0.009237 -0.051169 0.245622
0.015275 -0.024164 0.276252
0.026270 -0.030539 0.287021
0.027507 -0.077506 0.303723
0.066316 0.046335 0.340738
0.049631 -0.021034 0.309638
0.030704 -0.037491 0.297735
0.004868 -0.055971 0.288571
-0.090217 -0.100395 0.129177
-0.090217 -0.100395 0.129177
-0.020142 -0.124059 0.135507
-0.028560 -0.125462 0.142242
-0.007097 -0.126056 0.148399
-0.015700 -0.147239 0.158688
0.071337 -0.114557 0.182057
0.060096 -0.119975 0.181836
0.060096 -0.119975 0.181836
-0.075027 -0.096066 0.136631
-0.090217 -0.100395 0.129177
-0.028560 -0.125462 0.142242
-0.007097 -0.126056 0.148399
-0.015700 -0.147239 0.158688
-0.007342 -0.155412 0.159597
-0.001763 -0.159039 0.164539
0.060096 -0.119975 0.181836
0.074740 -0.128682 0.216330
-0.065968 -0.102547 0.132843
-0.090304 -0.108746 0.127314
-0.090304 -0.108746 0.127314
-0.011457 -0.145450 0.170743
-0.007342 -0.155412 0.159597
-0.001763 -0.159039 0.164539
-0.001763 -0.159039 0.164539
0.074740 -0.128682 0.216330
0.074740 -0.128682 0.216330
-0.065968 -0.102547 0.132843
-0.065968 -0.102547 0.132843
-0.191976 -0.123287 0.139425
-0.011457 -0.145450 0.170743
-0.028670 -0.179856 0.155870
-0.028670 -0.179856 0.155870
-0.009036 -0.173950 0.199234
0.074740 -0.128682 0.216330
0.074740 -0.128682 0.216330
-0.072683 -0.089064 0.161446
-0.086023 -0.116415 0.150789
-0.147094 -0.140543 0.143334
-0.031973 -0.172316 0.157187
-0.028670 -0.179856 0.155870
-0.009036 -0.173950 0.199234
0.001760 -0.156728 0.274756
0.128343 -0.082439 0.305928
0.131262 -0.109562 0.279476
-0.075512 -0.093435 0.152236
-0.099246 -0.103385 0.192970
-0.178947 -0.130030 0.182183
-0.140867 -0.134987 0.201070
-0.049029 -0.146005 0.195082
0.001760 -0.156728 0.274756
0.026550 -0.163754 0.234159
0.083614 -0.149042 0.269244
0.135468 -0.111862 0.298158
-0.087773 -0.059369 0.213970
-0.112732 -0.050588 0.227397
-0.110443 -0.071633 0.233594
-0.075480 -0.093464 0.256953
-0.022398 -0.115177 0.242042
0.024548 -0.150249 0.254317
0.045827 -0.161833 0.262957
0.123877 -0.119596 0.316238
0.075330 -0.166085 0.342994
-0.095864 -0.030582 0.273878
-0.033645 0.019658 0.290860
-0.006748 -0.011556 0.297176
0.014518 -0.010598 0.306540
0.067220 0.105143 0.349409
0.084166 0.093701 0.352928
0.042328 -0.146947 0.311311
0.026128 -0.043254 0.295240
0.035802 -0.190929 0.315173
-0.095864 -0.030582 0.273878
-0.033645 0.019658 0.290860
-0.006748 -0.011556 0.297176
0.014518 -0.010598 0.306540
0.067220 0.105143 0.349409
0.066316 0.046335 0.340738
0.051551 0.057801 0.325705
0.022492 -0.002358 0.300964
-0.006379 -0.004155 0.285693
-0.075027 -0.096066 0.136631
-0.090217 -0.100395 0.129177
-0.090217 -0.100395 0.129177
-0.007097 -0.126056 0.148399
-0.007097 -0.126056 0.148399
-0.007342 -0.155412 0.159597
-0.001763 -0.159039 0.164539
0.060096 -0.119975 0.181836
0.074740 -0.128682 0.216330
-0.065968 -0.102547 0.132843
-0.090304 -0.108746 0.127314
-0.090304 -0.108746 0.127314
-0.007097 -0.126056 0.148399
-0.007342 -0.155412 0.159597
-0.001763 -0.159039 0.164539
-0.001763 -0.159039 0.164539
0.060096 -0.119975 0.181836
0.074740 -0.128682 0.216330
-0.065968 -0.102547 0.132843
-0.065968 -0.102547 0.132843
-0.090304 -0.108746 0.127314
-0.011457 -0.145450 0.170743
-0.028670 -0.179856 0.155870
-0.028670 -0.179856 0.155870
-0.028670 -0.179856 0.155870
0.074740 -0.128682 0.216330
0.074740 -0.128682 0.216330
-0.065968 -0.102547 0.132843
-0.086023 -0.116415 0.150789
-0.153755 -0.126771 0.147235
-0.031973 -0.172316 0.157187
-0.028670 -0.179856 0.155870
-0.028670 -0.179856 0.155870
-0.009036 -0.173950 0.199234
0.001760 -0.156728 0.274756
0.110540 -0.121851 0.254880
-0.075275 -0.091141 0.156726
-0.086023 -0.116415 0.150789
-0.153755 -0.126771 0.147235
-0.031973 -0.172316 0.157187
-0.028670 -0.179856 0.155870
-0.009036 -0.173950 0.199234
0.001760 -0.156728 0.274756
0.083614 -0.149042 0.269244
0.135468 -0.111862 0.298158
-0.075512 -0.093435 0.152236
-0.099246 -0.103385 0.192970
-0.178947 -0.130030 0.182183
-0.140867 -0.134987 0.201070
-0.049029 -0.146005 0.195082
0.001760 -0.156728 0.274756
0.026550 -0.163754 0.234159
0.083614 -0.149042 0.269244
0.135468 -0.111862 0.298158
-0.087773 -0.059369 0.213970
-0.112732 -0.050588 0.227397
-0.110443 -0.071633 0.233594
-0.075480 -0.093464 0.256953
-0.022398 -0.115177 0.242042
0.024548 -0.150249 0.254317
0.045827 -0.161833 0.262957
0.032969 -0.174431 0.283625
0.075330 -0.166085 0.342994
-0.095864 -0.030582 0.273878
-0.033645 0.019658 0.290860
0.058969 0.055674 0.302135
0.014518 -0.010598 0.306540
0.067220 0.105143 0.349409
0.084166 0.093701 0.352928
0.051551 0.057801 0.325705
0.002986 0.014483 0.295078
0.002986 0.014483 0.295078
-0.095864 -0.030582 0.273878
-0.033645 0.019658 0.290860
0.058969 0.055674 0.302135
0.014518 -0.010598 0.306540
0.067220 0.105143 0.349409
0.066316 0.046335 0.340738
0.051551 0.057801 0.325705
-0.001818 -0.001979 0.291308
-0.006379 -0.004155 0.285693
-0.065968 -0.102547 0.132843
-0.090304 -0.108746 0.127314
-0.090304 -0.108746 0.127314
-0.007097 -0.126056 0.148399
-0.007342 -0.155412 0.159597
-0.001763 -0.159039 0.164539
-0.001763 -0.159039 0.164539
-0.001763 -0.159039 0.164539
0.074740 -0.128682 0.216330
-0.065968 -0.102547 0.132843
-0.065968 -0.102547 0.132843
-0.090304 -0.108746 0.127314
-0.011457 -0.145450 0.170743
-0.028670 -0.179856 0.155870
-0.028670 -0.179856 0.155870
-0.028670 -0.179856 0.155870
-0.028670 -0.179856 0.155870
0.074740 -0.128682 0.216330
-0.065968 -0.102547 0.132843
-0.065968 -0.102547 0.132843
-0.065968 -0.102547 0.132843
-0.031973 -0.172316 0.157187
-0.028670 -0.179856 0.155870
-0.028670 -0.179856 0.155870
-0.028670 -0.179856 0.155870
-0.009036 -0.173950 0.199234
0.074740 -0.128682 0.216330
-0.071996 -0.101139 0.154960
-0.086023 -0.116415 0.150789
-0.153755 -0.126771 0.147235
-0.031973 -0.172316 0.157187
-0.028670 -0.179856 0.155870
-0.028670 -0.179856 0.155870
-0.009036 -0.173950 0.199234
0.001760 -0.156728 0.274756
0.083614 -0.149042 0.269244
-0.075275 -0.091141 0.156726
-0.086023 -0.116415 0.150789
-0.153755 -0.126771 0.147235
-0.122127 -0.147159 0.165782
-0.028670 -0.179856 0.155870
-0.009036 -0.173950 0.199234
0.001760 -0.156728 0.274756
0.083614 -0.149042 0.269244
0.135468 -0.111862 0.298158
-0.075512 -0.093435 0.152236
-0.099246 -0.103385 0.192970
-0.178947 -0.130030 0.182183
-0.140867 -0.134987 0.201070
-0.022398 -0.115177 0.242042
0.001760 -0.156728 0.274756
0.026550 -0.163754 0.234159
0.087680 -0.121550 0.317679
0.075330 -0.166085 0.342994
-0.095864 -0.030582 0.273878
-0.033645 0.019658 0.290860
-0.110443 -0.071633 0.233594
-0.075480 -0.093464 0.256953
-0.022398 -0.115177 0.242042
0.084166 0.093701 0.352928
0.042328 -0.146947 0.311311
0.002986 0.014483 0.295078
0.002986 0.014483 0.295078
-0.095864 -0.030582 0.273878
-0.033645 0.019658 0.290860
0.058969 0.055674 0.302135
0.014518 -0.010598 0.306540
0.067220 0.105143 0.349409
0.084166 0.093701 0.352928
0.051551 0.057801 0.325705
0.002986 0.014483 0.295078
0.002986 0.014483 0.295078
-0.095864 -0.030582 0.273878
-0.033645 0.019658 0.290860
0.058969 0.055674 0.302135
0.014518 -0.010598 0.306540
0.067220 0.105143 0.349409
0.051551 0.057801 0.325705
0.051551 0.057801 0.325705
-0.001818 -0.001979 0.291308
-0.006379 -0.004155 0.285693
