outputs/second_method/residual_lut_65.cube
TITLE "Residual LUT 65^3"
LUT_3D_SIZE 5
DOMAIN_MIN 0.0 0.0 0.0
DOMAIN_MAX 1.0 1.0 1.0
-0.000006 -0.000512 0.000959
0.135534 -0.038568 0.000000
0.087445 -0.086273 0.007843
0.159622 0.006605 0.101961
0.172289 -0.035920 0.123728
0.000171 0.061042 0.053642
0.069211 0.012462 0.062590
0.127525 -0.017440 0.101312
0.149008 -0.011210 0.165233
0.131492 -0.032381 0.156807
-0.001127 0.115245 0.156549
0.091398 0.044742 0.130026
0.116053 0.019602 0.112838
0.110270 -0.009350 0.180070
0.104458 -0.013410 0.188235
0.134701 0.107421 0.159729
0.169312 0.061366 0.180766
0.161265 0.046701 0.170588
0.133422 0.019624 0.260715
0.136794 0.018434 0.253548
0.276458 0.040131 0.195592
0.167844 0.041924 0.205228
0.156644 0.032601 0.231138
0.152715 0.024218 0.255109
0.131137 0.059915 0.284632
-0.018946 -0.032207 0.149842
0.024148 -0.081618 0.087235
0.115893 -0.061175 0.108086
0.172289 -0.035920 0.123728
0.215076 -0.022640 0.159053
-0.031060 -0.025677 0.103775
0.006701 -0.071865 0.109072
0.086598 -0.088417 0.136613
0.135316 -0.043451 0.164155
0.151413 -0.057241 0.193576
-0.028633 0.031551 0.148871
0.046716 -0.010516 0.160092
0.075659 -0.058770 0.177295
0.084079 -0.079177 0.207801
0.154963 -0.046992 0.232065
0.233285 0.053394 0.194221
0.155777 0.019980 0.213017
0.112892 -0.012264 0.226758
0.108452 -0.041730 0.263287
0.140536 -0.042353 0.284205
0.284411 0.047886 0.209639
0.180931 0.005731 0.238624
0.157324 -0.010890 0.270768
0.128732 -0.012696 0.279864
0.080388 0.023041 0.288268
-0.026704 -0.076798 0.096891
-0.022185 -0.101730 0.114019
0.028428 -0.096338 0.122469
0.067200 -0.100519 0.159754
0.151413 -0.057241 0.193576
-0.045224 -0.075122 0.119052
-0.023975 -0.116948 0.127908
-0.007705 -0.148548 0.156115
0.071337 -0.114557 0.182057
0.075977 -0.106045 0.214476
-0.061392 -0.057624 0.165508
-0.042948 -0.087404 0.192623
0.032056 -0.125055 0.185632
0.072795 -0.122766 0.220559
0.072508 -0.117742 0.225711
-0.061010 -0.018782 0.217267
0.057347 -0.033448 0.234472
0.054038 -0.080359 0.250978
0.080443 -0.107437 0.277174
0.119065 -0.097959 0.315646
0.136307 0.000990 0.291769
0.083218 -0.005444 0.281275
0.121892 0.026182 0.306701
0.069921 -0.074628 0.301499
0.031884 0.003703 0.310251
-0.034720 -0.070485 0.125994
-0.023956 -0.121927 0.130781
-0.005051 -0.125079 0.141848
-0.007845 -0.141595 0.166613
0.060096 -0.119975 0.181836
-0.067669 -0.102251 0.128143
-0.103234 -0.116148 0.125646
-0.007845 -0.141595 0.166613
-0.022609 -0.179014 0.147457
0.061089 -0.129780 0.218888
-0.069428 -0.089545 0.153795
-0.179933 -0.133916 0.150599
-0.020992 -0.170849 0.166441
-0.002887 -0.166215 0.249886
0.111453 -0.111320 0.265527
-0.085458 -0.081986 0.183167
-0.082530 -0.069603 0.244460
-0.014654 -0.126378 0.231033
0.045827 -0.161833 0.262957
0.070299 -0.172047 0.335577
-0.087711 -0.038042 0.255642
0.063300 0.099415 0.334508
0.030321 -0.037042 0.319701
0.044456 -0.006138 0.311752
-0.005811 -0.002457 0.285530
-0.067669 -0.102251 0.128143
-0.103234 -0.116148 0.125646
-0.007845 -0.141595 0.166613
-0.022609 -0.179014 0.147457
0.068450 -0.130869 0.199013
-0.061721 -0.098897 0.147244
-0.084387 -0.119593 0.133915
-0.020992 -0.170849 0.166441
-0.020936 -0.174044 0.185792
0.061089 -0.129780 0.218888
-0.078003 -0.095908 0.148415
-0.162083 -0.142149 0.146576
-0.020992 -0.170849 0.166441
-0.002887 -0.166215 0.249886
0.137891 -0.110211 0.303855
-0.085458 -0.081986 0.183167
-0.082530 -0.069603 0.244460
-0.040941 -0.109206 0.237761
0.049915 0.055195 0.329294
0.053103 -0.192170 0.335384
-0.087711 -0.038042 0.255642
0.063300 0.099415 0.334508
0.048930 0.112720 0.348764
0.038345 0.034673 0.313312
-0.005811 -0.002457 0.285530
