outputs/second_method/residual_lut_33.cube
TITLE "Residual LUT 33^3"
LUT_3D_SIZE 33
DOMAIN_MIN 0.0 0.0 0.0
DOMAIN_MAX 1.0 1.0 1.0
0.000552 -0.000727 0.002206
0.007240 -0.002946 0.003224
0.035998 -0.011066 0.004355
0.035998 -0.011066 0.004355
0.085021 -0.022347 0.002833
0.095495 -0.023132 0.008878
0.113240 -0.027527 0.007548
0.133964 -0.035862 0.002528
0.142091 -0.039246 0.004120
0.144653 -0.043036 0.001705
0.144653 -0.043036 0.001705
0.115486 -0.048318 0.023105
0.089690 -0.061576 0.011376
0.100011 -0.070466 0.016349
0.130084 -0.072094 0.000000
0.130084 -0.072094 0.000000
0.130084 -0.072094 0.000000
0.161334 -0.026888 0.050980
0.161334 -0.026888 0.050980
0.161334 -0.026888 0.050980
0.138801 -0.043538 0.070588
0.159622 0.006605 0.101961
0.159622 0.006605 0.101961
0.159622 0.006605 0.101961
0.159622 0.006605 0.101961
0.159622 0.006605 0.101961
0.159622 0.006605 0.101961
0.159622 0.006605 0.101961
0.172289 -0.035920 0.123728
0.172289 -0.035920 0.123728
0.172289 -0.035920 0.123728
0.172289 -0.035920 0.123728
0.172289 -0.035920 0.123728
0.001705 -0.000216 0.005978
0.005023 -0.001286 0.007614
0.020278 -0.007069 0.010578
0.038159 -0.010352 0.013368
0.085021 -0.022347 0.002833
0.095495 -0.023132 0.008878
0.113240 -0.027527 0.007548
0.133964 -0.035862 0.002528
0.142091 -0.039246 0.004120
0.144653 -0.043036 0.001705
0.144653 -0.043036 0.001705
0.115486 -0.048318 0.023105
0.089690 -0.061576 0.011376
0.100011 -0.070466 0.016349
0.130084 -0.072094 0.000000
0.130084 -0.072094 0.000000
0.130084 -0.072094 0.000000
0.161334 -0.026888 0.050980
0.161334 -0.026888 0.050980
0.161334 -0.026888 0.050980
0.138801 -0.043538 0.070588
0.159622 0.006605 0.101961
0.159622 0.006605 0.101961
0.159622 0.006605 0.101961
0.159622 0.006605 0.101961
0.159622 0.006605 0.101961
0.159622 0.006605 0.101961
0.172289 -0.035920 0.123728
0.172289 -0.035920 0.123728
0.172289 -0.035920 0.123728
0.172289 -0.035920 0.123728
0.172289 -0.035920 0.123728
0.172289 -0.035920 0.123728
0.001540 0.019212 0.008167
0.009791 0.009864 0.010768
0.021326 0.002532 0.012358
0.037673 -0.001504 0.017993
0.052929 -0.007115 0.020951
0.074833 -0.012790 0.025170
0.094594 -0.016709 0.025115
0.103646 -0.018731 0.027294
0.129130 -0.025913 0.019526
0.130093 -0.031162 0.028440
0.116172 -0.035924 0.031566
0.115486 -0.048318 0.023105
0.089690 -0.061576 0.011376
0.100011 -0.070466 0.016349
0.130084 -0.072094 0.000000
0.130084 -0.072094 0.000000
0.112719 -0.061972 0.038259
0.161334 -0.026888 0.050980
0.161334 -0.026888 0.050980
0.138801 -0.043538 0.070588
0.138801 -0.043538 0.070588
0.159622 0.006605 0.101961
0.159622 0.006605 0.101961
0.159622 0.006605 0.101961
0.159622 0.006605 0.101961
0.159622 0.006605 0.101961
0.159622 0.006605 0.101961
0.172289 -0.035920 0.123728
0.172289 -0.035920 0.123728
0.172289 -0.035920 0.123728
0.172289 -0.035920 0.123728
0.172289 -0.035920 0.123728
0.172289 -0.035920 0.123728
0.000768 0.034453 0.015563
0.018355 0.022653 0.017278
0.023213 0.015502 0.019158
0.034826 0.009666 0.019756
0.046476 0.002855 0.023571
0.055997 -0.003413 0.029254
0.071597 -0.008752 0.034397
0.086402 -0.016717 0.030540
0.082465 -0.022249 0.026903
0.090074 -0.024445 0.030621
0.097378 -0.026583 0.043297
0.110202 -0.030111 0.049970
0.121357 -0.037597 0.045805
0.118569 -0.039534 0.043648
0.127634 -0.042024 0.059420
0.112719 -0.061972 0.038259
0.112719 -0.061972 0.038259
0.161334 -0.026888 0.050980
0.161334 -0.026888 0.050980
0.138801 -0.043538 0.070588
0.138801 -0.043538 0.070588
0.159622 0.006605 0.101961
0.159622 0.006605 0.101961
0.159622 0.006605 0.101961
0.159622 0.006605 0.101961
0.159622 0.006605 0.101961
0.136848 -0.057534 0.113200
0.172289 -0.035920 0.123728
0.172289 -0.035920 0.123728
0.172289 -0.035920 0.123728
0.172289 -0.035920 0.123728
0.172289 -0.035920 0.123728
0.172289 -0.035920 0.123728
0.002671 0.045416 0.028706
0.026271 0.038541 0.024414
0.025295 0.022064 0.027961
0.029104 0.011139 0.026613
0.031561 0.003301 0.024838
0.036497 -0.005072 0.026618
0.043361 -0.012266 0.029681
0.055145 -0.014677 0.035847
0.074905 -0.016197 0.020963
0.082993 -0.019234 0.034724
0.090749 -0.020267 0.048503
0.098087 -0.025317 0.058112
0.108786 -0.026486 0.064359
0.120774 -0.027837 0.070204
0.133293 -0.028016 0.070245
0.144534 -0.027194 0.079261
0.131016 -0.033924 0.047059
0.150947 -0.030532 0.069047
0.143013 -0.036003 0.057255
0.138801 -0.043538 0.070588
0.138801 -0.043538 0.070588
0.159622 0.006605 0.101961
0.159622 0.006605 0.101961
0.159622 0.006605 0.101961
0.159622 0.006605 0.101961
0.136848 -0.057534 0.113200
0.136848 -0.057534 0.113200
0.172289 -0.035920 0.123728
0.172289 -0.035920 0.123728
0.172289 -0.035920 0.123728
0.172289 -0.035920 0.123728
0.172289 -0.035920 0.123728
0.172289 -0.035920 0.123728
0.023112 0.036720 0.029155
0.032160 0.034367 0.022280
0.026891 0.017720 0.031248
0.023083 0.010511 0.032067
0.024061 -0.001815 0.032876
0.031028 -0.003922 0.029697
0.042588 -0.007778 0.026854
0.057794 -0.006138 0.026750
0.065247 -0.011630 0.033933
0.072670 -0.015646 0.046909
0.080258 -0.018968 0.056479
0.099355 -0.018077 0.055137
0.117567 -0.018299 0.063649
0.127835 -0.019476 0.075740
0.135852 -0.022296 0.083752
0.133248 -0.026789 0.084464
0.142726 -0.028199 0.093765
0.129325 -0.039136 0.067678
0.142435 -0.031064 0.087763
0.136715 -0.033427 0.094219
0.136715 -0.033427 0.094219
0.159622 0.006605 0.101961
0.159622 0.006605 0.101961
0.159622 0.006605 0.101961
0.136848 -0.057534 0.113200
0.136848 -0.057534 0.113200
0.136848 -0.057534 0.113200
0.172289 -0.035920 0.123728
0.172289 -0.035920 0.123728
0.172289 -0.035920 0.123728
0.172289 -0.035920 0.123728
0.172289 -0.035920 0.123728
0.172289 -0.035920 0.123728
0.007457 0.035741 0.027386
0.027060 0.036522 0.031795
0.037558 0.032832 0.040647
0.033987 0.026908 0.040713
0.033687 0.016974 0.040757
0.038372 0.008071 0.039861
0.048106 0.002871 0.036692
0.055173 -0.001860 0.042539
0.063893 -0.006403 0.051127
0.080149 -0.005663 0.060119
0.092123 -0.008021 0.058441
0.099421 -0.013007 0.063631
0.103511 -0.016315 0.057515
0.112550 -0.018725 0.060586
0.120712 -0.021666 0.080682
0.128487 -0.022911 0.085025
0.132782 -0.017433 0.097305
0.114116 -0.031163 0.089473
0.121692 0.001299 0.092680
0.120299 -0.029108 0.098511
0.130439 -0.027075 0.099013
0.130439 -0.027075 0.099013
0.129530 -0.028066 0.110825
0.139955 -0.024426 0.124568
0.136848 -0.057534 0.113200
0.136848 -0.057534 0.113200
0.136848 -0.057534 0.113200
0.172289 -0.035920 0.123728
0.172289 -0.035920 0.123728
0.172289 -0.035920 0.123728
0.142093 -0.049338 0.157798
0.142093 -0.049338 0.157798
0.142093 -0.049338 0.157798
0.004593 0.042566 0.023939
0.020377 0.044229 0.037189
0.043548 0.038342 0.039519
0.041469 0.034466 0.050636
0.040532 0.025499 0.055669
0.047107 0.020311 0.055971
0.054654 0.015679 0.056741
0.062477 0.011734 0.055290
0.069201 0.006711 0.060955
0.074871 -0.000277 0.068491
0.084627 -0.003747 0.068612
0.091833 -0.007812 0.068470
0.098749 -0.012721 0.067909
0.099566 -0.017425 0.066735
0.107656 -0.019426 0.070201
0.117488 -0.022116 0.087685
0.123324 -0.022571 0.097519
0.127846 -0.028317 0.101623
0.150766 0.017716 0.149353
0.125629 -0.026114 0.109512
0.133796 -0.027396 0.117219
0.133796 -0.027396 0.117219
0.139955 -0.024426 0.124568
0.139955 -0.024426 0.124568
0.139955 -0.024426 0.124568
0.136848 -0.057534 0.113200
0.151535 -0.037144 0.151096
0.151535 -0.037144 0.151096
0.142093 -0.049338 0.157798
0.142093 -0.049338 0.157798
0.142093 -0.049338 0.157798
0.142093 -0.049338 0.157798
0.142093 -0.049338 0.157798
0.004593 0.042566 0.023939
0.018179 0.055087 0.046435
0.053234 0.049358 0.047926
0.054189 0.049215 0.045678
0.052679 0.041605 0.059611
0.053915 0.031684 0.065797
0.056998 0.024710 0.062021
0.060188 0.015267 0.062652
0.067520 0.010298 0.066120
0.072742 0.006406 0.071334
0.081396 0.001732 0.077031
0.086749 -0.003401 0.079845
0.096303 -0.006429 0.082554
0.101427 -0.010710 0.077381
0.101951 -0.016494 0.076978
0.114406 -0.015360 0.082037
0.125926 -0.017201 0.101369
0.129898 -0.018001 0.102287
0.131393 -0.002781 0.112157
0.123400 0.020688 0.138432
0.123400 0.020688 0.138432
0.138142 -0.037517 0.126089
0.130804 -0.041366 0.128586
0.130804 -0.041366 0.128586
0.133681 -0.035914 0.141272
0.133681 -0.035914 0.141272
0.151535 -0.037144 0.151096
0.126556 -0.038569 0.148728
0.126556 -0.038569 0.148728
0.126556 -0.038569 0.148728
0.126556 -0.038569 0.148728
0.126556 -0.038569 0.148728
0.126556 -0.038569 0.148728
0.027864 0.071156 0.058183
0.027864 0.071156 0.058183
0.056965 0.045778 0.044376
0.060415 0.052198 0.055806
0.057948 0.044567 0.059206
0.057757 0.039294 0.069942
0.057614 0.027912 0.070993
0.061293 0.020595 0.068287
0.064352 0.011611 0.071477
0.072171 0.009477 0.080088
0.078832 0.006929 0.081234
0.087737 0.003887 0.089767
0.095016 -0.000806 0.091418
0.104581 -0.003001 0.095792
0.113585 -0.003572 0.090521
0.110721 -0.011799 0.088528
0.105064 -0.021733 0.096190
0.132647 -0.012583 0.109879
0.138665 -0.015588 0.122474
0.128200 -0.015669 0.119913
0.106439 0.002389 0.134818
0.152975 0.008490 0.156863
0.152975 0.008490 0.156863
0.133681 -0.035914 0.141272
0.133681 -0.035914 0.141272
0.122955 -0.039812 0.127155
0.122955 -0.039812 0.127155
0.126556 -0.038569 0.148728
0.126556 -0.038569 0.148728
0.126556 -0.038569 0.148728
0.126556 -0.038569 0.148728
0.126556 -0.038569 0.148728
0.126556 -0.038569 0.148728
0.005804 0.074972 0.073259
0.005804 0.074972 0.073259
0.082942 0.063471 0.047683
0.071769 0.056119 0.065501
0.062458 0.045587 0.062959
0.062121 0.042018 0.077326
0.063779 0.037592 0.087244
0.066498 0.030305 0.080297
0.067779 0.022603 0.079468
0.075082 0.015853 0.085826
0.084161 0.015891 0.094353
0.087506 0.010138 0.094570
0.095444 0.007772 0.099334
0.106284 0.006129 0.097980
0.113177 0.001969 0.103579
0.118316 -0.000415 0.105800
0.105476 -0.016890 0.105765
0.108029 -0.018961 0.106953
0.134063 -0.010444 0.122739
0.135650 -0.013739 0.130889
0.130907 -0.016812 0.133068
0.139988 -0.010531 0.135294
0.125004 -0.018690 0.141226
0.125004 -0.018690 0.141226
0.122955 -0.039812 0.127155
0.122955 -0.039812 0.127155
0.122955 -0.039812 0.127155
0.126556 -0.038569 0.148728
0.126556 -0.038569 0.148728
0.126556 -0.038569 0.148728
0.126556 -0.038569 0.148728
0.135852 -0.047399 0.156325
0.135852 -0.047399 0.156325
0.015396 0.080669 0.073331
0.015396 0.080669 0.073331
0.072671 0.052071 0.057600
0.060415 0.034720 0.063730
0.072808 0.048919 0.072427
0.071624 0.049034 0.079339
0.071670 0.045700 0.088807
0.075250 0.042244 0.093685
0.077739 0.035067 0.101689
0.084302 0.031416 0.095814
0.086325 0.022321 0.098569
0.091940 0.018287 0.100772
0.096674 0.014454 0.100978
0.100696 0.009115 0.105004
0.112539 0.009654 0.113740
0.118416 0.005620 0.113986
0.121304 0.001610 0.115119
0.116456 -0.009759 0.115298
0.129782 -0.002534 0.119744
0.130017 -0.008400 0.130497
0.131933 -0.013287 0.138159
0.131599 -0.011968 0.133868
0.129808 -0.022398 0.148741
0.127013 -0.016550 0.137255
0.127013 -0.016550 0.137255
0.122955 -0.039812 0.127155
0.124404 -0.042169 0.155202
0.124404 -0.042169 0.155202
0.124404 -0.042169 0.155202
0.119497 -0.020396 0.184314
0.119497 -0.020396 0.184314
0.119497 -0.020396 0.184314
0.119497 -0.020396 0.184314
0.043614 0.086186 0.085233
0.043614 0.086186 0.085233
0.120949 0.086049 0.094454
0.095487 0.073450 0.096871
0.086275 0.062141 0.090882
0.076623 0.048671 0.077278
0.080669 0.054680 0.098969
0.082165 0.049473 0.102044
0.086155 0.047085 0.109079
0.090255 0.040521 0.106427
0.091385 0.032861 0.108118
0.092615 0.023024 0.103065
0.094909 0.016660 0.100361
0.092237 0.006961 0.107034
0.107834 0.011010 0.122063
0.113609 0.008084 0.117465
0.120217 0.005962 0.119225
0.124151 0.003004 0.123114
0.126927 -0.001734 0.121379
0.127330 -0.003779 0.130618
0.126682 -0.009744 0.137263
0.128297 -0.013263 0.149983
0.127064 -0.010522 0.143392
0.128414 -0.016629 0.151471
0.128414 -0.016629 0.151471
0.129629 -0.013397 0.172549
0.129629 -0.013397 0.172549
0.129629 -0.013397 0.172549
0.119497 -0.020396 0.184314
0.119497 -0.020396 0.184314
0.119497 -0.020396 0.184314
0.119497 -0.020396 0.184314
0.119497 -0.020396 0.184314
0.060647 0.099654 0.108176
0.060647 0.099654 0.108176
0.140767 0.090042 0.083225
0.119815 0.085238 0.116153
0.100581 0.072880 0.108451
0.089336 0.065463 0.103082
0.081486 0.053088 0.098434
0.088460 0.055567 0.111832
0.091051 0.050556 0.114395
0.092649 0.045936 0.115843
0.093907 0.039895 0.116634
0.097871 0.033143 0.109392
0.095583 0.020770 0.110772
0.098596 0.015841 0.118877
0.100702 0.008997 0.118715
0.107222 0.007997 0.129780
0.116280 0.007830 0.134081
0.123132 0.006559 0.127240
0.122634 0.000533 0.131192
0.124246 -0.000313 0.130069
0.125597 -0.002462 0.133794
0.125371 -0.004312 0.143777
0.126024 -0.008270 0.156698
0.124732 -0.013498 0.165892
0.121672 -0.015783 0.166948
0.129629 -0.013397 0.172549
0.129629 -0.013397 0.172549
0.119497 -0.020396 0.184314
0.119497 -0.020396 0.184314
0.119497 -0.020396 0.184314
0.119497 -0.020396 0.184314
0.119497 -0.020396 0.184314
0.119497 -0.020396 0.184314
0.060647 0.099654 0.108176
0.060647 0.099654 0.108176
0.153432 0.099044 0.098828
0.146772 0.096754 0.100927
0.119482 0.089219 0.124868
0.086475 0.047819 0.097117
0.058366 0.009981 0.071960
0.080664 0.040736 0.103582
0.096148 0.056192 0.126367
0.097260 0.050761 0.128747
0.097453 0.044489 0.126549
0.101330 0.039719 0.123643
0.101015 0.029063 0.118819
0.097178 0.017125 0.121108
0.106569 0.019122 0.134434
0.101511 0.006515 0.132165
0.106653 0.003747 0.139400
0.119910 0.008845 0.141937
0.123818 0.005683 0.137035
0.125596 0.004130 0.144456
0.124386 0.000500 0.143202
0.123724 -0.000558 0.149248
0.124345 -0.004542 0.165368
0.122151 -0.012212 0.174358
0.120003 -0.014623 0.176466
0.116685 -0.012477 0.179450
0.119497 -0.020396 0.184314
0.119497 -0.020396 0.184314
0.119497 -0.020396 0.184314
0.119497 -0.020396 0.184314
0.119497 -0.020396 0.184314
0.119497 -0.020396 0.184314
0.107382 -0.041143 0.190158
-0.006182 0.108077 0.120136
-0.006182 0.108077 0.120136
0.153432 0.099044 0.098828
0.157693 0.100434 0.108496
0.132222 0.093232 0.133491
0.123891 0.084869 0.116376
0.071085 0.021290 0.078699
0.059104 0.005872 0.087984
0.100790 0.058363 0.133494
0.101360 0.055047 0.129756
0.102374 0.049745 0.135445
0.102926 0.042808 0.132523
0.108834 0.039911 0.139209
0.106949 0.030190 0.128612
0.098371 0.013377 0.133593
0.111644 0.018867 0.134998
0.104572 0.006255 0.143308
0.110308 0.005281 0.150526
0.120816 0.010593 0.148271
0.124607 0.007997 0.141997
0.124756 0.006140 0.154252
0.123952 0.001676 0.160887
0.120122 -0.004482 0.167059
0.115871 -0.008771 0.180404
0.111787 -0.012007 0.182320
0.108408 -0.014204 0.185207
0.109987 -0.009437 0.171569
0.109987 -0.009437 0.171569
0.109987 -0.009437 0.171569
0.109987 -0.009437 0.171569
0.137074 -0.014659 0.222207
0.137074 -0.014659 0.222207
0.137074 -0.014659 0.222207
-0.006182 0.108077 0.120136
-0.006182 0.108077 0.120136
0.176519 0.103863 0.118680
0.157693 0.100434 0.108496
0.145265 0.097225 0.150824
0.132183 0.086780 0.134064
0.121100 0.077519 0.129931
0.083782 0.032908 0.105853
0.083970 0.035246 0.120211
0.107699 0.059492 0.142775
0.108221 0.055447 0.131947
0.110616 0.050566 0.146894
0.111900 0.045940 0.149261
0.113347 0.040032 0.149528
0.109111 0.026094 0.132577
0.108891 0.020049 0.137076
0.116134 0.018595 0.134837
0.103888 0.000736 0.143495
0.115732 0.009969 0.159150
0.121357 0.012538 0.158256
0.118865 0.007644 0.164253
0.116011 0.001612 0.163742
0.112623 -0.004059 0.175034
0.109197 -0.007821 0.172320
0.107833 -0.011580 0.186825
0.104585 -0.012278 0.186192
0.109071 -0.009714 0.192932
0.109071 -0.009714 0.192932
0.137074 -0.014659 0.222207
0.137074 -0.014659 0.222207
0.137074 -0.014659 0.222207
0.137074 -0.014659 0.222207
0.137074 -0.014659 0.222207
0.035505 0.113769 0.160579
0.035505 0.113769 0.160579
0.224504 0.107827 0.165120
0.224504 0.107827 0.165120
0.145265 0.097225 0.150824
0.154309 0.093956 0.155564
0.135609 0.084729 0.126744
0.127605 0.081218 0.135246
0.110922 0.059092 0.138763
0.120013 0.068967 0.142337
0.115298 0.060755 0.148561
0.116657 0.055061 0.143601
0.116587 0.051192 0.154941
0.119959 0.046949 0.153001
0.121678 0.040319 0.157825
0.116906 0.030031 0.150466
0.110132 0.017637 0.147577
0.116497 0.018061 0.143099
0.113207 0.010482 0.151432
0.111826 0.007026 0.167779
0.113346 0.006228 0.177314
0.112330 0.003153 0.180495
0.111324 -0.000232 0.179836
0.109338 -0.004903 0.185746
0.111117 -0.006025 0.189454
0.112090 -0.005138 0.197634
0.110401 -0.004488 0.199575
0.110401 -0.004488 0.199575
0.137074 -0.014659 0.222207
0.137074 -0.014659 0.222207
0.137074 -0.014659 0.222207
0.137074 -0.014659 0.222207
0.137074 -0.014659 0.222207
0.035505 0.113769 0.160579
0.035505 0.113769 0.160579
0.228969 0.111799 0.171966
0.204173 0.099045 0.163774
0.204933 0.104513 0.182638
0.154309 0.093956 0.155564
0.135609 0.084729 0.126744
0.127605 0.081218 0.135246
0.127376 0.077699 0.147550
0.129271 0.071222 0.158999
0.128128 0.067353 0.162545
0.125545 0.059809 0.161178
0.123667 0.052295 0.160884
0.120954 0.046271 0.163310
0.121226 0.040013 0.162216
0.117786 0.032840 0.169952
0.116735 0.025395 0.162333
0.115048 0.019311 0.163287
0.115761 0.015577 0.165373
0.113567 0.010367 0.173922
0.113394 0.007346 0.183913
0.117441 0.008418 0.191897
0.117148 0.005796 0.192770
0.116309 0.005450 0.196282
0.113907 -0.000353 0.206121
0.111411 0.000672 0.181241
0.109652 -0.002260 0.208111
0.109652 -0.002260 0.208111
0.134169 -0.008383 0.219674
0.134169 -0.008383 0.219674
0.134169 -0.008383 0.219674
0.134169 -0.008383 0.219674
0.134169 -0.008383 0.219674
0.035505 0.113769 0.160579
0.228969 0.111799 0.171966
0.228969 0.111799 0.171966
0.204173 0.099045 0.163774
0.195073 0.094737 0.173142
0.189190 0.090887 0.183350
0.156413 0.080078 0.178658
0.156413 0.080078 0.178658
0.127376 0.077699 0.147550
0.133053 0.068076 0.156251
0.129167 0.064001 0.171878
0.124976 0.056470 0.161000
0.123334 0.050822 0.173528
0.120423 0.043863 0.176613
0.121117 0.039256 0.181501
0.120372 0.033333 0.178756
0.120299 0.030024 0.188878
0.117162 0.020664 0.174316
0.121730 0.023654 0.179768
0.121653 0.019727 0.174373
0.118729 0.014940 0.180296
0.113728 0.007504 0.191218
0.117867 0.011457 0.198514
0.115404 0.007375 0.193925
0.113668 0.006037 0.197452
0.116339 0.007767 0.211719
0.117747 0.009797 0.199709
0.134773 0.016111 0.250320
0.134773 0.016111 0.250320
0.134773 0.016111 0.250320
0.134773 0.016111 0.250320
0.134773 0.016111 0.250320
0.134773 0.016111 0.250320
0.031730 0.103321 0.148916
0.228969 0.111799 0.171966
0.228969 0.111799 0.171966
0.195073 0.094737 0.173142
0.195073 0.094737 0.173142
0.189190 0.090887 0.183350
0.156413 0.080078 0.178658
0.156413 0.080078 0.178658
0.133053 0.068076 0.156251
0.133053 0.068076 0.156251
0.135265 0.059054 0.154734
0.131369 0.052239 0.180482
0.130135 0.050280 0.172740
0.130573 0.048077 0.190746
0.129540 0.044141 0.192650
0.130263 0.041660 0.196626
0.128481 0.036585 0.188461
0.129450 0.034929 0.198288
0.122610 0.024081 0.180350
0.124432 0.023686 0.190515
0.122226 0.018992 0.182275
0.119672 0.014695 0.200512
0.120033 0.013826 0.203156
0.122880 0.015093 0.207504
0.121697 0.014718 0.192621
0.124961 0.012404 0.200740
0.144326 0.023968 0.195278
0.120762 0.016028 0.219608
0.120762 0.016028 0.219608
0.120762 0.016028 0.219608
0.120762 0.016028 0.219608
0.120762 0.016028 0.219608
0.120762 0.016028 0.219608
0.031730 0.103321 0.148916
0.228969 0.111799 0.171966
0.194383 0.077213 0.167064
0.195073 0.094737 0.173142
0.195073 0.094737 0.173142
0.189190 0.090887 0.183350
0.156413 0.080078 0.178658
0.173909 0.062562 0.180018
0.171378 0.062848 0.181585
0.135265 0.059054 0.154734
0.135265 0.059054 0.154734
0.144329 0.058730 0.191479
0.141343 0.052776 0.183019
0.139117 0.049943 0.171215
0.138261 0.046113 0.194673
0.135183 0.041554 0.203590
0.133469 0.038652 0.199492
0.135255 0.037030 0.187297
0.131513 0.031687 0.206619
0.125933 0.024366 0.203017
0.130569 0.027235 0.203373
0.130330 0.025022 0.185132
0.126631 0.020952 0.212930
0.126792 0.020461 0.225568
0.126591 0.018895 0.200726
0.127889 0.018575 0.196910
0.153359 0.025947 0.208562
0.162290 0.029665 0.211128
0.162290 0.029665 0.211128
0.162290 0.029665 0.211128
0.162290 0.029665 0.211128
0.162290 0.029665 0.211128
0.162290 0.029665 0.211128
0.031730 0.103321 0.148916
0.194383 0.077213 0.167064
0.194383 0.077213 0.167064
0.195073 0.094737 0.173142
0.179770 0.076278 0.171568
0.179590 0.064902 0.181208
0.179590 0.064902 0.181208
0.168589 0.058637 0.177263
0.171886 0.060779 0.182697
0.164449 0.057039 0.190687
0.144329 0.058730 0.191479
0.144329 0.058730 0.191479
0.141343 0.052776 0.183019
0.149315 0.048056 0.184099
0.146188 0.049493 0.190388
0.145280 0.043069 0.185453
0.143261 0.040776 0.192328
0.140797 0.041211 0.221462
0.139983 0.036817 0.191863
0.137575 0.034483 0.220111
0.135133 0.029973 0.216204
0.136434 0.030140 0.217305
0.134511 0.026346 0.194929
0.131654 0.023856 0.240369
0.129860 0.022701 0.241628
0.128598 0.019533 0.222401
0.138468 0.021401 0.220779
0.161821 0.025245 0.224653
0.161821 0.025245 0.224653
0.161821 0.025245 0.224653
0.161821 0.025245 0.224653
0.161821 0.025245 0.224653
0.161821 0.025245 0.224653
0.194383 0.077213 0.167064
0.194383 0.077213 0.167064
0.194383 0.077213 0.167064
0.179770 0.076278 0.171568
0.179590 0.064902 0.181208
0.179590 0.064902 0.181208
0.168589 0.058637 0.177263
0.168589 0.058637 0.177263
0.171886 0.060779 0.182697
0.164449 0.057039 0.190687
0.163430 0.051323 0.199197
0.144329 0.058730 0.191479
0.149315 0.048056 0.184099
0.149315 0.048056 0.184099
0.146188 0.049493 0.190388
0.150795 0.045962 0.187104
0.157169 0.046400 0.186524
0.153070 0.045760 0.200226
0.147516 0.040154 0.202751
0.145889 0.038663 0.218205
0.138688 0.030312 0.219750
0.135519 0.027259 0.225485
0.137456 0.027291 0.207990
0.134806 0.023196 0.225622
0.130264 0.020905 0.241813
0.127665 0.017910 0.225007
0.126991 0.015604 0.234493
0.144709 0.020308 0.243809
0.144709 0.020308 0.243809
0.144709 0.020308 0.243809
0.144709 0.020308 0.243809
0.144709 0.020308 0.243809
0.144709 0.020308 0.243809
0.194383 0.077213 0.167064
0.194383 0.077213 0.167064
0.179770 0.076278 0.171568
0.179590 0.064902 0.181208
0.179590 0.064902 0.181208
0.168589 0.058637 0.177263
0.168589 0.058637 0.177263
0.168589 0.058637 0.177263
0.171886 0.060779 0.182697
0.164449 0.057039 0.190687
0.163430 0.051323 0.199197
0.149315 0.048056 0.184099
0.149315 0.048056 0.184099
0.141566 0.045275 0.233609
0.141566 0.045275 0.233609
0.150795 0.045962 0.187104
0.159384 0.046047 0.163878
0.156647 0.040623 0.141158
0.152554 0.037281 0.184992
0.141451 0.033268 0.242191
0.145257 0.035111 0.239240
0.141475 0.030332 0.209623
0.135332 0.024599 0.226898
0.134391 0.022282 0.227686
0.132938 0.019965 0.253763
0.126023 0.015474 0.254633
0.131452 0.015365 0.229799
0.136769 0.017842 0.249197
0.136769 0.017842 0.249197
0.136769 0.017842 0.249197
0.136769 0.017842 0.249197
0.136769 0.017842 0.249197
0.136769 0.017842 0.249197
0.194383 0.077213 0.167064
0.194383 0.077213 0.167064
0.179590 0.064902 0.181208
0.179590 0.064902 0.181208
0.168589 0.058637 0.177263
0.168589 0.058637 0.177263
0.168589 0.058637 0.177263
0.168589 0.058637 0.177263
0.171886 0.060779 0.182697
0.163439 0.040307 0.196847
0.163439 0.040307 0.196847
0.164337 0.042142 0.195179
0.141566 0.045275 0.233609
0.141566 0.045275 0.233609
0.141566 0.045275 0.233609
0.159384 0.046047 0.163878
0.159384 0.046047 0.163878
0.156647 0.040623 0.141158
0.150192 0.036303 0.129412
0.149865 0.034565 0.210174
0.146552 0.033299 0.235294
0.132058 0.029522 0.245511
0.137432 0.023226 0.259654
0.138929 0.023789 0.260395
0.138818 0.022848 0.249094
0.126203 0.007149 0.260943
0.138955 0.014840 0.249483
0.150331 0.020526 0.261101
0.150331 0.020526 0.261101
0.150331 0.020526 0.261101
0.150331 0.020526 0.261101
0.150331 0.020526 0.261101
0.150331 0.020526 0.261101
0.216455 0.059440 0.189130
0.179590 0.064902 0.181208
0.179590 0.064902 0.181208
0.168589 0.058637 0.177263
0.168589 0.058637 0.177263
0.168589 0.058637 0.177263
0.168589 0.058637 0.177263
0.168589 0.058637 0.177263
0.163439 0.040307 0.196847
0.163439 0.040307 0.196847
0.163439 0.040307 0.196847
0.164337 0.042142 0.195179
0.157414 0.032208 0.194689
0.141566 0.045275 0.233609
