outputs/second_method/residual_lut.cube
TITLE "Residual LUT"
LUT_3D_SIZE 9
DOMAIN_MIN 0.0 0.0 0.0
DOMAIN_MAX 1.0 1.0 1.0
0.001322 -0.001086 0.004720
0.085538 -0.022632 0.002631
0.110643 -0.025710 0.002614
0.111826 -0.046225 0.038052
0.112841 -0.063165 0.024770
0.136490 -0.024765 0.089442
0.134371 -0.059609 0.098294
0.134371 -0.059609 0.098294
0.172289 -0.035920 0.123728
0.005274 0.038782 0.029298
0.031681 -0.000479 0.030182
0.073605 -0.019250 0.033840
0.108594 -0.028516 0.066931
0.141783 -0.033430 0.081719
0.136490 -0.024765 0.089442
0.134371 -0.059609 0.098294
0.172289 -0.035920 0.123728
0.141601 -0.037958 0.156903
0.011738 0.056854 0.056626
0.050543 0.038707 0.062656
0.065921 0.007009 0.071583
0.094028 -0.008991 0.085007
0.120867 -0.020799 0.099895
0.132631 -0.026926 0.119476
0.142633 -0.025361 0.132586
0.141601 -0.037958 0.156903
0.141601 -0.037958 0.156903
0.013950 0.084671 0.095334
0.085069 0.060808 0.097234
0.084683 0.045649 0.111728
0.095106 0.015842 0.108636
0.118259 0.003972 0.124988
0.125986 -0.007614 0.136981
0.123405 -0.016557 0.161823
0.128710 -0.038813 0.165773
0.128710 -0.038813 0.165773
0.070037 0.101230 0.097488
0.138212 0.091384 0.144132
0.095623 0.047967 0.129907
0.112816 0.046785 0.148947
0.111659 0.013953 0.145146
0.117801 0.006744 0.164697
0.108247 -0.011878 0.186811
0.106394 -0.014720 0.191729
0.106394 -0.014720 0.191729
0.221568 0.114441 0.164103
0.186228 0.084346 0.168875
0.126314 0.075717 0.150090
0.128305 0.048596 0.185597
0.128822 0.035766 0.200571
0.121490 0.017524 0.192366
0.121247 0.012659 0.201141
0.135534 0.017498 0.205577
0.129955 -0.007898 0.253357
0.173565 0.084874 0.158355
0.174462 0.062142 0.178746
0.170214 0.059878 0.180449
0.135424 0.051258 0.212406
0.157315 0.044865 0.193136
0.138222 0.027733 0.238244
0.130328 0.017232 0.244091
0.134974 0.016506 0.249001
0.138742 -0.005462 0.256872
0.174462 0.062142 0.178746
0.174462 0.062142 0.178746
0.160182 0.042948 0.191628
0.162285 0.030320 0.214481
0.150227 0.035110 0.165442
0.149852 0.030540 0.238279
0.157768 0.030779 0.258425
0.146023 0.027137 0.258824
0.146023 0.027137 0.258824
0.232388 0.048490 0.195147
0.206875 0.026558 0.218777
0.162285 0.030320 0.214481
0.162285 0.030320 0.214481
0.160484 0.024693 0.245434
0.160484 0.024693 0.245434
0.157768 0.030779 0.258425
0.146023 0.027137 0.258824
0.146023 0.027137 0.258824
-0.005173 -0.014903 0.047919
0.014612 -0.048168 0.079090
0.066773 -0.061336 0.058199
0.062016 -0.057049 0.069992
0.115893 -0.061175 0.108086
0.132337 -0.035249 0.105355
0.134371 -0.059609 0.098294
0.172289 -0.035920 0.123728
0.172289 -0.035920 0.123728
-0.016093 -0.015454 0.078467
0.000865 -0.028805 0.047579
0.046569 -0.046604 0.064920
0.093162 -0.044133 0.088098
0.115893 -0.061175 0.108086
0.132337 -0.035249 0.105355
0.172289 -0.035920 0.123728
0.172289 -0.035920 0.123728
0.172289 -0.035920 0.123728
-0.011355 0.028178 0.071681
0.011333 -0.016137 0.076814
0.034940 -0.029081 0.085415
0.073796 -0.047057 0.098386
0.108020 -0.050311 0.115721
0.125229 -0.054967 0.132110
0.154743 -0.040032 0.152091
0.157296 -0.044072 0.170012
0.157296 -0.044072 0.170012
-0.003157 0.044907 0.086798
0.049841 0.024867 0.101857
0.056998 0.004269 0.114062
0.077675 -0.016856 0.126425
0.102202 -0.035825 0.137201
0.111508 -0.051443 0.153215
0.114571 -0.055149 0.165247
0.135878 -0.045479 0.178334
0.135878 -0.045479 0.178334
0.080204 0.076681 0.130960
0.108421 0.055208 0.134384
0.072877 0.017606 0.138102
0.083351 0.001866 0.151691
0.098136 -0.019713 0.163507
0.100548 -0.038798 0.174999
0.096925 -0.048119 0.187440
0.117994 -0.040503 0.204225
0.117994 -0.040503 0.204225
0.173565 0.084874 0.158355
0.184937 0.066879 0.150853
0.115722 0.034635 0.166845
0.103964 0.015494 0.178113
0.105099 -0.003449 0.190595
0.107971 -0.017409 0.204112
0.112761 -0.022370 0.223052
0.126120 -0.024266 0.232206
0.132965 -0.016493 0.257302
0.173565 0.084874 0.158355
0.176680 0.042720 0.168342
0.156803 0.048655 0.180278
0.159911 0.034686 0.202402
0.139609 0.018255 0.218596
0.126649 -0.002092 0.232452
0.118614 -0.017223 0.243855
0.135435 -0.016406 0.264033
0.135435 -0.016406 0.264033
0.232388 0.048490 0.195147
0.206875 0.026558 0.218777
0.141498 0.029104 0.189108
0.162285 0.030320 0.214481
0.139232 0.009727 0.230944
0.153401 0.014406 0.241400
0.141402 0.000939 0.259578
0.137268 -0.014928 0.273274
0.137268 -0.014928 0.273274
0.278379 0.039468 0.224309
0.206875 0.026558 0.218777
0.162285 0.030320 0.214481
0.162285 0.030320 0.214481
0.164343 0.027420 0.282256
0.153401 0.014406 0.241400
0.141402 0.000939 0.259578
0.106860 -0.032806 0.277988
0.106860 -0.032806 0.277988
-0.015963 -0.039627 0.106859
0.003769 -0.063950 0.084740
0.024148 -0.081618 0.087235
0.062016 -0.057049 0.069992
0.115893 -0.061175 0.108086
0.132337 -0.035249 0.105355
0.172289 -0.035920 0.123728
0.172289 -0.035920 0.123728
0.172289 -0.035920 0.123728
-0.022585 -0.046922 0.095824
-0.027779 -0.072085 0.084421
0.024148 -0.081618 0.087235
0.030542 -0.074383 0.078374
0.068637 -0.080858 0.117474
0.100403 -0.075548 0.119323
0.172289 -0.035920 0.123728
0.172289 -0.035920 0.123728
0.178249 -0.036092 0.187601
-0.028151 -0.031059 0.102064
-0.027823 -0.052943 0.098989
0.004802 -0.075529 0.103936
0.041334 -0.079631 0.115287
0.085808 -0.086882 0.141267
0.071268 -0.102342 0.137225
0.118812 -0.068772 0.148436
0.178249 -0.036092 0.187601
0.178249 -0.036092 0.187601
-0.012710 0.006942 0.122316
-0.001586 -0.017625 0.124167
0.023626 -0.038300 0.132295
0.049159 -0.053569 0.144162
0.077248 -0.070283 0.156279
0.094195 -0.090312 0.168622
0.103887 -0.080866 0.185525
0.169723 -0.035181 0.209471
0.169723 -0.035181 0.209471
-0.011517 0.032033 0.149810
0.056512 0.013227 0.153848
0.048220 -0.008282 0.159249
0.054055 -0.043814 0.168059
0.074305 -0.054520 0.178710
0.082202 -0.075135 0.186862
0.086414 -0.080252 0.201398
0.129316 -0.059976 0.221143
0.140959 -0.072482 0.238926
0.085858 0.053894 0.175435
0.143956 0.033890 0.178638
0.086942 0.004401 0.182916
0.081519 -0.012071 0.192094
0.085739 -0.035334 0.203766
0.099673 -0.041671 0.222394
0.100078 -0.061990 0.234720
0.139099 -0.045356 0.267149
0.139099 -0.045356 0.267149
0.232388 0.048490 0.195147
0.229775 0.036016 0.199460
0.148831 0.018383 0.212090
0.119972 0.002166 0.221584
0.114037 -0.011899 0.234340
0.110211 -0.033839 0.248605
0.112787 -0.040969 0.266039
0.138425 -0.038960 0.287503
0.138425 -0.038960 0.287503
0.278379 0.039468 0.224309
0.254105 0.031716 0.220767
0.206875 0.026558 0.218777
0.149765 0.001907 0.232650
0.139627 -0.010967 0.255663
0.141175 -0.003197 0.267653
0.127584 -0.012033 0.278246
0.113818 -0.033101 0.289177
0.087767 -0.005829 0.288706
0.278379 0.039468 0.224309
0.225833 -0.000863 0.237699
0.181776 0.000225 0.250864
0.149105 -0.013180 0.250148
0.139627 -0.010967 0.255663
0.141175 -0.003197 0.267653
0.096145 -0.040121 0.298359
0.097575 -0.032369 0.284872
0.087767 -0.005829 0.288706
-0.026835 -0.069921 0.102993
-0.048682 -0.100113 0.099793
0.024148 -0.081618 0.087235
0.024148 -0.081618 0.087235
0.068637 -0.080858 0.117474
0.100403 -0.075548 0.119323
0.071268 -0.102342 0.137225
0.172289 -0.035920 0.123728
0.172289 -0.035920 0.123728
-0.026835 -0.069921 0.102993
-0.048682 -0.100113 0.099793
-0.029557 -0.095197 0.115701
-0.021502 -0.123747 0.124413
0.070212 -0.103261 0.148325
0.071268 -0.102342 0.137225
0.071268 -0.102342 0.137225
0.178249 -0.036092 0.187601
0.178249 -0.036092 0.187601
-0.031137 -0.058062 0.121943
-0.066519 -0.086655 0.118228
-0.029428 -0.110773 0.122808
-0.021502 -0.123747 0.124413
0.070212 -0.103261 0.148325
0.087139 -0.107410 0.172750
0.071337 -0.114557 0.182057
0.096698 -0.103066 0.187496
0.169723 -0.035181 0.209471
-0.048837 -0.038375 0.140482
-0.062267 -0.049911 0.141562
-0.016123 -0.078036 0.143459
0.019151 -0.096993 0.157166
0.054999 -0.110798 0.167034
0.082997 -0.117540 0.183338
0.071337 -0.114557 0.182057
0.074314 -0.098722 0.214493
0.140959 -0.072482 0.238926
-0.037205 -0.008306 0.169822
-0.032287 -0.034549 0.165219
-0.009607 -0.059462 0.169402
0.023807 -0.072961 0.179276
0.046621 -0.094513 0.187114
0.052422 -0.115551 0.185756
0.076797 -0.115483 0.209041
0.076492 -0.116795 0.218436
0.140959 -0.072482 0.238926
-0.026384 0.005905 0.191792
0.061985 0.000888 0.199778
0.043934 -0.028318 0.198223
0.039628 -0.057821 0.203449
0.063931 -0.064802 0.219441
0.077435 -0.083627 0.231951
0.088341 -0.091177 0.247450
0.137577 -0.075916 0.271072
0.137577 -0.075916 0.271072
0.274444 0.038591 0.237303
0.167066 0.012076 0.226791
0.116249 -0.003196 0.233231
0.089082 -0.022184 0.241231
0.086372 -0.046347 0.253425
0.090443 -0.064532 0.265124
0.095961 -0.072396 0.280948
0.129881 -0.073392 0.299036
0.129881 -0.073392 0.299036
0.248749 0.029798 0.235870
0.248278 0.022284 0.236365
0.181776 0.000225 0.250864
0.129392 -0.018351 0.264600
0.119108 -0.023566 0.278023
0.127171 0.002981 0.299678
0.113688 -0.021408 0.308877
0.103092 -0.085273 0.305458
0.089068 -0.116146 0.310119
0.248749 0.029798 0.235870
0.225833 -0.000863 0.237699
0.181776 0.000225 0.250864
0.129392 -0.018351 0.264600
0.119108 -0.023566 0.278023
0.127171 0.002981 0.299678
0.075307 -0.099423 0.300857
0.073516 -0.053835 0.303491
0.061876 -0.058223 0.301261
-0.026835 -0.069921 0.102993
-0.048682 -0.100113 0.099793
-0.029557 -0.095197 0.115701
-0.023423 -0.122817 0.133739
0.070212 -0.103261 0.148325
0.070212 -0.103261 0.148325
0.071268 -0.102342 0.137225
0.071268 -0.102342 0.137225
0.178249 -0.036092 0.187601
-0.031137 -0.058062 0.121943
-0.069416 -0.080940 0.121278
-0.025792 -0.118654 0.133105
-0.023423 -0.122817 0.133739
0.070212 -0.103261 0.148325
0.070212 -0.103261 0.148325
0.071337 -0.114557 0.182057
0.071337 -0.114557 0.182057
0.074314 -0.098722 0.214493
-0.044566 -0.075902 0.115890
-0.090781 -0.102655 0.116896
-0.025792 -0.118654 0.133105
-0.023423 -0.122817 0.133739
-0.008886 -0.146808 0.155696
0.082997 -0.117540 0.183338
0.071337 -0.114557 0.182057
0.074314 -0.098722 0.214493
0.074314 -0.098722 0.214493
-0.072467 -0.085210 0.144811
-0.106000 -0.095101 0.142318
-0.071361 -0.111380 0.147495
-0.011406 -0.139764 0.155116
-0.008886 -0.146808 0.155696
0.036593 -0.139379 0.180927
0.071337 -0.114557 0.182057
0.074314 -0.098722 0.214493
0.074314 -0.098722 0.214493
-0.062603 -0.046511 0.173240
-0.105671 -0.055452 0.175662
-0.061304 -0.087046 0.175835
-0.012147 -0.114318 0.168536
0.018664 -0.128803 0.181156
0.045275 -0.131430 0.192251
0.053329 -0.131017 0.196952
0.074408 -0.122289 0.219416
0.088240 -0.118339 0.247479
-0.068444 -0.035048 0.188189
-0.056226 -0.049239 0.188067
-0.032249 -0.074073 0.189104
-0.000425 -0.090969 0.199997
0.028004 -0.106921 0.211605
0.053107 -0.118229 0.226763
0.068748 -0.131246 0.244328
0.116757 -0.118334 0.259046
0.116757 -0.118334 0.259046
-0.037038 -0.017959 0.217181
0.071501 -0.010625 0.233003
0.057983 -0.035498 0.236730
0.039351 -0.063241 0.239392
0.056174 -0.078304 0.252481
0.074552 -0.086355 0.267446
0.083895 -0.105302 0.281146
0.127848 -0.091534 0.305790
0.127848 -0.091534 0.305790
-0.007884 -0.056205 0.211335
0.126242 0.016323 0.267977
0.092789 -0.025371 0.265813
0.089746 -0.035950 0.276866
0.118612 0.034626 0.306442
0.094883 -0.064019 0.301343
0.083837 -0.078165 0.304559
0.096314 -0.117577 0.306959
0.081958 -0.135051 0.299903
-0.067019 -0.058197 0.229676
-0.034069 -0.088027 0.207440
0.092789 -0.025371 0.265813
0.089746 -0.035950 0.276866
0.118612 0.034626 0.306442
0.094883 -0.064019 0.301343
0.074164 -0.074333 0.303256
0.052154 -0.068617 0.302253
0.028005 -0.014450 0.309030
-0.031137 -0.058062 0.121943
-0.069416 -0.080940 0.121278
-0.025792 -0.118654 0.133105
-0.023423 -0.122817 0.133739
-0.023423 -0.122817 0.133739
0.070212 -0.103261 0.148325
0.071337 -0.114557 0.182057
0.071337 -0.114557 0.182057
0.074314 -0.098722 0.214493
-0.044566 -0.075902 0.115890
-0.090781 -0.102655 0.116896
-0.025792 -0.118654 0.133105
-0.023423 -0.122817 0.133739
-0.008886 -0.146808 0.155696
-0.008886 -0.146808 0.155696
0.071337 -0.114557 0.182057
0.071337 -0.114557 0.182057
0.074314 -0.098722 0.214493
-0.073776 -0.092140 0.135448
-0.102698 -0.105255 0.130071
-0.071361 -0.111380 0.147495
-0.011406 -0.139764 0.155116
-0.008886 -0.146808 0.155696
0.002046 -0.155117 0.170404
0.071337 -0.114557 0.182057
0.074314 -0.098722 0.214493
0.074314 -0.098722 0.214493
-0.072905 -0.099698 0.138344
-0.102267 -0.112146 0.131099
-0.150910 -0.102070 0.156784
-0.018541 -0.148765 0.160162
0.002046 -0.155117 0.170404
-0.003944 -0.169806 0.171434
0.045275 -0.131430 0.192251
0.074408 -0.122289 0.219416
0.074408 -0.122289 0.219416
-0.071431 -0.086577 0.162226
-0.116212 -0.098081 0.157806
-0.104599 -0.106022 0.169322
-0.034455 -0.126083 0.164270
-0.024025 -0.172343 0.162570
-0.003944 -0.169806 0.171434
0.039617 -0.143248 0.201969
0.076576 -0.111927 0.236271
0.116757 -0.118334 0.259046
-0.075623 -0.084581 0.162309
-0.116010 -0.094808 0.173725
-0.163957 -0.129220 0.176089
-0.087823 -0.140029 0.161420
-0.015733 -0.144038 0.198734
0.000637 -0.164259 0.258160
0.054406 -0.138884 0.222937
0.134593 -0.109009 0.280749
0.134593 -0.109009 0.280749
-0.083533 -0.053159 0.208288
-0.087564 -0.057020 0.210861
-0.075479 -0.074897 0.224761
-0.026805 -0.092597 0.232770
0.004724 -0.114840 0.244708
0.040308 -0.132293 0.253732
0.076663 -0.122485 0.291470
0.134343 -0.114495 0.307881
0.134343 -0.114495 0.307881
-0.067019 -0.058197 0.229676
-0.025470 -0.048601 0.245261
-0.005882 -0.036634 0.274146
0.013207 -0.028643 0.293548
0.032521 -0.064362 0.303294
0.060290 -0.076920 0.309086
0.061860 -0.087872 0.305507
0.060541 -0.159049 0.291082
0.076114 -0.161406 0.301526
-0.067019 -0.058197 0.229676
-0.025470 -0.048601 0.245261
-0.005882 -0.036634 0.274146
0.013207 -0.028643 0.293548
0.032521 -0.064362 0.303294
0.059486 0.004314 0.327321
0.059383 -0.028390 0.304966
0.033933 -0.038573 0.297926
0.003453 -0.061298 0.287158
-0.044566 -0.075902 0.115890
-0.090781 -0.102655 0.116896
-0.025792 -0.118654 0.133105
-0.023423 -0.122817 0.133739
-0.023423 -0.122817 0.133739
-0.008886 -0.146808 0.155696
0.071337 -0.114557 0.182057
0.071337 -0.114557 0.182057
0.074314 -0.098722 0.214493
-0.073776 -0.092140 0.135448
-0.102698 -0.105255 0.130071
-0.102698 -0.105255 0.130071
-0.023423 -0.122817 0.133739
-0.008886 -0.146808 0.155696
0.002046 -0.155117 0.170404
-0.003944 -0.169806 0.171434
0.071337 -0.114557 0.182057
0.074314 -0.098722 0.214493
-0.072905 -0.099698 0.138344
-0.102267 -0.112146 0.131099
-0.102267 -0.112146 0.131099
-0.018541 -0.148765 0.160162
0.002046 -0.155117 0.170404
-0.003944 -0.169806 0.171434
-0.003944 -0.169806 0.171434
0.074408 -0.122289 0.219416
0.074408 -0.122289 0.219416
-0.062534 -0.098436 0.144082
-0.084387 -0.119593 0.133915
-0.084387 -0.119593 0.133915
-0.022795 -0.162476 0.167874
-0.024025 -0.172343 0.162570
-0.003944 -0.169806 0.171434
-0.003944 -0.169806 0.171434
0.076576 -0.111927 0.236271
0.076576 -0.111927 0.236271
-0.071431 -0.086577 0.162226
-0.116212 -0.098081 0.157806
-0.148605 -0.128039 0.159911
-0.022795 -0.162476 0.167874
-0.024025 -0.172343 0.162570
-0.003944 -0.169806 0.171434
0.000637 -0.164259 0.258160
0.076576 -0.111927 0.236271
0.134593 -0.109009 0.280749
-0.076368 -0.102653 0.150659
-0.111459 -0.113556 0.194714
-0.146646 -0.132075 0.164846
-0.087823 -0.140029 0.161420
-0.015733 -0.144038 0.198734
0.000637 -0.164259 0.258160
0.038235 -0.155613 0.245932
0.134343 -0.114495 0.307881
0.134343 -0.114495 0.307881
-0.087246 -0.055128 0.215559
-0.087512 -0.060067 0.221197
-0.084045 -0.077450 0.243529
-0.050854 -0.077197 0.263659
0.004724 -0.114840 0.244708
0.040308 -0.132293 0.253732
0.076663 -0.122485 0.291470
0.134343 -0.114495 0.307881
0.064804 -0.164763 0.292542
-0.090847 -0.048491 0.241359
-0.064531 -0.027315 0.270608
-0.058055 -0.053513 0.282953
0.000883 0.016373 0.315675
0.032521 -0.064362 0.303294
0.066289 0.088247 0.342058
0.066289 0.088247 0.342058
0.023136 -0.008782 0.298613
0.064804 -0.164763 0.292542
-0.067019 -0.058197 0.229676
-0.064531 -0.027315 0.270608
-0.058055 -0.053513 0.282953
0.000883 0.016373 0.315675
0.032521 -0.064362 0.303294
0.058372 0.049612 0.342912
0.049008 -0.010689 0.311549
0.012345 0.016262 0.300163
-0.006192 -0.009785 0.285967
-0.073776 -0.092140 0.135448
-0.102698 -0.105255 0.130071
-0.102698 -0.105255 0.130071
-0.023423 -0.122817 0.133739
-0.008886 -0.146808 0.155696
0.002046 -0.155117 0.170404
-0.003944 -0.169806 0.171434
-0.003944 -0.169806 0.171434
0.074314 -0.098722 0.214493
-0.072905 -0.099698 0.138344
-0.102267 -0.112146 0.131099
-0.102267 -0.112146 0.131099
-0.018541 -0.148765 0.160162
0.002046 -0.155117 0.170404
-0.003944 -0.169806 0.171434
-0.003944 -0.169806 0.171434
-0.003944 -0.169806 0.171434
0.074408 -0.122289 0.219416
-0.062534 -0.098436 0.144082
-0.084387 -0.119593 0.133915
-0.084387 -0.119593 0.133915
-0.022795 -0.162476 0.167874
-0.024025 -0.172343 0.162570
-0.003944 -0.169806 0.171434
-0.003944 -0.169806 0.171434
-0.003944 -0.169806 0.171434
0.076576 -0.111927 0.236271
-0.062534 -0.098436 0.144082
-0.084387 -0.119593 0.133915
-0.084387 -0.119593 0.133915
-0.022795 -0.162476 0.167874
-0.024025 -0.172343 0.162570
-0.003944 -0.169806 0.171434
-0.003944 -0.169806 0.171434
-0.003944 -0.169806 0.171434
0.076576 -0.111927 0.236271
-0.076368 -0.102653 0.150659
-0.111459 -0.113556 0.194714
-0.146646 -0.132075 0.164846
-0.022795 -0.162476 0.167874
-0.024025 -0.172343 0.162570
-0.003944 -0.169806 0.171434
0.000637 -0.164259 0.258160
0.134343 -0.114495 0.307881
0.134343 -0.114495 0.307881
-0.076368 -0.102653 0.150659
-0.111459 -0.113556 0.194714
-0.146646 -0.132075 0.164846
-0.087823 -0.140029 0.161420
-0.015733 -0.144038 0.198734
0.000637 -0.164259 0.258160
0.038235 -0.155613 0.245932
0.134343 -0.114495 0.307881
0.134343 -0.114495 0.307881
-0.087246 -0.055128 0.215559
-0.087512 -0.060067 0.221197
-0.084045 -0.077450 0.243529
-0.050854 -0.077197 0.263659
0.004724 -0.114840 0.244708
0.066289 0.088247 0.342058
0.066289 0.088247 0.342058
0.064804 -0.164763 0.292542
0.064804 -0.164763 0.292542
-0.090847 -0.048491 0.241359
-0.064531 -0.027315 0.270608
-0.058055 -0.053513 0.282953
0.000883 0.016373 0.315675
0.032521 -0.064362 0.303294
0.066289 0.088247 0.342058
0.066289 0.088247 0.342058
0.023136 -0.008782 0.298613
0.064804 -0.164763 0.292542
-0.064531 -0.027315 0.270608
-0.064531 -0.027315 0.270608
-0.058055 -0.053513 0.282953
0.000883 0.016373 0.315675
0.058372 0.049612 0.342912
0.058372 0.049612 0.342912
0.049008 -0.010689 0.311549
0.012345 0.016262 0.300163
-0.006192 -0.009785 0.285967
-0.072905 -0.099698 0.138344
-0.102267 -0.112146 0.131099
-0.102267 -0.112146 0.131099
-0.023423 -0.122817 0.133739
0.002046 -0.155117 0.170404
-0.003944 -0.169806 0.171434
-0.003944 -0.169806 0.171434
-0.003944 -0.169806 0.171434
-0.003944 -0.169806 0.171434
-0.062534 -0.098436 0.144082
-0.084387 -0.119593 0.133915
-0.084387 -0.119593 0.133915
-0.022795 -0.162476 0.167874
-0.024025 -0.172343 0.162570
-0.003944 -0.169806 0.171434
-0.003944 -0.169806 0.171434
-0.003944 -0.169806 0.171434
-0.003944 -0.169806 0.171434
-0.062534 -0.098436 0.144082
-0.084387 -0.119593 0.133915
-0.084387 -0.119593 0.133915
-0.022795 -0.162476 0.167874
-0.024025 -0.172343 0.162570
-0.003944 -0.169806 0.171434
-0.003944 -0.169806 0.171434
-0.003944 -0.169806 0.171434
0.076576 -0.111927 0.236271
-0.062534 -0.098436 0.144082
-0.084387 -0.119593 0.133915
-0.084387 -0.119593 0.133915
-0.022795 -0.162476 0.167874
-0.024025 -0.172343 0.162570
-0.003944 -0.169806 0.171434
-0.003944 -0.169806 0.171434
-0.003944 -0.169806 0.171434
0.134343 -0.114495 0.307881
-0.076368 -0.102653 0.150659
-0.111459 -0.113556 0.194714
-0.146646 -0.132075 0.164846
-0.022795 -0.162476 0.167874
-0.024025 -0.172343 0.162570
-0.003944 -0.169806 0.171434
0.000637 -0.164259 0.258160
0.134343 -0.114495 0.307881
0.134343 -0.114495 0.307881
-0.076368 -0.102653 0.150659
-0.111459 -0.113556 0.194714
-0.146646 -0.132075 0.164846
-0.146646 -0.132075 0.164846
-0.015733 -0.144038 0.198734
0.000637 -0.164259 0.258160
0.038235 -0.155613 0.245932
0.134343 -0.114495 0.307881
0.064804 -0.164763 0.292542
-0.087246 -0.055128 0.215559
-0.087512 -0.060067 0.221197
-0.084045 -0.077450 0.243529
-0.050854 -0.077197 0.263659
-0.050854 -0.077197 0.263659
0.066289 0.088247 0.342058
0.066289 0.088247 0.342058
0.064804 -0.164763 0.292542
0.064804 -0.164763 0.292542
-0.090847 -0.048491 0.241359
-0.064531 -0.027315 0.270608
-0.058055 -0.053513 0.282953
0.000883 0.016373 0.315675
0.000883 0.016373 0.315675
0.066289 0.088247 0.342058
0.066289 0.088247 0.342058
0.023136 -0.008782 0.298613
0.064804 -0.164763 0.292542
-0.064531 -0.027315 0.270608
-0.064531 -0.027315 0.270608
-0.058055 -0.053513 0.282953
0.000883 0.016373 0.315675
0.058372 0.049612 0.342912
0.058372 0.049612 0.342912
0.049008 -0.010689 0.311549
0.012345 0.016262 0.300163
-0.006192 -0.009785 0.285967
