outputs/first_method/lut_33.cube
# 3D LUT for Classic Chrome Film Simulation (Bias Corrected)
# Generated from pixel comparison data with +1.489 L* bias correction
TITLE "Classic Chrome LUT - Corrected"
LUT_3D_SIZE 9
0.000000 0.000000 0.000000
0.000000 0.000000 0.056455
0.000000 0.000000 0.157874
0.000000 0.000000 0.246396
0.000000 0.037917 0.346885
0.000000 0.054716 0.406993
0.000000 0.105670 0.467197
0.000000 0.175136 0.527500
0.000000 0.213944 0.599405
0.000000 0.079971 0.000000
0.000000 0.086424 0.086046
0.000000 0.101727 0.182496
0.000000 0.107759 0.273402
0.000000 0.109665 0.370179
0.000000 0.125138 0.465365
0.000000 0.177162 0.529478
0.000000 0.213944 0.599405
0.000000 0.254691 0.657802
0.014099 0.203527 0.025254
0.000000 0.209424 0.122804
0.000000 0.209561 0.209816
0.000000 0.225246 0.312412
0.000000 0.227318 0.403394
0.000000 0.237131 0.494638
0.000000 0.246849 0.580041
0.000000 0.260467 0.665611
0.000000 0.310829 0.700639
0.025700 0.329508 0.062386
0.000000 0.337198 0.157268
0.012249 0.341189 0.250466
0.000000 0.343204 0.341545
0.000000 0.349137 0.440380
0.000000 0.358997 0.533584
0.000000 0.361076 0.613329
0.000000 0.380523 0.700715
0.000000 0.411578 0.759052
0.021424 0.457526 0.104206
0.002056 0.459444 0.189723
0.039225 0.469242 0.283248
0.000000 0.467306 0.372555
0.000000 0.473230 0.475468
0.000000 0.481162 0.572584
0.000000 0.490967 0.658114
0.000000 0.489134 0.726149
0.000000 0.489168 0.796105
0.115546 0.589660 0.156646
0.174186 0.583860 0.229817
0.167455 0.595545 0.325665
0.076732 0.601416 0.426865
0.000000 0.605322 0.510404
0.000000 0.613151 0.611424
0.000000 0.615205 0.696988
0.000000 0.624975 0.778723
0.000000 0.619223 0.831209
0.244195 0.638357 0.197709
0.194454 0.667470 0.276429
0.165842 0.702445 0.352464
0.251306 0.718081 0.450014
0.244911 0.722035 0.547338
0.122155 0.714272 0.648448
0.000000 0.749290 0.743736
0.000000 0.731898 0.796274
0.000000 0.749461 0.885744
0.315438 0.675371 0.232865
0.165842 0.702445 0.352464
0.282667 0.770653 0.426555
0.314441 0.790091 0.473300
0.334182 0.809591 0.570624
0.196270 0.792079 0.704802
0.212960 0.801841 0.734100
0.074949 0.803810 0.842935
0.000000 0.852484 0.936323
0.397921 0.722087 0.240341
0.282667 0.770653 0.426555
0.350178 0.792113 0.482954
0.369938 0.827112 0.566679
0.371836 0.825167 0.584158
0.373832 0.823247 0.591954
0.174445 0.819433 0.829362
0.112641 0.881694 0.930539
0.063252 0.899174 0.953864
0.067659 0.000000 0.000000
0.078034 0.010010 0.065452
0.072340 0.000000 0.163532
0.059999 0.017136 0.253963
0.092993 0.056684 0.331443
0.076060 0.091941 0.407115
0.036990 0.121022 0.473072
0.071815 0.171261 0.529421
0.000000 0.208065 0.597513
0.100426 0.088100 0.000000
0.095178 0.097925 0.095952
0.092412 0.107568 0.188292
0.078545 0.113301 0.281096
0.059179 0.117239 0.374127
0.006174 0.125048 0.465292
0.009867 0.175126 0.527513
0.000000 0.213944 0.599405
0.000000 0.254691 0.657802
0.130710 0.203876 0.029968
0.129163 0.217385 0.130568
0.114735 0.225124 0.223425
0.097636 0.227232 0.316218
0.073472 0.233139 0.405366
0.041794 0.242914 0.492647
0.000000 0.244932 0.574307
0.000000 0.275929 0.642376
0.000000 0.320525 0.694795
0.169360 0.333528 0.057679
0.162592 0.337410 0.163099
0.150510 0.350986 0.256278
0.129832 0.349139 0.353223
0.104015 0.351146 0.450164
0.067392 0.362943 0.535567
0.000000 0.355242 0.615176
0.000000 0.361170 0.685125
0.000000 0.396086 0.739620
0.213228 0.453830 0.102137
0.211571 0.465462 0.199376
0.207513 0.480973 0.294734
0.185822 0.477151 0.388104
0.155946 0.488847 0.485124
0.129917 0.486999 0.580340
0.065246 0.498724 0.661980
0.000000 0.510470 0.743626
0.000000 0.475612 0.809706
0.270907 0.580092 0.156632
0.273064 0.595613 0.231720
0.259311 0.601448 0.329530
0.239158 0.607284 0.428783
0.226717 0.615133 0.525921
0.248109 0.644407 0.632832
0.153082 0.634682 0.706704
0.052470 0.621117 0.774807
0.001192 0.623144 0.840902
0.327066 0.669508 0.217282
0.329145 0.681192 0.242803
0.323546 0.698728 0.364372
0.327080 0.722072 0.448156
0.303779 0.716187 0.537576
0.264782 0.714312 0.654211
0.257676 0.731891 0.736036
0.154001 0.743575 0.819662
0.030988 0.737777 0.889613
0.397921 0.722087 0.240341
0.397921 0.722087 0.240341
0.322961 0.745397 0.436389
0.374057 0.792072 0.488810
0.374156 0.817389 0.564750
0.297632 0.805748 0.697088
0.280766 0.832995 0.753473
0.172047 0.815484 0.852729
0.000000 0.831119 0.944164
0.468382 0.759072 0.281575
0.425243 0.760980 0.315127
0.357792 0.792130 0.484959
0.405481 0.829077 0.562758
0.407405 0.834906 0.593922
0.419071 0.852450 0.617243
0.327865 0.883621 0.860455
0.265573 0.905047 0.934443
0.183557 0.982903 0.983144
0.199154 0.000000 0.000000
0.188485 0.000000 0.067295
0.158587 0.000000 0.155572
0.183746 0.041283 0.273390
0.204494 0.050232 0.323795
0.179934 0.100947 0.424635
0.194705 0.120110 0.484830
0.283239 0.166454 0.560616
0.331789 0.218991 0.626752
0.209910 0.101574 0.005537
0.209459 0.109232 0.105519
0.203946 0.110935 0.196158
0.197779 0.116714 0.290872
0.179207 0.126627 0.376166
0.190745 0.128100 0.494511
0.203857 0.165115 0.531485
0.275175 0.188055 0.585876
0.339633 0.240238 0.657847
0.238272 0.215654 0.041500
0.236858 0.223341 0.142075
0.227776 0.229186 0.229140
0.221626 0.240783 0.322070
0.202713 0.236911 0.407280
0.187441 0.244793 0.510214
0.180958 0.252596 0.597633
0.204421 0.326201 0.648185
0.000000 0.366998 0.696892
0.269081 0.341436 0.073632
0.265691 0.349226 0.172593
0.260224 0.355044 0.265882
0.252257 0.360906 0.358918
0.235934 0.364790 0.450138
0.215336 0.364863 0.533588
0.208871 0.384305 0.638529
0.117423 0.413491 0.710426
0.053169 0.436768 0.753194
0.299527 0.461704 0.109477
0.300078 0.469446 0.197311
0.294391 0.477200 0.294733
0.282940 0.483107 0.395885
0.268376 0.492786 0.483229
0.253959 0.487094 0.574504
0.230572 0.504599 0.663937
0.193399 0.522158 0.755288
0.129150 0.526077 0.833055
0.347791 0.591808 0.141751
0.328326 0.584003 0.231731
0.355960 0.619023 0.341151
0.322770 0.607368 0.424828
0.328378 0.611304 0.533689
0.300420 0.615245 0.619212
0.247731 0.623029 0.693093
0.233713 0.626973 0.784506
0.035420 0.603739 0.864256
0.386025 0.708488 0.220814
0.407981 0.712373 0.262181
0.370913 0.724014 0.387590
0.388721 0.718211 0.467562
0.390590 0.729954 0.559004
0.362934 0.726033 0.650365
0.340526 0.739703 0.730085
0.287154 0.733879 0.827269
0.223798 0.749475 0.899313
0.427267 0.731803 0.250129
0.468382 0.759072 0.281575
0.474385 0.753243 0.317110
0.419594 0.786269 0.514122
0.433131 0.825258 0.576440
0.448803 0.838866 0.667803
0.379177 0.831139 0.771024
0.360103 0.883621 0.872118
0.285846 0.872050 0.973420
0.505533 0.766890 0.305149
0.546422 0.794130 0.342299
0.423129 0.794089 0.449832
0.417166 0.829132 0.556957
0.481308 0.918677 0.630816
0.488933 0.973151 0.693107
0.395773 0.934214 0.841044
0.407767 0.926461 0.905204
0.362415 0.969297 0.983070
0.307293 0.000000 0.000000
0.312716 0.022397 0.088308
0.315145 0.037514 0.171088
0.278858 0.057937 0.238688
0.276847 0.089885 0.368404
0.268712 0.117565 0.418904
0.210601 0.123928 0.498373
0.285153 0.166396 0.560541
0.351591 0.218866 0.630641
0.336305 0.113842 0.017628
0.336305 0.115821 0.113121
0.329224 0.125696 0.209707
0.329421 0.140952 0.302561
0.333202 0.134819 0.413084
0.290183 0.174305 0.461576
0.300716 0.171940 0.564496
0.331789 0.218991 0.626752
0.404251 0.267167 0.686984
0.354145 0.229261 0.055260
0.356471 0.234911 0.149712
0.347274 0.242663 0.240679
0.347460 0.248496 0.333794
0.331710 0.234709 0.403433
0.331191 0.254204 0.514069
0.309006 0.263942 0.589867
0.339633 0.240238 0.657847
0.398283 0.290750 0.712263
0.383579 0.353250 0.085248
0.378124 0.355188 0.178273
0.372578 0.358966 0.269656
0.361006 0.362853 0.362832
0.360948 0.376498 0.461892
0.343242 0.380418 0.551115
0.320868 0.376533 0.624970
0.321898 0.388187 0.698834
0.291633 0.436762 0.747482
0.405039 0.475421 0.131780
0.405280 0.477352 0.210884
0.403503 0.487075 0.298590
0.393890 0.487083 0.399777
0.391973 0.492897 0.494903
0.378134 0.508465 0.591993
0.361629 0.510450 0.671694
0.354841 0.520214 0.772825
0.278654 0.518284 0.794162
0.451152 0.603634 0.135307
0.439808 0.607488 0.241253
0.434277 0.607455 0.335213
0.438531 0.623005 0.436487
0.422584 0.619195 0.541614
0.414904 0.630856 0.621195
0.396612 0.636716 0.716461
0.372501 0.634776 0.792261
0.321262 0.650390 0.887610
0.489939 0.687184 0.192986
0.482242 0.714373 0.275983
0.488380 0.718313 0.364130
0.490473 0.724113 0.449953
0.467190 0.741595 0.570665
0.455332 0.731923 0.654168
0.450994 0.751396 0.739810
0.405448 0.751438 0.829323
0.364983 0.751443 0.909100
0.472318 0.737690 0.256036
0.507477 0.766892 0.307034
0.548302 0.796091 0.346188
0.511812 0.784430 0.496668
0.509661 0.825278 0.582150
0.513470 0.846643 0.685370
0.497759 0.844794 0.763279
0.445960 0.860390 0.864348
0.431787 0.868147 0.942194
0.564126 0.766970 0.291204
0.558250 0.800060 0.363747
0.579847 0.805881 0.426327
0.546696 0.833050 0.570507
0.554280 0.889525 0.652272
0.546269 0.918689 0.685357
0.546143 0.924486 0.763125
0.492766 0.955700 0.887757
0.446300 0.975183 0.981189
0.424862 0.000000 0.000000
0.432523 0.015901 0.086263
0.429600 0.087224 0.221476
0.431696 0.101421 0.265948
0.462954 0.133124 0.349205
0.387360 0.145790 0.446110
0.308892 0.156469 0.543161
0.302693 0.172000 0.564548
0.351591 0.218866 0.630641
0.455997 0.130401 0.028678
0.452495 0.135942 0.128583
0.458784 0.143487 0.223360
0.449403 0.141158 0.312357
0.445884 0.185176 0.415137
0.422434 0.200845 0.479171
0.367237 0.208753 0.611191
0.388555 0.216602 0.636406
0.425672 0.273078 0.694817
0.477822 0.242393 0.072683
0.476316 0.246289 0.153487
0.474859 0.252082 0.252425
0.469310 0.257823 0.345397
0.451866 0.265466 0.436546
0.461557 0.267164 0.525768
0.455477 0.290679 0.605379
0.435551 0.278946 0.694814
0.441143 0.319866 0.755138
0.476416 0.347456 0.082784
0.492298 0.368760 0.189909
0.486861 0.370618 0.281358
0.485214 0.378314 0.376437
0.477646 0.380317 0.465741
0.469683 0.384210 0.556989
0.469528 0.399699 0.644374
0.459425 0.428839 0.714463
0.485879 0.360575 0.786278
0.505810 0.467825 0.108729
0.504135 0.469710 0.210810
0.518091 0.492952 0.314257
0.512523 0.498803 0.409415
0.506858 0.508528 0.508576
0.502871 0.522079 0.603688
0.490865 0.518219 0.683283
0.471138 0.522171 0.757319
0.445053 0.529939 0.844789
0.548525 0.599874 0.155842
0.564378 0.623147 0.258759
0.549114 0.617226 0.348837
0.549264 0.627005 0.444231
0.535941 0.630874 0.543419
0.533840 0.636776 0.638770
0.521956 0.644496 0.720349
0.502199 0.648418 0.803925
0.468487 0.648496 0.874004
0.585316 0.718390 0.169500
0.585582 0.726129 0.289497
0.570279 0.726176 0.367975
0.570457 0.730006 0.469362
0.568706 0.743649 0.566752
0.557099 0.745614 0.658186
0.552994 0.749549 0.749573
0.535128 0.755411 0.827385
0.495369 0.761283 0.930467
0.631958 0.763152 0.215820
0.612779 0.770889 0.304911
0.575708 0.805844 0.383383
0.605277 0.809748 0.480886
0.595797 0.835097 0.588114
0.579982 0.862288 0.687266
0.593658 0.854591 0.772995
0.583525 0.883707 0.856597
0.554071 0.856544 0.938356
0.707997 0.805985 0.257153
0.676979 0.807880 0.330316
0.690853 0.860419 0.486591
0.692989 0.858508 0.552921
0.653900 0.930397 0.611235
0.606891 0.940183 0.704800
0.624673 0.946007 0.782584
0.597143 0.959630 0.899439
0.563177 0.977138 0.981143
0.535195 0.000000 0.000000
0.562539 0.050954 0.103441
0.535871 0.094856 0.192454
0.540272 0.127841 0.295046
0.536554 0.141567 0.360863
0.583360 0.150845 0.430682
0.664957 0.214239 0.487093
0.369305 0.208763 0.611142
0.388555 0.216602 0.636406
0.574250 0.150398 0.048389
0.578453 0.150024 0.141910
0.580809 0.158004 0.231146
0.577453 0.197644 0.343463
0.595018 0.179153 0.423001
0.591328 0.225105 0.486938
0.510031 0.255229 0.556849
0.443164 0.271028 0.692900
0.448911 0.276907 0.700728
0.566924 0.241877 0.070342
0.592469 0.255471 0.168812
0.588955 0.264893 0.262064
0.579588 0.270735 0.353173
0.574008 0.270679 0.436625
0.583869 0.280356 0.537529
0.560605 0.317601 0.628820
0.531169 0.329187 0.704603
0.511433 0.344978 0.770738
0.608227 0.370569 0.098504
0.608539 0.380231 0.199387
0.608792 0.385949 0.289085
0.605163 0.391701 0.387985
0.611062 0.391642 0.485165
0.593957 0.409304 0.574539
0.595871 0.407274 0.652174
0.580021 0.418874 0.727977
0.562187 0.409204 0.846591
0.606519 0.471664 0.121007
0.626376 0.494986 0.224277
0.630512 0.510454 0.329515
0.626832 0.512350 0.419103
0.623165 0.520147 0.516216
0.625171 0.533767 0.613472
0.623238 0.525931 0.689168
0.607474 0.533727 0.774771
0.609099 0.545353 0.833131
0.651403 0.605796 0.153397
0.651749 0.617405 0.254973
0.653990 0.623211 0.354702
0.654194 0.632913 0.448192
0.650436 0.638757 0.551217
0.642677 0.644572 0.644586
0.638847 0.648443 0.724256
0.613404 0.648452 0.809901
0.611275 0.662064 0.883751
0.680723 0.724317 0.208049
0.682829 0.732051 0.293310
0.683152 0.741773 0.381598
0.681392 0.751549 0.483057
0.669724 0.753425 0.576398
0.669800 0.759270 0.671776
0.662134 0.757350 0.757343
0.650294 0.763170 0.837115
0.628639 0.769029 0.946051
0.699790 0.794268 0.131920
0.712005 0.811839 0.310586
0.706291 0.813707 0.387078
0.708513 0.868214 0.502208
0.681393 0.856535 0.595810
0.695178 0.872084 0.691126
0.689349 0.870151 0.782668
0.677611 0.866300 0.868244
0.659775 0.887719 0.965535
0.777874 0.858529 0.272252
0.781994 0.870241 0.312003
0.770362 0.883810 0.390559
0.759009 0.899390 0.504180
0.700717 0.926551 0.613269
0.712506 0.949932 0.698884
0.698797 0.969340 0.805943
0.720235 0.971364 0.899374
0.686718 0.983056 0.983024
0.667181 0.052277 0.032867
0.638209 0.043279 0.107084
0.652167 0.076486 0.196322
0.648728 0.116445 0.295102
0.649105 0.162073 0.380343
0.583360 0.150845 0.430682
0.664957 0.214239 0.487093
0.560502 0.270439 0.595741
0.443164 0.271028 0.692900
0.663600 0.183195 0.055945
0.687115 0.160116 0.151535
0.693323 0.167621 0.250499
0.693635 0.173494 0.339607
0.672730 0.212171 0.440444
0.664957 0.214239 0.487093
0.702222 0.298950 0.562760
0.578081 0.323254 0.634596
0.523338 0.343041 0.745482
0.706774 0.278184 0.107112
0.699207 0.278125 0.182239
0.699502 0.279997 0.267864
0.697847 0.287774 0.362927
0.682644 0.287673 0.450249
0.711957 0.312922 0.560867
0.671320 0.340545 0.621132
0.679245 0.401139 0.691096
0.568108 0.403345 0.809645
0.710899 0.389737 0.109188
0.717116 0.391604 0.204945
0.715434 0.399451 0.298686
0.715758 0.403271 0.395797
0.714109 0.410979 0.494916
0.684957 0.389449 0.560909
0.716109 0.416707 0.669827
0.689028 0.440154 0.730076
0.624600 0.471406 0.854440
0.732729 0.508516 0.152443
0.738787 0.518176 0.247412
0.733265 0.522076 0.335393
0.735412 0.520034 0.428739
0.731904 0.531702 0.527885
0.737813 0.533597 0.619251
0.731978 0.547220 0.710626
0.731902 0.545219 0.784454
0.710404 0.543300 0.872054
0.752504 0.621363 0.178989
0.756563 0.627165 0.272317
0.749160 0.632962 0.360300
0.755084 0.642648 0.463703
0.753466 0.650427 0.560997
0.747818 0.650404 0.648447
0.747758 0.660121 0.735991
0.741844 0.656242 0.823526
0.735947 0.662052 0.901256
0.768140 0.724364 0.205718
0.768337 0.724337 0.293191
0.762670 0.734089 0.377634
0.774700 0.747678 0.486869
0.774848 0.755459 0.582214
0.769066 0.759327 0.681534
0.765097 0.767073 0.765123
0.759394 0.774849 0.844842
0.745737 0.776849 0.926647
0.783700 0.825482 0.222568
0.791656 0.841056 0.306226
0.795716 0.846837 0.398706
0.801792 0.868256 0.494420
0.803964 0.862364 0.603550
0.806079 0.874068 0.706719
0.782836 0.876071 0.788472
0.784857 0.876054 0.874073
0.772910 0.885803 0.957786
0.816824 0.883880 0.267938
0.816837 0.895539 0.303879
0.822808 0.920813 0.396244
0.823205 0.930514 0.502018
0.809783 0.946088 0.587785
0.813845 0.971347 0.716355
0.796323 0.959729 0.796262
0.800087 0.955854 0.895588
0.782450 0.979188 0.979232
0.787838 0.103068 0.088235
0.772243 0.044076 0.128200
0.772627 0.136331 0.205810
0.767249 0.176477 0.295116
0.726625 0.168451 0.353254
0.690170 0.212065 0.446374
0.664957 0.214239 0.487093
0.781811 0.300365 0.564791
0.618823 0.332884 0.634633
0.739380 0.168862 0.111741
0.782341 0.187074 0.160987
0.790466 0.200395 0.254372
0.781154 0.219116 0.347407
0.767716 0.219134 0.411413
0.773978 0.280771 0.531704
0.781811 0.300365 0.564791
0.783976 0.367372 0.632825
0.681187 0.401136 0.691134
0.811661 0.300850 0.122678
0.800169 0.289042 0.189871
0.806210 0.294729 0.279425
0.808504 0.304520 0.380376
0.795138 0.304457 0.467678
0.809087 0.331767 0.572658
0.828587 0.361112 0.621226
0.737611 0.406803 0.679487
0.689028 0.440154 0.730076
0.812045 0.399189 0.145381
0.820031 0.410828 0.218580
0.816378 0.420494 0.312223
0.822502 0.422297 0.405540
0.830549 0.430025 0.500782
0.826830 0.433856 0.599773
0.823007 0.457242 0.669864
0.782405 0.480814 0.731981
0.815608 0.556818 0.811743
0.837543 0.514201 0.156003
0.841728 0.521982 0.249372
0.838094 0.525861 0.343091
0.840281 0.539451 0.440419
0.840528 0.541260 0.533709
0.834836 0.549038 0.627055
0.842718 0.576266 0.700952
0.829111 0.564569 0.796176
0.866207 0.585883 0.875928
0.855313 0.638783 0.174339
0.849796 0.642635 0.283922
0.853967 0.644571 0.373982
0.856159 0.658143 0.469480
0.862107 0.654232 0.570660
0.852573 0.663943 0.663967
0.848792 0.669783 0.743755
0.858466 0.677535 0.839140
0.848818 0.689173 0.926518
0.865357 0.741922 0.235368
0.867505 0.745762 0.304934
0.869586 0.747685 0.394981
0.871879 0.757440 0.492650
0.870002 0.765140 0.591919
0.874157 0.772913 0.685400
0.866388 0.774900 0.773018
0.860498 0.771001 0.848821
0.868381 0.790404 0.942147
0.878948 0.825518 0.210216
0.883035 0.844984 0.306144
0.890962 0.852739 0.402576
0.885412 0.852708 0.496416
0.887513 0.864346 0.599592
0.889599 0.874104 0.700797
0.885915 0.874048 0.800084
0.882059 0.883831 0.885789
0.876136 0.893535 0.963611
0.832383 0.876093 0.263877
0.902612 0.938394 0.339156
0.898892 0.930603 0.394266
0.902936 0.946152 0.494195
0.902968 0.957791 0.607253
0.915010 0.977267 0.722312
0.895695 0.965595 0.817720
0.909252 0.973401 0.905269
0.897567 0.981163 0.981162
0.793715 0.133688 0.107947
0.832727 0.115203 0.176606
0.889147 0.125930 0.205588
0.973309 0.244590 0.322166
0.839419 0.246457 0.368750
0.767689 0.219114 0.413418
0.777839 0.280727 0.531731
0.781811 0.300365 0.564791
0.787851 0.369331 0.632761
0.815366 0.208774 0.154901
0.881570 0.227833 0.201613
0.903061 0.225377 0.256155
0.948287 0.290955 0.372649
0.878632 0.307818 0.436737
0.824293 0.300046 0.510339
0.809060 0.323809 0.584194
0.882984 0.390182 0.642516
0.737611 0.406803 0.679487
0.846766 0.355798 0.159755
0.891461 0.302022 0.215060
0.932545 0.337353 0.300664
0.971801 0.366423 0.403586
0.908003 0.366805 0.489120
0.898557 0.382463 0.619291
0.882984 0.390182 0.642516
0.904627 0.454961 0.685331
0.854330 0.498247 0.741801
0.899478 0.426143 0.160922
0.911295 0.441749 0.237640
0.942586 0.449300 0.329485
0.956460 0.451105 0.424927
0.964581 0.478404 0.525948
0.968712 0.480252 0.623124
0.929879 0.464681 0.693113
0.943706 0.517406 0.753472
0.945747 0.583811 0.825468
0.897867 0.529754 0.187832
0.948504 0.543185 0.266479
0.962360 0.564597 0.360332
0.962683 0.576194 0.461717
0.960862 0.570319 0.551207
0.969004 0.587808 0.646457
0.965034 0.579920 0.734008
0.980783 0.591578 0.802082
0.967225 0.636452 0.868247
0.975806 0.667951 0.177592
0.941090 0.656252 0.291482
0.978298 0.700935 0.395154
0.962934 0.669759 0.477178
0.961136 0.671613 0.578260
0.971031 0.677483 0.667867
0.975042 0.691095 0.759274
0.979088 0.694883 0.842920
0.980811 0.706570 0.951931
0.958643 0.753553 0.229043
0.962757 0.759422 0.316595
0.974456 0.767143 0.400856
0.974755 0.772978 0.500416
0.976973 0.780732 0.597836
0.979002 0.794331 0.696987
0.979149 0.788478 0.786492
0.981082 0.800098 0.862453
0.977201 0.804006 0.961678
0.982062 0.837252 0.276368
0.978195 0.856685 0.323529
0.980492 0.866430 0.412207
0.980791 0.872251 0.511844
0.980823 0.876131 0.613265
0.979168 0.881936 0.714617
0.981066 0.891596 0.805934
0.979346 0.893556 0.891586
0.981209 0.907185 0.975339
0.968465 0.887869 0.231168
0.982305 0.934477 0.350795
0.974620 0.942250 0.421443
0.982699 0.967604 0.515498
0.980874 0.977273 0.620975
0.981111 0.979236 0.722203
0.981218 0.979231 0.819602
0.981195 0.981143 0.909086
0.981164 0.981163 0.981163
