outputs/first_method/lut_33.cube
# 3D LUT for Classic Chrome Film Simulation (Bias Corrected)
# Generated from pixel comparison data with +1.489 L* bias correction
TITLE "Classic Chrome LUT - Corrected"
LUT_3D_SIZE 5
0.000000 0.000000 0.000000
0.000000 0.000000 0.157874
0.000000 0.037917 0.346885
0.000000 0.105670 0.467197
0.000000 0.213944 0.599405
0.014099 0.203527 0.025254
0.000000 0.209561 0.209816
0.000000 0.227318 0.403394
0.000000 0.246849 0.580041
0.000000 0.310829 0.700639
0.021424 0.457526 0.104206
0.039225 0.469242 0.283248
0.000000 0.473230 0.475468
0.000000 0.490967 0.658114
0.000000 0.489168 0.796105
0.244195 0.638357 0.197709
0.165842 0.702445 0.352464
0.244911 0.722035 0.547338
0.000000 0.749290 0.743736
0.000000 0.749461 0.885744
0.397921 0.722087 0.240341
0.350178 0.792113 0.482954
0.371836 0.825167 0.584158
0.174445 0.819433 0.829362
0.063252 0.899174 0.953864
0.199154 0.000000 0.000000
0.158587 0.000000 0.155572
0.204494 0.050232 0.323795
0.194705 0.120110 0.484830
0.331789 0.218991 0.626752
0.238272 0.215654 0.041500
0.227776 0.229186 0.229140
0.202713 0.236911 0.407280
0.180958 0.252596 0.597633
0.000000 0.366998 0.696892
0.299527 0.461704 0.109477
0.294391 0.477200 0.294733
0.268376 0.492786 0.483229
0.230572 0.504599 0.663937
0.129150 0.526077 0.833055
0.386025 0.708488 0.220814
0.370913 0.724014 0.387590
0.390590 0.729954 0.559004
0.340526 0.739703 0.730085
0.223798 0.749475 0.899313
0.505533 0.766890 0.305149
0.423129 0.794089 0.449832
0.481308 0.918677 0.630816
0.395773 0.934214 0.841044
0.362415 0.969297 0.983070
0.424862 0.000000 0.000000
0.429600 0.087224 0.221476
0.462954 0.133124 0.349205
0.308892 0.156469 0.543161
0.351591 0.218866 0.630641
0.477822 0.242393 0.072683
0.474859 0.252082 0.252425
0.451866 0.265466 0.436546
0.455477 0.290679 0.605379
0.441143 0.319866 0.755138
0.505810 0.467825 0.108729
0.518091 0.492952 0.314257
0.506858 0.508528 0.508576
0.490865 0.518219 0.683283
0.445053 0.529939 0.844789
0.585316 0.718390 0.169500
0.570279 0.726176 0.367975
0.568706 0.743649 0.566752
0.552994 0.749549 0.749573
0.495369 0.761283 0.930467
0.707997 0.805985 0.257153
0.690853 0.860419 0.486591
0.653900 0.930397 0.611235
0.624673 0.946007 0.782584
0.563177 0.977138 0.981143
0.667181 0.052277 0.032867
0.652167 0.076486 0.196322
0.649105 0.162073 0.380343
0.664957 0.214239 0.487093
0.443164 0.271028 0.692900
0.706774 0.278184 0.107112
0.699502 0.279997 0.267864
0.682644 0.287673 0.450249
0.671320 0.340545 0.621132
0.568108 0.403345 0.809645
0.732729 0.508516 0.152443
0.733265 0.522076 0.335393
0.731904 0.531702 0.527885
0.731978 0.547220 0.710626
0.710404 0.543300 0.872054
0.768140 0.724364 0.205718
0.762670 0.734089 0.377634
0.774848 0.755459 0.582214
0.765097 0.767073 0.765123
0.745737 0.776849 0.926647
0.816824 0.883880 0.267938
0.822808 0.920813 0.396244
0.809783 0.946088 0.587785
0.796323 0.959729 0.796262
0.782450 0.979188 0.979232
0.793715 0.133688 0.107947
0.889147 0.125930 0.205588
0.839419 0.246457 0.368750
0.777839 0.280727 0.531731
0.787851 0.369331 0.632761
0.846766 0.355798 0.159755
0.932545 0.337353 0.300664
0.908003 0.366805 0.489120
0.882984 0.390182 0.642516
0.854330 0.498247 0.741801
0.897867 0.529754 0.187832
0.962360 0.564597 0.360332
0.960862 0.570319 0.551207
0.965034 0.579920 0.734008
0.967225 0.636452 0.868247
0.958643 0.753553 0.229043
0.974456 0.767143 0.400856
0.976973 0.780732 0.597836
0.979149 0.788478 0.786492
0.977201 0.804006 0.961678
0.968465 0.887869 0.231168
0.974620 0.942250 0.421443
0.980874 0.977273 0.620975
0.981218 0.979231 0.819602
0.981164 0.981163 0.981163
