outputs/first_method/lut_33.cube
# 3D LUT for Classic Chrome Film Simulation (Bias Corrected)
# Generated from pixel comparison data with +1.489 L* bias correction
TITLE "Classic Chrome LUT - Corrected"
LUT_3D_SIZE 33
0.000000 0.000000 0.000000
0.000000 0.000111 0.004034
0.000000 0.000000 0.019291
0.000000 0.000000 0.033733
0.000000 0.000000 0.056455
0.000000 0.000000 0.083722
0.000000 0.000000 0.112010
0.000000 0.000000 0.138786
0.000000 0.000000 0.157874
0.000000 0.000000 0.184702
0.000000 0.000000 0.203982
0.000000 0.000000 0.221249
0.000000 0.000000 0.246396
0.000000 0.000000 0.269574
0.000000 0.006155 0.283047
0.000000 0.026693 0.323588
0.000000 0.037917 0.346885
0.000000 0.050919 0.368281
0.000000 0.054716 0.406993
0.000000 0.054716 0.406993
0.000000 0.054716 0.406993
0.000000 0.056836 0.408930
0.000000 0.088163 0.434227
0.000000 0.105655 0.461411
0.000000 0.105670 0.467197
0.000000 0.123040 0.484750
0.000000 0.136593 0.506124
0.000000 0.150069 0.508038
0.000000 0.175136 0.527500
0.000000 0.186885 0.545066
0.000000 0.188876 0.560569
0.000000 0.208087 0.578106
0.000000 0.213944 0.599405
0.000000 0.001658 0.000000
0.000000 0.001527 0.003504
0.000000 0.003002 0.012988
0.000000 0.004117 0.032123
0.000000 0.006078 0.063171
0.000000 0.006079 0.086324
0.000000 0.003869 0.111902
0.000000 0.003524 0.144415
0.000000 0.009080 0.159652
0.000000 0.010983 0.184670
0.000000 0.013108 0.207836
0.000000 0.001086 0.228998
0.000000 0.015969 0.254076
0.000000 0.022512 0.275322
0.000000 0.008657 0.288850
0.000000 0.017311 0.313939
0.000000 0.050919 0.368281
0.000000 0.059385 0.362474
0.000000 0.059044 0.399286
0.000000 0.054716 0.406993
0.000000 0.056836 0.408930
0.000000 0.088163 0.434227
0.000000 0.105655 0.461411
0.000000 0.105670 0.467197
0.000000 0.123040 0.484750
0.000000 0.136593 0.506124
0.000000 0.152052 0.510020
0.000000 0.175192 0.527542
0.000000 0.186909 0.545041
0.000000 0.188876 0.560569
0.000000 0.208087 0.578106
0.000000 0.213944 0.599405
0.000000 0.215935 0.611108
0.000000 0.016570 0.000000
0.000000 0.016552 0.004068
0.000000 0.021038 0.023187
0.000000 0.025386 0.042822
0.000000 0.032140 0.069837
0.000000 0.029702 0.096402
0.000000 0.038379 0.119360
0.000000 0.038143 0.134602
0.000000 0.033303 0.171101
0.000000 0.039680 0.188375
0.000000 0.044306 0.213452
0.000000 0.043488 0.234710
0.000000 0.039394 0.261695
0.000000 0.049713 0.282911
0.000000 0.059650 0.304266
0.000000 0.059554 0.327580
0.000000 0.063476 0.352718
0.000000 0.067328 0.375989
0.000000 0.074770 0.403132
0.000000 0.058989 0.408996
0.000000 0.084060 0.434234
0.000000 0.105655 0.461411
0.000000 0.105670 0.467197
0.000000 0.123080 0.486748
0.000000 0.136593 0.506124
0.000000 0.150128 0.510010
0.000000 0.175191 0.529423
0.000000 0.186918 0.547063
0.000000 0.188876 0.560569
0.000000 0.208087 0.578106
0.000000 0.213944 0.599405
0.000000 0.215935 0.611108
0.000000 0.241053 0.634459
0.000000 0.047907 0.000000
0.000000 0.047936 0.008002
0.000000 0.053364 0.032036
0.000000 0.055942 0.055869
0.000000 0.055940 0.075971
0.000000 0.063015 0.101919
0.000000 0.067324 0.122958
0.000000 0.069345 0.149833
0.000000 0.071347 0.172992
0.000000 0.064904 0.198002
0.000000 0.067909 0.217292
0.000000 0.068490 0.236631
0.000000 0.078884 0.267491
0.000000 0.084631 0.290744
0.000000 0.086576 0.319773
0.000000 0.088574 0.345047
0.000000 0.090418 0.358626
0.000000 0.094379 0.379949
0.000000 0.090313 0.399341
0.000000 0.098143 0.438098
0.000000 0.107556 0.451750
0.000000 0.105670 0.467197
0.000000 0.121062 0.488660
0.000000 0.136593 0.506124
0.000000 0.148159 0.508140
0.000000 0.175186 0.529463
0.000000 0.188860 0.548933
0.000000 0.188876 0.560569
0.000000 0.206162 0.580041
0.000000 0.213944 0.599405
0.000000 0.215935 0.611108
0.000000 0.241053 0.634459
0.000000 0.246927 0.646206
0.000000 0.079971 0.000000
0.000000 0.081844 0.016559
0.000000 0.081832 0.038553
0.000000 0.088711 0.069759
0.000000 0.086424 0.086046
0.000000 0.088491 0.107485
0.000000 0.090370 0.130544
0.000000 0.096164 0.151636
0.000000 0.101727 0.182496
0.000000 0.101819 0.207695
0.000000 0.100010 0.230857
0.000000 0.107748 0.252089
0.000000 0.107759 0.273402
0.000000 0.105874 0.298560
0.000000 0.105983 0.321845
0.000000 0.113472 0.350818
0.000000 0.109665 0.370179
0.000000 0.119297 0.391614
0.000000 0.125191 0.414869
0.000000 0.117272 0.440051
0.000000 0.125138 0.465365
0.000000 0.125064 0.494494
0.000000 0.136593 0.506124
0.000000 0.148159 0.508140
0.000000 0.177162 0.529478
0.000000 0.188862 0.548902
0.000000 0.188876 0.560569
0.000000 0.206162 0.580041
0.000000 0.213944 0.599405
0.000000 0.215935 0.611108
0.000000 0.241053 0.634459
0.000000 0.246927 0.646206
0.000000 0.254691 0.657802
0.000000 0.111334 0.000343
0.000115 0.116362 0.030363
0.000000 0.111097 0.048174
0.000000 0.116117 0.076191
0.000768 0.117502 0.099728
0.000000 0.115671 0.111281
0.000000 0.118943 0.134405
0.000000 0.120797 0.163262
0.000000 0.124768 0.190357
0.000000 0.130599 0.211660
0.000000 0.130669 0.240591
0.000000 0.128819 0.261820
0.000000 0.136576 0.283069
0.000000 0.136652 0.308282
0.000000 0.138572 0.331641
0.000000 0.129026 0.354792
0.000000 0.134834 0.376106
0.000000 0.134831 0.401312
0.000000 0.138635 0.422658
0.000000 0.146300 0.443959
0.000000 0.150181 0.463404
0.000000 0.148165 0.486795
0.000000 0.163783 0.510064
0.000000 0.173294 0.523643
0.000000 0.188862 0.548902
0.000000 0.190816 0.562476
0.000000 0.206162 0.580041
0.000000 0.213978 0.601422
0.000000 0.215935 0.611108
0.000000 0.241053 0.634459
0.000000 0.246914 0.648086
0.000000 0.254682 0.659689
0.000000 0.268142 0.665568
0.002443 0.140191 0.013827
0.006297 0.141957 0.040357
0.000333 0.138118 0.064153
0.004039 0.141866 0.084253
0.007627 0.145734 0.107440
0.005711 0.149610 0.130641
0.000000 0.151533 0.147966
0.000000 0.149678 0.174974
0.000000 0.149769 0.196176
0.000000 0.155594 0.219407
0.000000 0.157607 0.246473
0.000000 0.157613 0.267726
0.000000 0.157702 0.294772
0.000000 0.163587 0.316094
0.000000 0.165580 0.339337
0.000000 0.167513 0.358766
0.000000 0.171376 0.385919
0.000000 0.167581 0.409103
0.000000 0.169533 0.432382
0.000000 0.161839 0.453744
0.000000 0.173357 0.477074
0.000000 0.181128 0.496504
0.000000 0.181079 0.513925
0.000000 0.188913 0.531443
0.000000 0.202358 0.554802
0.000000 0.206142 0.576099
0.000000 0.212006 0.599393
0.000000 0.211989 0.611119
0.000000 0.241053 0.634459
0.000000 0.248851 0.648094
0.000000 0.254682 0.659689
0.000000 0.268158 0.667562
0.000000 0.281789 0.677263
0.006529 0.172612 0.028395
0.011683 0.176574 0.057930
0.002235 0.178469 0.076617
0.002736 0.174691 0.093943
0.000000 0.176599 0.111313
0.000634 0.176621 0.132526
0.000169 0.174760 0.155662
0.000000 0.186267 0.180787
0.000000 0.180595 0.198138
0.000000 0.180650 0.227171
0.000000 0.188432 0.250425
0.000000 0.190418 0.277503
0.000000 0.198178 0.304545
0.000000 0.188574 0.327779
0.000000 0.192503 0.347154
0.000000 0.194478 0.370417
0.000000 0.194544 0.393699
0.000000 0.200338 0.416891
0.000000 0.200375 0.436290
0.000000 0.198502 0.463488
0.000000 0.198484 0.484906
0.000000 0.194728 0.504343
0.000000 0.208137 0.527541
0.000000 0.215878 0.548994
0.000000 0.212033 0.556686
0.000000 0.229470 0.589713
0.000000 0.235261 0.615056
0.000000 0.242981 0.634466
0.000000 0.248843 0.650010
0.000000 0.256636 0.661752
0.000000 0.268158 0.667562
0.000000 0.281789 0.677263
0.000000 0.291490 0.685111
0.014099 0.203527 0.025254
0.002110 0.207478 0.060414
0.000000 0.211300 0.087920
0.000483 0.209392 0.105460
0.000000 0.209424 0.122804
0.000000 0.209458 0.142144
0.005217 0.215284 0.169245
0.004797 0.215313 0.194403
0.000000 0.209561 0.209816
0.000000 0.213404 0.231025
0.000000 0.217358 0.267839
0.000000 0.219353 0.285296
0.000000 0.225246 0.312412
0.000000 0.225276 0.335622
0.000000 0.223363 0.358877
0.000000 0.227288 0.382083
0.000000 0.227318 0.403394
0.000000 0.229302 0.428590
0.000000 0.229328 0.447967
0.000000 0.233257 0.473221
0.000000 0.237131 0.494638
0.000000 0.229418 0.519846
0.000000 0.227496 0.539207
0.000000 0.235234 0.560592
0.000000 0.246849 0.580041
0.000000 0.250778 0.601414
0.000000 0.250808 0.622819
0.000000 0.239083 0.632513
0.000000 0.260467 0.665611
0.000000 0.272057 0.669463
0.000000 0.283721 0.677332
0.000000 0.291490 0.685111
0.000000 0.310829 0.700639
0.016656 0.230604 0.033008
0.013846 0.238389 0.077777
0.005469 0.238372 0.095550
0.000000 0.242234 0.114800
0.000000 0.246144 0.130580
0.000000 0.240403 0.151790
0.003570 0.236587 0.169134
0.009910 0.244316 0.202057
0.002567 0.244354 0.221451
0.000000 0.248201 0.246538
0.000000 0.250173 0.264037
0.000000 0.242546 0.289171
0.000000 0.252219 0.320106
0.000000 0.252301 0.343322
0.000000 0.258109 0.366608
0.000000 0.258191 0.393849
0.000000 0.262118 0.411223
0.000000 0.258290 0.436443
0.000000 0.260240 0.457717
0.000000 0.264149 0.481024
0.000000 0.266115 0.504345
0.000000 0.266142 0.525731
0.000000 0.268091 0.545159
0.000000 0.264214 0.574196
0.000000 0.268109 0.585913
0.000000 0.268100 0.609235
0.000000 0.277851 0.624832
0.000000 0.285622 0.646233
0.000000 0.277888 0.669500
0.000000 0.287621 0.683139
0.000000 0.293388 0.687017
0.000000 0.310829 0.700639
0.000000 0.322455 0.708447
0.011332 0.261600 0.045166
0.006406 0.265515 0.085247
0.008085 0.273257 0.103105
0.002796 0.271349 0.120611
0.000000 0.269401 0.139990
0.001348 0.275191 0.161376
0.000000 0.281035 0.180815
0.013509 0.277214 0.211730
0.009094 0.279127 0.233008
0.000000 0.279197 0.260172
0.000000 0.275364 0.277515
0.000000 0.283104 0.300825
0.000000 0.285100 0.329918
0.000000 0.283231 0.355073
0.000000 0.287136 0.374438
0.000000 0.289159 0.399657
0.000000 0.285265 0.422936
0.000000 0.296973 0.444265
0.000000 0.289284 0.469431
0.000000 0.293141 0.490778
0.000000 0.289311 0.512191
0.000000 0.297083 0.533527
0.000000 0.299043 0.552967
0.000000 0.297191 0.582111
0.000000 0.291425 0.599566
0.000000 0.301069 0.619003
0.000000 0.302993 0.638408
0.000000 0.316628 0.661802
0.000000 0.306941 0.673460
0.000000 0.299169 0.688989
0.000000 0.310829 0.700639
0.000000 0.322455 0.708447
0.000000 0.334089 0.714340
0.006748 0.294549 0.052493
0.007079 0.300388 0.090846
0.000000 0.300373 0.110404
0.003924 0.302350 0.128229
0.000213 0.304273 0.149622
0.000000 0.302350 0.170998
0.000000 0.306201 0.192368
0.000000 0.313993 0.215578
0.014607 0.312080 0.242742
0.000000 0.314014 0.262045
0.000000 0.314072 0.291105
0.000000 0.317981 0.314411
0.000000 0.314125 0.337628
0.000000 0.314174 0.359010
0.000000 0.312332 0.384201
0.000000 0.316200 0.403515
0.000000 0.318180 0.428747
0.000000 0.316289 0.455934
0.000000 0.322126 0.473387
0.000000 0.326028 0.502415
0.000000 0.328066 0.523884
0.000000 0.324229 0.543331
0.000000 0.326169 0.564614
0.000000 0.333936 0.586041
0.000000 0.328129 0.607359
0.000000 0.326249 0.630717
0.000000 0.335907 0.644317
0.000000 0.341801 0.675438
0.000000 0.335956 0.685079
0.000000 0.337954 0.696826
0.000000 0.335982 0.714230
0.000000 0.336006 0.716256
0.000000 0.361195 0.727922
0.025700 0.329508 0.062386
0.038484 0.335300 0.104313
0.012011 0.333321 0.116048
0.000715 0.337214 0.137695
0.000000 0.337198 0.157268
0.000000 0.335324 0.176685
0.000000 0.337222 0.200014
0.000000 0.337286 0.225284
0.012249 0.341189 0.250466
0.021215 0.348944 0.269823
0.000000 0.341196 0.295015
0.000000 0.347023 0.318303
0.000000 0.343204 0.341545
0.000000 0.339358 0.360920
0.000000 0.347177 0.395822
0.000000 0.349147 0.417222
0.000000 0.349137 0.440380
0.000000 0.345279 0.457910
0.000000 0.353103 0.486987
0.000000 0.355085 0.512218
0.000000 0.358997 0.533584
0.000000 0.359015 0.554921
0.000000 0.359018 0.574283
0.000000 0.359079 0.595732
0.000000 0.361076 0.613329
0.000000 0.359129 0.632663
0.000000 0.361126 0.657891
0.000000 0.372718 0.673480
0.000000 0.380523 0.700715
0.000000 0.372841 0.714385
0.000000 0.374735 0.735696
0.000000 0.372822 0.733841
0.000000 0.411578 0.759052
0.012159 0.360534 0.079365
0.035617 0.364359 0.113622
0.009417 0.360532 0.125830
0.009616 0.362467 0.147273
0.007746 0.366305 0.164904
0.000000 0.368247 0.184383
0.001326 0.368254 0.207602
0.000000 0.368267 0.234849
0.003478 0.372193 0.258187
0.021787 0.374110 0.279488
0.000000 0.376063 0.306680
0.000000 0.378071 0.328022
0.000000 0.378080 0.351268
0.000000 0.380094 0.378457
0.000000 0.376223 0.393972
0.000000 0.382060 0.421081
0.000000 0.384065 0.450233
0.000000 0.382167 0.471580
0.000000 0.378328 0.492960
0.000000 0.384115 0.518119
0.000000 0.390006 0.543383
0.000000 0.391996 0.566665
0.000000 0.393952 0.588043
0.000000 0.395911 0.609386
0.000000 0.394024 0.626811
0.000000 0.401775 0.646311
0.000000 0.392097 0.665708
0.000000 0.392097 0.683166
0.000000 0.405672 0.700727
0.000000 0.405729 0.726027
0.000000 0.407725 0.747413
0.000000 0.421259 0.762904
0.000000 0.432941 0.778512
0.009243 0.395405 0.080842
0.021900 0.399263 0.119286
0.008031 0.395437 0.135231
0.023098 0.397347 0.154913
0.010908 0.391542 0.172336
0.000000 0.393507 0.190119
0.000000 0.397369 0.213476
0.012867 0.399309 0.238639
0.000000 0.401289 0.265916
0.000000 0.405161 0.289195
0.001807 0.407083 0.308611
0.018368 0.403254 0.341493
0.021884 0.416920 0.362862
0.005205 0.413013 0.382288
0.000000 0.411102 0.405545
0.000000 0.415029 0.432779
0.000000 0.413173 0.461926
0.000000 0.418997 0.487100
0.000000 0.415127 0.504521
0.000000 0.415152 0.527879
0.000000 0.417131 0.555044
0.000000 0.422986 0.574417
0.000000 0.424996 0.597802
0.000000 0.430814 0.619224
0.000000 0.426888 0.636620
0.000000 0.426963 0.657947
0.000000 0.432787 0.677412
0.000000 0.427021 0.700743
0.000000 0.421191 0.708486
0.000000 0.442568 0.731964
0.000000 0.432896 0.763014
0.000000 0.427106 0.768847
0.000000 0.446473 0.794044
0.020454 0.422593 0.090788
0.032151 0.424507 0.128969
0.006304 0.424520 0.142418
0.011367 0.426480 0.158556
0.000000 0.426508 0.180165
0.026437 0.408976 0.190077
0.006629 0.418726 0.213346
0.026744 0.430404 0.248424
0.014014 0.430411 0.273655
0.000000 0.430381 0.296937
0.011157 0.436240 0.320228
0.012603 0.440129 0.345378
0.008309 0.436318 0.370638
0.000000 0.438264 0.397829
0.000000 0.447963 0.409487
0.000000 0.444094 0.438578
0.000000 0.446132 0.465753
0.000000 0.455882 0.496831
0.000000 0.442270 0.520045
0.000000 0.448140 0.541440
0.000000 0.459841 0.560939
0.000000 0.454038 0.588080
0.000000 0.457961 0.607635
0.000000 0.459906 0.630788
0.000000 0.461841 0.648315
0.000000 0.463818 0.667802
0.000000 0.459990 0.685250
0.000000 0.463886 0.704738
0.000000 0.460000 0.716379
0.000000 0.454215 0.731878
0.000000 0.477483 0.751330
0.000000 0.463949 0.796036
0.000000 0.450405 0.790253
0.021424 0.457526 0.104206
0.000000 0.459447 0.138256
0.013903 0.455577 0.154276
0.015677 0.461370 0.171869
0.002056 0.459444 0.189723
0.000000 0.459432 0.209099
0.014428 0.463332 0.232506
0.004580 0.463389 0.256116
0.039225 0.469242 0.283248
0.012655 0.465362 0.306589
0.000000 0.465315 0.329865
0.021821 0.471192 0.358974
0.000000 0.467306 0.372555
0.000000 0.467337 0.401704
0.000000 0.469282 0.428886
0.000000 0.481004 0.448242
0.000000 0.473230 0.475468
0.000000 0.486930 0.508543
0.000000 0.488903 0.527939
0.000000 0.465565 0.537583
0.000000 0.481162 0.572584
0.000000 0.486979 0.591934
0.000000 0.487055 0.617243
0.000000 0.490893 0.640573
0.000000 0.490967 0.658114
0.000000 0.490974 0.679432
0.000000 0.494874 0.694913
0.000000 0.487156 0.714438
0.000000 0.489134 0.726149
0.000000 0.496868 0.747428
0.000000 0.487182 0.764929
0.000000 0.498884 0.780575
0.000000 0.489168 0.796105
0.000000 0.482730 0.117957
0.000000 0.488565 0.153892
0.000000 0.486662 0.159999
0.018818 0.492495 0.179493
0.018420 0.494411 0.199173
0.038368 0.492495 0.220874
0.027124 0.494457 0.244190
0.010740 0.494455 0.265607
0.000470 0.498345 0.289064
0.019189 0.498344 0.316253
0.002782 0.500317 0.341490
0.000000 0.500309 0.366725
0.000000 0.506180 0.388103
0.004515 0.508114 0.411394
0.000000 0.494552 0.423118
0.000000 0.504288 0.463790
0.000000 0.514021 0.485172
0.039174 0.527624 0.512341
0.005675 0.512178 0.539600
0.018181 0.521921 0.576506
0.000000 0.504409 0.578375
0.000000 0.514173 0.603651
0.000000 0.520021 0.621091
0.000000 0.520053 0.644506
0.000000 0.525918 0.667794
0.000000 0.525898 0.687168
0.000000 0.527896 0.708657
0.000000 0.529849 0.728105
0.000000 0.524052 0.745515
0.000000 0.524023 0.755246
0.000000 0.525963 0.763049
0.000000 0.512491 0.790333
0.000000 0.516349 0.796028
0.127223 0.519706 0.098782
0.021969 0.519678 0.159527
0.000000 0.521586 0.173059
0.000464 0.521635 0.187317
0.043287 0.521608 0.208692
0.058604 0.527473 0.226545
0.103978 0.529425 0.253785
0.099564 0.523615 0.275308
0.000000 0.525537 0.300509
0.000000 0.531368 0.323900
0.000000 0.531378 0.351193
0.000000 0.529443 0.372581
0.000000 0.531382 0.395841
0.000000 0.535335 0.423048
0.000000 0.537314 0.444397
0.000000 0.535393 0.465787
0.000000 0.537333 0.496844
0.000828 0.543191 0.522142
0.000000 0.554859 0.547397
0.023148 0.558777 0.568728
0.000000 0.552965 0.588125
0.000000 0.545270 0.613417
0.000000 0.549138 0.636707
0.000000 0.558858 0.652297
0.000000 0.551144 0.675576
0.000000 0.556958 0.698912
0.000000 0.562815 0.718416
0.000000 0.562827 0.737865
0.000000 0.560933 0.757216
0.000000 0.562891 0.770900
0.000000 0.553143 0.759121
0.000000 0.537682 0.788374
0.000000 0.516385 0.807775
0.017523 0.552704 0.136765
0.090437 0.544987 0.149063
0.015808 0.548838 0.190960
0.037422 0.544952 0.194927
0.088661 0.554691 0.218454
0.083620 0.558532 0.237816
0.134740 0.560570 0.261487
0.143575 0.568338 0.292678
0.016314 0.562423 0.312188
0.005386 0.566348 0.333562
0.000000 0.564411 0.354975
0.000000 0.568321 0.384136
0.009811 0.566367 0.405501
0.000000 0.572243 0.436622
0.000000 0.574189 0.459851
0.032737 0.583942 0.483229
0.000000 0.578173 0.514293
0.000000 0.572326 0.531879
0.000000 0.576278 0.553216
0.000000 0.587925 0.580499
0.000000 0.597635 0.601775
0.000964 0.593765 0.619272
0.000000 0.576381 0.646458
0.000000 0.578320 0.663999
0.000000 0.591905 0.685381
0.000000 0.588032 0.706735
0.000000 0.588046 0.728093
0.000000 0.593916 0.747517
0.000000 0.593898 0.766957
0.000000 0.599761 0.786442
0.000000 0.597795 0.800015
0.000000 0.609512 0.811733
0.000000 0.623108 0.831200
0.115546 0.589660 0.156646
0.073230 0.589634 0.170296
0.014456 0.581860 0.182668
0.000000 0.579888 0.196471
0.174186 0.583860 0.229817
0.087042 0.581854 0.241687
0.135535 0.593580 0.271013
0.147082 0.591602 0.298280
0.167455 0.595545 0.325665
0.010476 0.595516 0.345182
0.000000 0.603310 0.368580
0.000000 0.597435 0.387929
0.076732 0.601416 0.426865
0.104344 0.607238 0.442357
0.000000 0.597494 0.459915
0.000000 0.605304 0.490971
0.000000 0.605322 0.510404
0.000000 0.595641 0.545429
0.000000 0.607322 0.562846
0.000000 0.609320 0.588150
0.000000 0.613151 0.611424
0.000000 0.620971 0.627105
0.000000 0.632688 0.648460
0.000000 0.617109 0.679538
0.000000 0.615205 0.696988
0.000000 0.617189 0.716424
0.000000 0.626929 0.739849
0.000000 0.621121 0.757337
0.000000 0.624975 0.778723
0.000000 0.624969 0.796157
0.000000 0.627002 0.817632
0.000000 0.617260 0.827302
0.000000 0.619223 0.831209
0.013543 0.622641 0.173902
0.026252 0.628513 0.188181
0.004368 0.630472 0.197917
0.047815 0.622642 0.205806
0.007044 0.616817 0.231604
0.044029 0.616829 0.249424
0.091282 0.620751 0.282656
0.139302 0.622688 0.302141
0.139071 0.626624 0.329373
0.197735 0.634443 0.352905
0.014456 0.626637 0.382118
0.037213 0.636381 0.401562
0.131950 0.636411 0.430714
0.162336 0.642214 0.457808
0.147397 0.648097 0.481298
0.000000 0.640295 0.506502
0.000000 0.636431 0.522082
0.000000 0.638366 0.541435
0.030474 0.632575 0.574607
0.020337 0.636525 0.592041
0.000000 0.642354 0.623109
0.000000 0.646214 0.640595
0.000000 0.644307 0.654217
0.025574 0.659880 0.685399
0.023034 0.650227 0.702932
0.000000 0.636610 0.726242
0.000000 0.644415 0.751479
0.000000 0.646363 0.761271
0.000000 0.648298 0.788383
0.000000 0.652235 0.802079
0.000000 0.656094 0.821493
0.000000 0.658116 0.856528
0.000000 0.650364 0.844880
0.248245 0.630617 0.175769
0.219813 0.634426 0.195793
0.054726 0.634339 0.205619
0.063947 0.640207 0.217620
0.119882 0.642179 0.239290
0.157090 0.651859 0.264675
0.187143 0.653832 0.286363
0.220031 0.657797 0.313754
0.231794 0.663621 0.335161
0.030991 0.655751 0.358704
0.222368 0.651958 0.387859
0.136106 0.649970 0.409297
0.135912 0.655824 0.428719
0.203512 0.659746 0.457902
0.187141 0.663649 0.483159
0.125924 0.665628 0.508486
0.007981 0.659750 0.533796
0.000000 0.659735 0.551230
0.000000 0.663670 0.578372
0.007072 0.667601 0.603760
0.083792 0.665702 0.623121
0.034780 0.667625 0.652305
0.000000 0.667645 0.667940
0.000000 0.679318 0.691192
0.121322 0.689086 0.724286
0.025145 0.681315 0.732042
0.000000 0.669677 0.753446
0.000000 0.669674 0.768939
0.000000 0.673559 0.792321
0.000000 0.679381 0.811764
0.000000 0.675535 0.823470
0.000000 0.685265 0.858442
0.000000 0.685279 0.856458
0.246246 0.634474 0.185926
0.213942 0.634463 0.195755
0.167636 0.636295 0.205598
0.146933 0.640237 0.221637
0.163198 0.649967 0.249166
0.194454 0.667470 0.276429
0.213295 0.671446 0.295993
0.247830 0.679190 0.321448
0.253786 0.679249 0.331244
0.152554 0.681103 0.368310
0.125061 0.683064 0.393677
0.192272 0.690863 0.413132
0.200837 0.686971 0.442293
0.245977 0.692827 0.467594
0.225448 0.679236 0.485113
0.227121 0.706474 0.527875
0.189003 0.704532 0.572647
0.089997 0.698656 0.566775
0.020447 0.698642 0.592025
0.125817 0.687013 0.613424
0.035106 0.687033 0.619327
0.096808 0.690947 0.650431
0.138573 0.694901 0.679596
0.000000 0.696797 0.700940
0.000000 0.708490 0.718471
0.052435 0.694896 0.733958
0.000000 0.696827 0.739849
0.000000 0.700746 0.768891
0.000000 0.693005 0.796280
0.000000 0.710490 0.819586
0.000000 0.704702 0.833162
0.000000 0.706659 0.852624
0.000000 0.714434 0.864270
0.244195 0.638357 0.197709
0.231497 0.640274 0.201445
0.225652 0.642251 0.209606
0.211498 0.644184 0.223548
0.194454 0.667470 0.276429
0.202780 0.669435 0.284306
0.219254 0.671451 0.297864
0.229157 0.685041 0.329306
0.165842 0.702445 0.352464
0.239110 0.712191 0.381872
0.234884 0.718024 0.401283
0.238891 0.723887 0.426590
0.251306 0.718081 0.450014
0.267346 0.723997 0.479268
0.259224 0.727874 0.498763
0.291039 0.739541 0.541416
0.244911 0.722035 0.547338
0.188962 0.714220 0.582336
0.152853 0.706490 0.595988
0.118455 0.710390 0.621222
0.122155 0.714272 0.648448
0.191529 0.739593 0.681561
0.000000 0.712333 0.673678
0.076646 0.733774 0.710698
0.000000 0.749290 0.743736
0.054111 0.733831 0.751520
0.000000 0.714310 0.753397
0.000000 0.718219 0.765118
0.000000 0.731898 0.796274
0.000000 0.696888 0.805992
0.000000 0.729990 0.846797
0.000000 0.737802 0.874002
0.000000 0.749461 0.885744
0.284073 0.646177 0.211493
0.284073 0.646177 0.211493
0.284073 0.646177 0.211493
0.239883 0.657752 0.245038
0.225526 0.663591 0.264535
0.215297 0.671442 0.294053
0.231332 0.681151 0.321471
0.165842 0.702445 0.352464
0.195432 0.706350 0.364212
0.238426 0.729712 0.393406
0.260759 0.743380 0.405225
0.260877 0.739499 0.434433
0.262574 0.747269 0.455865
0.266740 0.749204 0.477253
0.266815 0.751175 0.510347
0.254743 0.747326 0.522004
0.300929 0.762926 0.553067
0.310913 0.774568 0.590114
0.286545 0.768730 0.603618
0.191858 0.755087 0.650391
0.147312 0.762878 0.669875
0.145626 0.753161 0.687307
0.153095 0.764833 0.708674
0.140227 0.772647 0.724263
0.124997 0.766837 0.741800
0.095922 0.751320 0.769059
0.176535 0.766878 0.782589
0.041553 0.735760 0.782620
0.000000 0.747391 0.798270
0.000000 0.753235 0.833194
0.000000 0.761054 0.862364
0.000000 0.765057 0.881835
0.000000 0.765052 0.897451
0.299743 0.655889 0.219372
0.299743 0.655889 0.219372
0.275999 0.659763 0.233139
0.259748 0.661687 0.247064
0.253777 0.665537 0.260691
0.251771 0.675333 0.299875
0.165842 0.702445 0.352464
0.197601 0.706350 0.366216
0.236440 0.729709 0.393388
0.274762 0.758943 0.418757
0.282667 0.770653 0.426555
0.296523 0.770666 0.436319
0.264172 0.772568 0.461705
0.276433 0.778409 0.486973
0.266125 0.776478 0.516095
0.298774 0.770668 0.531675
0.338303 0.797961 0.591995
0.310375 0.797970 0.588189
0.308302 0.801789 0.588059
0.147312 0.762878 0.669875
0.147312 0.762878 0.669875
0.190619 0.784313 0.697058
0.219477 0.797943 0.716484
0.212868 0.797976 0.732143
